MoveL [[-1250.586,-781.043,1055.786],[0.507,-0.493,0.499,0.501],[0,0,-2,0],[9E+009,9E+009,9E+009,9E+009,9E+009,9E+009]],[167,500,5000,500],[TRUE,0.5,0.5,0.5,0.05,0.5,0.05],tool1\WObj:=wobj1;
MoveL [[-1240.619,-3.048,1068.033],[0.507,-0.493,0.499,0.501],[0,0,-1,0],[9E+009,9E+009,9E+009,9E+009,9E+009,9E+009]],[167,500,5000,500],[TRUE,0.5,0.5,0.5,0.05,0.5,0.05],tool1\WObj:=wobj1;
MoveL [[-1240.594,-1.049,1068.065],[0.507,-0.493,0.499,0.501],[0,0,-1,0],[9E+009,9E+009,9E+009,9E+009,9E+009,9E+009]],[167,500,5000,500],[TRUE,0.5,0.5,0.5,0.05,0.5,0.05],tool1\WObj:=wobj1;
MoveL [[-1240.166,32.345,1068.59],[0.507,-0.493,0.499,0.501],[0,0,-1,0],[9E+009,9E+009,9E+009,9E+009,9E+009,9E+009]],[3,500,5000,500],[TRUE,0.5,0.5,0.5,0.05,0.5,0.05],tool1\WObj:=wobj1;
MoveL [[-1240.619,-3.048,1068.033],[0.507,-0.493,0.499,0.501],[0,0,-1,0],[9E+009,9E+009,9E+009,9E+009,9E+009,9E+009]],[167,500,5000,500],[TRUE,0.5,0.5,0.5,0.05,0.5,0.05],tool1\WObj:=wobj1;
MoveL [[-1250.586,-781.043,1055.786],[0.507,-0.493,0.499,0.501],[0,0,-2,0],[9E+009,9E+009,9E+009,9E+009,9E+009,9E+009]],[167,500,5000,500],[TRUE,0.5,0.5,0.5,0.05,0.5,0.05],tool1\WObj:=wobj1;
MoveL [[-1251.087,-780.976,1053.848],[0.507,-0.493,0.499,0.501],[0,0,-2,0],[9E+009,9E+009,9E+009,9E+009,9E+009,9E+009]],[167,500,5000,500],[TRUE,0.5,0.5,0.5,0.05,0.5,0.05],tool1\WObj:=wobj1;
MoveL [[-1251.588,-780.91,1051.911],[0.507,-0.493,0.499,0.501],[0,0,-2,0],[9E+009,9E+009,9E+009,9E+009,9E+009,9E+009]],[167,500,5000,500],[TRUE,0.5,0.5,0.5,0.05,0.5,0.05],tool1\WObj:=wobj1;
MoveL [[-1252.089,-780.843,1049.974],[0.507,-0.493,0.499,0.501],[0,0,-2,0],[9E+009,9E+009,9E+009,9E+009,9E+009,9E+009]],[167,500,5000,500],[TRUE,0.5,0.5,0.5,0.05,0.5,0.05],tool1\WObj:=wobj1;
MoveL [[-1252.59,-780.776,1048.037],[0.507,-0.493,0.499,0.501],[0,0,-2,0],[9E+009,9E+009,9E+009,9E+009,9E+009,9E+009]],[167,500,5000,500],[TRUE,0.5,0.5,0.5,0.05,0.5,0.05],tool1\WObj:=wobj1;
MoveL [[-1253.091,-780.709,1046.1],[0.507,-0.493,0.499,0.501],[0,0,-2,0],[9E+009,9E+009,9E+009,9E+009,9E+009,9E+009]],[167,500,5000,500],[TRUE,0.5,0.5,0.5,0.05,0.5,0.05],tool1\WObj:=wobj1;
MoveL [[-1253.592,-780.642,1044.163],[0.507,-0.493,0.499,0.501],[0,0,-2,0],[9E+009,9E+009,9E+009,9E+009,9E+009,9E+009]],[167,500,5000,500],[TRUE,0.5,0.5,0.5,0.05,0.5,0.05],tool1\WObj:=wobj1;
MoveL [[-1254.093,-780.575,1042.225],[0.507,-0.493,0.499,0.501],[0,0,-2,0],[9E+009,9E+009,9E+009,9E+009,9E+009,9E+009]],[167,500,5000,500],[TRUE,0.5,0.5,0.5,0.05,0.5,0.05],tool1\WObj:=wobj1;
MoveL [[-1254.594,-780.508,1040.288],[0.507,-0.493,0.499,0.501],[0,0,-2,0],[9E+009,9E+009,9E+009,9E+009,9E+009,9E+009]],[167,500,5000,500],[TRUE,0.5,0.5,0.5,0.05,0.5,0.05],tool1\WObj:=wobj1;
MoveL [[-1255.095,-780.441,1038.351],[0.507,-0.493,0.499,0.501],[0,0,-2,0],[9E+009,9E+009,9E+009,9E+009,9E+009,9E+009]],[167,500,5000,500],[TRUE,0.5,0.5,0.5,0.05,0.5,0.05],tool1\WObj:=wobj1;
MoveL [[-1255.596,-780.374,1036.414],[0.507,-0.493,0.499,0.501],[0,0,-2,0],[9E+009,9E+009,9E+009,9E+009,9E+009,9E+009]],[167,500,5000,500],[TRUE,0.5,0.5,0.5,0.05,0.5,0.05],tool1\WObj:=wobj1;
MoveL [[-1256.097,-780.308,1034.477],[0.507,-0.493,0.499,0.501],[0,0,-2,0],[9E+009,9E+009,9E+009,9E+009,9E+009,9E+009]],[167,500,5000,500],[TRUE,0.5,0.5,0.5,0.05,0.5,0.05],tool1\WObj:=wobj1;
MoveL [[-1256.598,-780.241,1032.54],[0.507,-0.493,0.499,0.501],[0,0,-2,0],[9E+009,9E+009,9E+009,9E+009,9E+009,9E+009]],[167,500,5000,500],[TRUE,0.5,0.5,0.5,0.05,0.5,0.05],tool1\WObj:=wobj1;
MoveL [[-1257.099,-780.174,1030.602],[0.507,-0.493,0.499,0.501],[0,0,-2,0],[9E+009,9E+009,9E+009,9E+009,9E+009,9E+009]],[167,500,5000,500],[TRUE,0.5,0.5,0.5,0.05,0.5,0.05],tool1\WObj:=wobj1;
MoveL [[-1257.6,-780.107,1028.665],[0.507,-0.493,0.499,0.501],[0,0,-2,0],[9E+009,9E+009,9E+009,9E+009,9E+009,9E+009]],[167,500,5000,500],[TRUE,0.5,0.5,0.5,0.05,0.5,0.05],tool1\WObj:=wobj1;
MoveL [[-1258.101,-780.04,1026.728],[0.507,-0.493,0.499,0.501],[0,0,-2,0],[9E+009,9E+009,9E+009,9E+009,9E+009,9E+009]],[167,500,5000,500],[TRUE,0.5,0.5,0.5,0.05,0.5,0.05],tool1\WObj:=wobj1;
MoveL [[-1258.602,-779.973,1024.791],[0.507,-0.493,0.499,0.501],[0,0,-2,0],[9E+009,9E+009,9E+009,9E+009,9E+009,9E+009]],[167,500,5000,500],[TRUE,0.5,0.5,0.5,0.05,0.5,0.05],tool1\WObj:=wobj1;
MoveL [[-1259.103,-779.906,1022.854],[0.508,-0.492,0.499,0.501],[0,0,-2,0],[9E+009,9E+009,9E+009,9E+009,9E+009,9E+009]],[167,500,5000,500],[TRUE,0.5,0.5,0.5,0.05,0.5,0.05],tool1\WObj:=wobj1;
MoveL [[-1259.604,-779.839,1020.917],[0.508,-0.492,0.499,0.501],[0,0,-2,0],[9E+009,9E+009,9E+009,9E+009,9E+009,9E+009]],[167,500,5000,500],[TRUE,0.5,0.5,0.5,0.05,0.5,0.05],tool1\WObj:=wobj1;
MoveL [[-1260.105,-779.772,1018.979],[0.508,-0.492,0.499,0.501],[0,0,-2,0],[9E+009,9E+009,9E+009,9E+009,9E+009,9E+009]],[167,500,5000,500],[TRUE,0.5,0.5,0.5,0.05,0.5,0.05],tool1\WObj:=wobj1;
MoveL [[-1260.606,-779.706,1017.042],[0.508,-0.492,0.499,0.501],[0,0,-2,0],[9E+009,9E+009,9E+009,9E+009,9E+009,9E+009]],[167,500,5000,500],[TRUE,0.5,0.5,0.5,0.05,0.5,0.05],tool1\WObj:=wobj1;
MoveL [[-1261.107,-779.639,1015.105],[0.508,-0.492,0.498,0.501],[0,0,-2,0],[9E+009,9E+009,9E+009,9E+009,9E+009,9E+009]],[167,500,5000,500],[TRUE,0.5,0.5,0.5,0.05,0.5,0.05],tool1\WObj:=wobj1;
MoveL [[-1261.608,-779.572,1013.168],[0.508,-0.492,0.498,0.501],[0,0,-2,0],[9E+009,9E+009,9E+009,9E+009,9E+009,9E+009]],[167,500,5000,500],[TRUE,0.5,0.5,0.5,0.05,0.5,0.05],tool1\WObj:=wobj1;
MoveL [[-1262.109,-779.505,1011.231],[0.508,-0.492,0.498,0.501],[0,0,-2,0],[9E+009,9E+009,9E+009,9E+009,9E+009,9E+009]],[167,500,5000,500],[TRUE,0.5,0.5,0.5,0.05,0.5,0.05],tool1\WObj:=wobj1;
MoveL [[-1262.61,-779.438,1009.294],[0.508,-0.492,0.498,0.502],[0,0,-2,0],[9E+009,9E+009,9E+009,9E+009,9E+009,9E+009]],[167,500,5000,500],[TRUE,0.5,0.5,0.5,0.05,0.5,0.05],tool1\WObj:=wobj1;
MoveL [[-1263.111,-779.371,1007.356],[0.508,-0.492,0.498,0.502],[0,0,-2,0],[9E+009,9E+009,9E+009,9E+009,9E+009,9E+009]],[167,500,5000,500],[TRUE,0.5,0.5,0.5,0.05,0.5,0.05],tool1\WObj:=wobj1;
MoveL [[-1263.612,-779.304,1005.419],[0.508,-0.492,0.498,0.502],[0,0,-2,0],[9E+009,9E+009,9E+009,9E+009,9E+009,9E+009]],[167,500,5000,500],[TRUE,0.5,0.5,0.5,0.05,0.5,0.05],tool1\WObj:=wobj1;
MoveL [[-1264.113,-779.237,1003.482],[0.508,-0.492,0.498,0.502],[0,0,-2,0],[9E+009,9E+009,9E+009,9E+009,9E+009,9E+009]],[167,500,5000,500],[TRUE,0.5,0.5,0.5,0.05,0.5,0.05],tool1\WObj:=wobj1;
MoveL [[-1264.614,-779.17,1001.545],[0.508,-0.492,0.498,0.502],[0,0,-2,0],[9E+009,9E+009,9E+009,9E+009,9E+009,9E+009]],[167,500,5000,500],[TRUE,0.5,0.5,0.5,0.05,0.5,0.05],tool1\WObj:=wobj1;
MoveL [[-1265.115,-779.103,999.608],[0.508,-0.492,0.498,0.502],[0,0,-2,0],[9E+009,9E+009,9E+009,9E+009,9E+009,9E+009]],[167,500,5000,500],[TRUE,0.5,0.5,0.5,0.05,0.5,0.05],tool1\WObj:=wobj1;
MoveL [[-1265.617,-779.037,997.671],[0.508,-0.492,0.498,0.502],[0,0,-2,0],[9E+009,9E+009,9E+009,9E+009,9E+009,9E+009]],[167,500,5000,500],[TRUE,0.5,0.5,0.5,0.05,0.5,0.05],tool1\WObj:=wobj1;
MoveL [[-1266.118,-778.97,995.733],[0.508,-0.492,0.498,0.502],[0,0,-2,0],[9E+009,9E+009,9E+009,9E+009,9E+009,9E+009]],[167,500,5000,500],[TRUE,0.5,0.5,0.5,0.05,0.5,0.05],tool1\WObj:=wobj1;
MoveL [[-1266.619,-778.903,993.796],[0.508,-0.492,0.498,0.502],[0,0,-2,0],[9E+009,9E+009,9E+009,9E+009,9E+009,9E+009]],[167,500,5000,500],[TRUE,0.5,0.5,0.5,0.05,0.5,0.05],tool1\WObj:=wobj1;
MoveL [[-1267.12,-778.836,991.859],[0.508,-0.492,0.498,0.502],[0,0,-2,0],[9E+009,9E+009,9E+009,9E+009,9E+009,9E+009]],[167,500,5000,500],[TRUE,0.5,0.5,0.5,0.05,0.5,0.05],tool1\WObj:=wobj1;
MoveL [[-1267.621,-778.769,989.922],[0.508,-0.492,0.498,0.502],[0,0,-2,0],[9E+009,9E+009,9E+009,9E+009,9E+009,9E+009]],[167,500,5000,500],[TRUE,0.5,0.5,0.5,0.05,0.5,0.05],tool1\WObj:=wobj1;
MoveL [[-1268.122,-778.702,987.985],[0.508,-0.492,0.498,0.502],[0,0,-2,0],[9E+009,9E+009,9E+009,9E+009,9E+009,9E+009]],[167,500,5000,500],[TRUE,0.5,0.5,0.5,0.05,0.5,0.05],tool1\WObj:=wobj1;
MoveL [[-1268.623,-778.635,986.048],[0.508,-0.492,0.498,0.502],[0,0,-2,0],[9E+009,9E+009,9E+009,9E+009,9E+009,9E+009]],[167,500,5000,500],[TRUE,0.5,0.5,0.5,0.05,0.5,0.05],tool1\WObj:=wobj1;
MoveL [[-1269.124,-778.568,984.11],[0.508,-0.492,0.498,0.502],[0,0,-2,0],[9E+009,9E+009,9E+009,9E+009,9E+009,9E+009]],[167,500,5000,500],[TRUE,0.5,0.5,0.5,0.05,0.5,0.05],tool1\WObj:=wobj1;
MoveL [[-1269.625,-778.501,982.173],[0.508,-0.492,0.498,0.502],[0,0,-2,0],[9E+009,9E+009,9E+009,9E+009,9E+009,9E+009]],[167,500,5000,500],[TRUE,0.5,0.5,0.5,0.05,0.5,0.05],tool1\WObj:=wobj1;
MoveL [[-1270.126,-778.435,980.236],[0.508,-0.492,0.498,0.502],[0,0,-2,0],[9E+009,9E+009,9E+009,9E+009,9E+009,9E+009]],[167,500,5000,500],[TRUE,0.5,0.5,0.5,0.05,0.5,0.05],tool1\WObj:=wobj1;
MoveL [[-1270.627,-778.368,978.299],[0.508,-0.492,0.498,0.502],[0,0,-2,0],[9E+009,9E+009,9E+009,9E+009,9E+009,9E+009]],[167,500,5000,500],[TRUE,0.5,0.5,0.5,0.05,0.5,0.05],tool1\WObj:=wobj1;
MoveL [[-1271.128,-778.301,976.362],[0.508,-0.492,0.498,0.502],[0,0,-2,0],[9E+009,9E+009,9E+009,9E+009,9E+009,9E+009]],[167,500,5000,500],[TRUE,0.5,0.5,0.5,0.05,0.5,0.05],tool1\WObj:=wobj1;
MoveL [[-1271.629,-778.234,974.425],[0.508,-0.492,0.498,0.502],[0,0,-2,0],[9E+009,9E+009,9E+009,9E+009,9E+009,9E+009]],[167,500,5000,500],[TRUE,0.5,0.5,0.5,0.05,0.5,0.05],tool1\WObj:=wobj1;
MoveL [[-1272.13,-778.167,972.487],[0.508,-0.492,0.498,0.502],[0,0,-2,0],[9E+009,9E+009,9E+009,9E+009,9E+009,9E+009]],[167,500,5000,500],[TRUE,0.5,0.5,0.5,0.05,0.5,0.05],tool1\WObj:=wobj1;
MoveL [[-1272.631,-778.1,970.55],[0.508,-0.492,0.498,0.502],[0,0,-2,0],[9E+009,9E+009,9E+009,9E+009,9E+009,9E+009]],[167,500,5000,500],[TRUE,0.5,0.5,0.5,0.05,0.5,0.05],tool1\WObj:=wobj1;
MoveL [[-1273.132,-778.033,968.613],[0.508,-0.492,0.498,0.502],[0,0,-2,0],[9E+009,9E+009,9E+009,9E+009,9E+009,9E+009]],[167,500,5000,500],[TRUE,0.5,0.5,0.5,0.05,0.5,0.05],tool1\WObj:=wobj1;
MoveL [[-1273.633,-777.966,966.676],[0.508,-0.492,0.498,0.502],[0,0,-2,0],[9E+009,9E+009,9E+009,9E+009,9E+009,9E+009]],[167,500,5000,500],[TRUE,0.5,0.5,0.5,0.05,0.5,0.05],tool1\WObj:=wobj1;
MoveL [[-1274.134,-777.9,964.739],[0.508,-0.492,0.498,0.502],[0,0,-2,0],[9E+009,9E+009,9E+009,9E+009,9E+009,9E+009]],[167,500,5000,500],[TRUE,0.5,0.5,0.5,0.05,0.5,0.05],tool1\WObj:=wobj1;
MoveL [[-1274.635,-777.833,962.802],[0.508,-0.492,0.498,0.502],[0,0,-2,0],[9E+009,9E+009,9E+009,9E+009,9E+009,9E+009]],[167,500,5000,500],[TRUE,0.5,0.5,0.5,0.05,0.5,0.05],tool1\WObj:=wobj1;
MoveL [[-1275.136,-777.766,960.864],[0.508,-0.492,0.497,0.502],[0,0,-2,0],[9E+009,9E+009,9E+009,9E+009,9E+009,9E+009]],[167,500,5000,500],[TRUE,0.5,0.5,0.5,0.05,0.5,0.05],tool1\WObj:=wobj1;
MoveL [[-1275.637,-777.699,958.927],[0.508,-0.492,0.497,0.502],[0,0,-2,0],[9E+009,9E+009,9E+009,9E+009,9E+009,9E+009]],[167,500,5000,500],[TRUE,0.5,0.5,0.5,0.05,0.5,0.05],tool1\WObj:=wobj1;
MoveL [[-1276.138,-777.632,956.99],[0.508,-0.492,0.497,0.502],[0,0,-2,0],[9E+009,9E+009,9E+009,9E+009,9E+009,9E+009]],[167,500,5000,500],[TRUE,0.5,0.5,0.5,0.05,0.5,0.05],tool1\WObj:=wobj1;
MoveL [[-1276.639,-777.565,955.053],[0.508,-0.492,0.497,0.502],[0,0,-2,0],[9E+009,9E+009,9E+009,9E+009,9E+009,9E+009]],[167,500,5000,500],[TRUE,0.5,0.5,0.5,0.05,0.5,0.05],tool1\WObj:=wobj1;
MoveL [[-1277.14,-777.498,953.116],[0.508,-0.492,0.497,0.503],[0,0,-2,0],[9E+009,9E+009,9E+009,9E+009,9E+009,9E+009]],[167,500,5000,500],[TRUE,0.5,0.5,0.5,0.05,0.5,0.05],tool1\WObj:=wobj1;
MoveL [[-1277.641,-777.431,951.179],[0.508,-0.492,0.497,0.503],[0,0,-2,0],[9E+009,9E+009,9E+009,9E+009,9E+009,9E+009]],[167,500,5000,500],[TRUE,0.5,0.5,0.5,0.05,0.5,0.05],tool1\WObj:=wobj1;
MoveL [[-1278.142,-777.364,949.241],[0.508,-0.492,0.497,0.503],[0,0,-2,0],[9E+009,9E+009,9E+009,9E+009,9E+009,9E+009]],[167,500,5000,500],[TRUE,0.5,0.5,0.5,0.05,0.5,0.05],tool1\WObj:=wobj1;
MoveL [[-1278.643,-777.297,947.304],[0.508,-0.492,0.497,0.503],[0,0,-2,0],[9E+009,9E+009,9E+009,9E+009,9E+009,9E+009]],[167,500,5000,500],[TRUE,0.5,0.5,0.5,0.05,0.5,0.05],tool1\WObj:=wobj1;
MoveL [[-1279.144,-777.231,945.367],[0.508,-0.492,0.497,0.503],[0,0,-2,0],[9E+009,9E+009,9E+009,9E+009,9E+009,9E+009]],[167,500,5000,500],[TRUE,0.5,0.5,0.5,0.05,0.5,0.05],tool1\WObj:=wobj1;
MoveL [[-1279.645,-777.164,943.43],[0.508,-0.492,0.497,0.503],[0,0,-2,0],[9E+009,9E+009,9E+009,9E+009,9E+009,9E+009]],[167,500,5000,500],[TRUE,0.5,0.5,0.5,0.05,0.5,0.05],tool1\WObj:=wobj1;
MoveL [[-1280.146,-777.097,941.493],[0.508,-0.492,0.497,0.503],[0,0,-2,0],[9E+009,9E+009,9E+009,9E+009,9E+009,9E+009]],[167,500,5000,500],[TRUE,0.5,0.5,0.5,0.05,0.5,0.05],tool1\WObj:=wobj1;
MoveL [[-1280.647,-777.03,939.556],[0.508,-0.492,0.497,0.503],[0,0,-2,0],[9E+009,9E+009,9E+009,9E+009,9E+009,9E+009]],[167,500,5000,500],[TRUE,0.5,0.5,0.5,0.05,0.5,0.05],tool1\WObj:=wobj1;
MoveL [[-1281.148,-776.963,937.618],[0.508,-0.492,0.497,0.503],[0,0,-2,0],[9E+009,9E+009,9E+009,9E+009,9E+009,9E+009]],[167,500,5000,500],[TRUE,0.5,0.5,0.5,0.05,0.5,0.05],tool1\WObj:=wobj1;
MoveL [[-1281.649,-776.896,935.681],[0.508,-0.492,0.497,0.503],[0,0,-2,0],[9E+009,9E+009,9E+009,9E+009,9E+009,9E+009]],[167,500,5000,500],[TRUE,0.5,0.5,0.5,0.05,0.5,0.05],tool1\WObj:=wobj1;
MoveL [[-1282.151,-776.829,933.744],[0.508,-0.491,0.497,0.503],[0,0,-2,0],[9E+009,9E+009,9E+009,9E+009,9E+009,9E+009]],[167,500,5000,500],[TRUE,0.5,0.5,0.5,0.05,0.5,0.05],tool1\WObj:=wobj1;
MoveL [[-1282.652,-776.762,931.807],[0.509,-0.491,0.497,0.503],[0,0,-2,0],[9E+009,9E+009,9E+009,9E+009,9E+009,9E+009]],[167,500,5000,500],[TRUE,0.5,0.5,0.5,0.05,0.5,0.05],tool1\WObj:=wobj1;
MoveL [[-1283.153,-776.695,929.87],[0.509,-0.491,0.497,0.503],[0,0,-2,0],[9E+009,9E+009,9E+009,9E+009,9E+009,9E+009]],[167,500,5000,500],[TRUE,0.5,0.5,0.5,0.05,0.5,0.05],tool1\WObj:=wobj1;
MoveL [[-1283.654,-776.629,927.933],[0.509,-0.491,0.497,0.503],[0,0,-2,0],[9E+009,9E+009,9E+009,9E+009,9E+009,9E+009]],[167,500,5000,500],[TRUE,0.5,0.5,0.5,0.05,0.5,0.05],tool1\WObj:=wobj1;
MoveL [[-1284.155,-776.562,925.995],[0.509,-0.491,0.497,0.503],[0,0,-2,0],[9E+009,9E+009,9E+009,9E+009,9E+009,9E+009]],[167,500,5000,500],[TRUE,0.5,0.5,0.5,0.05,0.5,0.05],tool1\WObj:=wobj1;
MoveL [[-1284.656,-776.495,924.058],[0.509,-0.491,0.497,0.503],[0,0,-2,0],[9E+009,9E+009,9E+009,9E+009,9E+009,9E+009]],[167,500,5000,500],[TRUE,0.5,0.5,0.5,0.05,0.5,0.05],tool1\WObj:=wobj1;
MoveL [[-1285.157,-776.428,922.121],[0.509,-0.491,0.497,0.503],[0,0,-2,0],[9E+009,9E+009,9E+009,9E+009,9E+009,9E+009]],[167,500,5000,500],[TRUE,0.5,0.5,0.5,0.05,0.5,0.05],tool1\WObj:=wobj1;
MoveL [[-1285.658,-776.361,920.184],[0.509,-0.491,0.497,0.503],[0,0,-2,0],[9E+009,9E+009,9E+009,9E+009,9E+009,9E+009]],[167,500,5000,500],[TRUE,0.5,0.5,0.5,0.05,0.5,0.05],tool1\WObj:=wobj1;
MoveL [[-1286.159,-776.294,918.247],[0.509,-0.491,0.497,0.503],[0,0,-2,0],[9E+009,9E+009,9E+009,9E+009,9E+009,9E+009]],[167,500,5000,500],[TRUE,0.5,0.5,0.5,0.05,0.5,0.05],tool1\WObj:=wobj1;
MoveL [[-1286.66,-776.227,916.31],[0.509,-0.491,0.497,0.503],[0,0,-2,0],[9E+009,9E+009,9E+009,9E+009,9E+009,9E+009]],[167,500,5000,500],[TRUE,0.5,0.5,0.5,0.05,0.5,0.05],tool1\WObj:=wobj1;
MoveL [[-1287.161,-776.16,914.372],[0.509,-0.491,0.497,0.503],[0,0,-2,0],[9E+009,9E+009,9E+009,9E+009,9E+009,9E+009]],[167,500,5000,500],[TRUE,0.5,0.5,0.5,0.05,0.5,0.05],tool1\WObj:=wobj1;
MoveL [[-1287.662,-776.093,912.435],[0.509,-0.491,0.497,0.503],[0,0,-2,0],[9E+009,9E+009,9E+009,9E+009,9E+009,9E+009]],[167,500,5000,500],[TRUE,0.5,0.5,0.5,0.05,0.5,0.05],tool1\WObj:=wobj1;
MoveL [[-1288.163,-776.026,910.498],[0.509,-0.491,0.497,0.503],[0,0,-2,0],[9E+009,9E+009,9E+009,9E+009,9E+009,9E+009]],[167,500,5000,500],[TRUE,0.5,0.5,0.5,0.05,0.5,0.05],tool1\WObj:=wobj1;
MoveL [[-1288.664,-775.96,908.561],[0.509,-0.491,0.497,0.503],[0,0,-2,0],[9E+009,9E+009,9E+009,9E+009,9E+009,9E+009]],[167,500,5000,500],[TRUE,0.5,0.5,0.5,0.05,0.5,0.05],tool1\WObj:=wobj1;
MoveL [[-1289.165,-775.893,906.624],[0.509,-0.491,0.497,0.503],[0,0,-2,0],[9E+009,9E+009,9E+009,9E+009,9E+009,9E+009]],[167,500,5000,500],[TRUE,0.5,0.5,0.5,0.05,0.5,0.05],tool1\WObj:=wobj1;
MoveL [[-1289.666,-775.826,904.687],[0.509,-0.491,0.496,0.503],[0,0,-2,0],[9E+009,9E+009,9E+009,9E+009,9E+009,9E+009]],[167,500,5000,500],[TRUE,0.5,0.5,0.5,0.05,0.5,0.05],tool1\WObj:=wobj1;
MoveL [[-1290.167,-775.759,902.749],[0.509,-0.491,0.496,0.503],[0,0,-2,0],[9E+009,9E+009,9E+009,9E+009,9E+009,9E+009]],[167,500,5000,500],[TRUE,0.5,0.5,0.5,0.05,0.5,0.05],tool1\WObj:=wobj1;
MoveL [[-1290.668,-775.692,900.812],[0.509,-0.491,0.496,0.503],[0,0,-2,0],[9E+009,9E+009,9E+009,9E+009,9E+009,9E+009]],[167,500,5000,500],[TRUE,0.5,0.5,0.5,0.05,0.5,0.05],tool1\WObj:=wobj1;
MoveL [[-1291.169,-775.625,898.875],[0.509,-0.491,0.496,0.503],[0,0,-2,0],[9E+009,9E+009,9E+009,9E+009,9E+009,9E+009]],[167,500,5000,500],[TRUE,0.5,0.5,0.5,0.05,0.5,0.05],tool1\WObj:=wobj1;
MoveL [[-1291.67,-775.558,896.938],[0.509,-0.491,0.496,0.504],[0,0,-2,0],[9E+009,9E+009,9E+009,9E+009,9E+009,9E+009]],[167,500,5000,500],[TRUE,0.5,0.5,0.5,0.05,0.5,0.05],tool1\WObj:=wobj1;
MoveL [[-1292.171,-775.491,895.001],[0.509,-0.491,0.496,0.504],[0,0,-2,0],[9E+009,9E+009,9E+009,9E+009,9E+009,9E+009]],[167,500,5000,500],[TRUE,0.5,0.5,0.5,0.05,0.5,0.05],tool1\WObj:=wobj1;
MoveL [[-1292.672,-775.425,893.064],[0.509,-0.491,0.496,0.504],[0,0,-2,0],[9E+009,9E+009,9E+009,9E+009,9E+009,9E+009]],[167,500,5000,500],[TRUE,0.5,0.5,0.5,0.05,0.5,0.05],tool1\WObj:=wobj1;
MoveL [[-1293.173,-775.358,891.126],[0.509,-0.491,0.496,0.504],[0,0,-2,0],[9E+009,9E+009,9E+009,9E+009,9E+009,9E+009]],[167,500,5000,500],[TRUE,0.5,0.5,0.5,0.05,0.5,0.05],tool1\WObj:=wobj1;
MoveL [[-1293.674,-775.291,889.189],[0.509,-0.491,0.496,0.504],[0,0,-2,0],[9E+009,9E+009,9E+009,9E+009,9E+009,9E+009]],[167,500,5000,500],[TRUE,0.5,0.5,0.5,0.05,0.5,0.05],tool1\WObj:=wobj1;
MoveL [[-1294.175,-775.224,887.252],[0.509,-0.491,0.496,0.504],[0,0,-2,0],[9E+009,9E+009,9E+009,9E+009,9E+009,9E+009]],[167,500,5000,500],[TRUE,0.5,0.5,0.5,0.05,0.5,0.05],tool1\WObj:=wobj1;
MoveL [[-1294.676,-775.157,885.315],[0.509,-0.491,0.496,0.504],[0,0,-2,0],[9E+009,9E+009,9E+009,9E+009,9E+009,9E+009]],[167,500,5000,500],[TRUE,0.5,0.5,0.5,0.05,0.5,0.05],tool1\WObj:=wobj1;
MoveL [[-1295.177,-775.09,883.378],[0.509,-0.491,0.496,0.504],[0,0,-2,0],[9E+009,9E+009,9E+009,9E+009,9E+009,9E+009]],[167,500,5000,500],[TRUE,0.5,0.5,0.5,0.05,0.5,0.05],tool1\WObj:=wobj1;
MoveL [[-1295.678,-775.023,881.441],[0.509,-0.491,0.496,0.504],[0,0,-2,0],[9E+009,9E+009,9E+009,9E+009,9E+009,9E+009]],[167,500,5000,500],[TRUE,0.5,0.5,0.5,0.05,0.5,0.05],tool1\WObj:=wobj1;
MoveL [[-1296.179,-774.956,879.503],[0.509,-0.491,0.496,0.504],[0,0,-2,0],[9E+009,9E+009,9E+009,9E+009,9E+009,9E+009]],[167,500,5000,500],[TRUE,0.5,0.5,0.5,0.05,0.5,0.05],tool1\WObj:=wobj1;
MoveL [[-1296.68,-774.889,877.566],[0.509,-0.491,0.496,0.504],[0,0,-2,0],[9E+009,9E+009,9E+009,9E+009,9E+009,9E+009]],[167,500,5000,500],[TRUE,0.5,0.5,0.5,0.05,0.5,0.05],tool1\WObj:=wobj1;
MoveL [[-1297.181,-774.822,875.629],[0.509,-0.491,0.496,0.504],[0,0,-2,0],[9E+009,9E+009,9E+009,9E+009,9E+009,9E+009]],[167,500,5000,500],[TRUE,0.5,0.5,0.5,0.05,0.5,0.05],tool1\WObj:=wobj1;
MoveL [[-1297.682,-774.756,873.692],[0.509,-0.491,0.496,0.504],[0,0,-2,0],[9E+009,9E+009,9E+009,9E+009,9E+009,9E+009]],[167,500,5000,500],[TRUE,0.5,0.5,0.5,0.05,0.5,0.05],tool1\WObj:=wobj1;
MoveL [[-1298.183,-774.689,871.755],[0.509,-0.491,0.496,0.504],[0,0,-2,0],[9E+009,9E+009,9E+009,9E+009,9E+009,9E+009]],[167,500,5000,500],[TRUE,0.5,0.5,0.5,0.05,0.5,0.05],tool1\WObj:=wobj1;
MoveL [[-1298.685,-774.622,869.818],[0.509,-0.491,0.496,0.504],[0,0,-2,0],[9E+009,9E+009,9E+009,9E+009,9E+009,9E+009]],[167,500,5000,500],[TRUE,0.5,0.5,0.5,0.05,0.5,0.05],tool1\WObj:=wobj1;
MoveL [[-1299.186,-774.555,867.88],[0.509,-0.491,0.496,0.504],[0,0,-2,0],[9E+009,9E+009,9E+009,9E+009,9E+009,9E+009]],[167,500,5000,500],[TRUE,0.5,0.5,0.5,0.05,0.5,0.05],tool1\WObj:=wobj1;
MoveL [[-1299.687,-774.488,865.943],[0.509,-0.491,0.496,0.504],[0,0,-2,0],[9E+009,9E+009,9E+009,9E+009,9E+009,9E+009]],[167,500,5000,500],[TRUE,0.5,0.5,0.5,0.05,0.5,0.05],tool1\WObj:=wobj1;
MoveL [[-1300.188,-774.421,864.006],[0.509,-0.491,0.496,0.504],[0,0,-2,0],[9E+009,9E+009,9E+009,9E+009,9E+009,9E+009]],[167,500,5000,500],[TRUE,0.5,0.5,0.5,0.05,0.5,0.05],tool1\WObj:=wobj1;
MoveL [[-1300.689,-774.354,862.069],[0.509,-0.491,0.496,0.504],[0,0,-2,0],[9E+009,9E+009,9E+009,9E+009,9E+009,9E+009]],[167,500,5000,500],[TRUE,0.5,0.5,0.5,0.05,0.5,0.05],tool1\WObj:=wobj1;
MoveL [[-1301.19,-774.287,860.132],[0.509,-0.491,0.496,0.504],[0,0,-2,0],[9E+009,9E+009,9E+009,9E+009,9E+009,9E+009]],[167,500,5000,500],[TRUE,0.5,0.5,0.5,0.05,0.5,0.05],tool1\WObj:=wobj1;
MoveL [[-1301.691,-774.22,858.195],[0.509,-0.491,0.496,0.504],[0,0,-2,0],[9E+009,9E+009,9E+009,9E+009,9E+009,9E+009]],[167,500,5000,500],[TRUE,0.5,0.5,0.5,0.05,0.5,0.05],tool1\WObj:=wobj1;
MoveL [[-1302.192,-774.154,856.257],[0.509,-0.491,0.496,0.504],[0,0,-2,0],[9E+009,9E+009,9E+009,9E+009,9E+009,9E+009]],[167,500,5000,500],[TRUE,0.5,0.5,0.5,0.05,0.5,0.05],tool1\WObj:=wobj1;
MoveL [[-1302.693,-774.087,854.32],[0.509,-0.491,0.496,0.504],[0,0,-2,0],[9E+009,9E+009,9E+009,9E+009,9E+009,9E+009]],[167,500,5000,500],[TRUE,0.5,0.5,0.5,0.05,0.5,0.05],tool1\WObj:=wobj1;
MoveL [[-1303.194,-774.02,852.383],[0.509,-0.491,0.496,0.504],[0,0,-2,0],[9E+009,9E+009,9E+009,9E+009,9E+009,9E+009]],[167,500,5000,500],[TRUE,0.5,0.5,0.5,0.05,0.5,0.05],tool1\WObj:=wobj1;
MoveL [[-1303.695,-773.953,850.446],[0.509,-0.491,0.495,0.504],[0,0,-2,0],[9E+009,9E+009,9E+009,9E+009,9E+009,9E+009]],[167,500,5000,500],[TRUE,0.5,0.5,0.5,0.05,0.5,0.05],tool1\WObj:=wobj1;
MoveL [[-1304.196,-773.886,848.509],[0.509,-0.491,0.495,0.504],[0,0,-2,0],[9E+009,9E+009,9E+009,9E+009,9E+009,9E+009]],[167,500,5000,500],[TRUE,0.5,0.5,0.5,0.05,0.5,0.05],tool1\WObj:=wobj1;
MoveL [[-1304.697,-773.819,846.572],[0.509,-0.491,0.495,0.504],[0,0,-2,0],[9E+009,9E+009,9E+009,9E+009,9E+009,9E+009]],[167,500,5000,500],[TRUE,0.5,0.5,0.5,0.05,0.5,0.05],tool1\WObj:=wobj1;
MoveL [[-1305.198,-773.752,844.635],[0.509,-0.49,0.495,0.504],[0,0,-2,0],[9E+009,9E+009,9E+009,9E+009,9E+009,9E+009]],[167,500,5000,500],[TRUE,0.5,0.5,0.5,0.05,0.5,0.05],tool1\WObj:=wobj1;
MoveL [[-1305.699,-773.685,842.697],[0.509,-0.49,0.495,0.504],[0,0,-2,0],[9E+009,9E+009,9E+009,9E+009,9E+009,9E+009]],[167,500,5000,500],[TRUE,0.5,0.5,0.5,0.05,0.5,0.05],tool1\WObj:=wobj1;
MoveL [[-1306.2,-773.618,840.76],[0.51,-0.49,0.495,0.505],[0,0,-2,0],[9E+009,9E+009,9E+009,9E+009,9E+009,9E+009]],[167,500,5000,500],[TRUE,0.5,0.5,0.5,0.05,0.5,0.05],tool1\WObj:=wobj1;
MoveL [[-1306.701,-773.551,838.823],[0.51,-0.49,0.495,0.505],[0,0,-2,0],[9E+009,9E+009,9E+009,9E+009,9E+009,9E+009]],[167,500,5000,500],[TRUE,0.5,0.5,0.5,0.05,0.5,0.05],tool1\WObj:=wobj1;
MoveL [[-1307.202,-773.485,836.886],[0.51,-0.49,0.495,0.505],[0,0,-2,0],[9E+009,9E+009,9E+009,9E+009,9E+009,9E+009]],[167,500,5000,500],[TRUE,0.5,0.5,0.5,0.05,0.5,0.05],tool1\WObj:=wobj1;
MoveL [[-1307.703,-773.418,834.949],[0.51,-0.49,0.495,0.505],[0,0,-2,0],[9E+009,9E+009,9E+009,9E+009,9E+009,9E+009]],[167,500,5000,500],[TRUE,0.5,0.5,0.5,0.05,0.5,0.05],tool1\WObj:=wobj1;
MoveL [[-1308.204,-773.351,833.012],[0.51,-0.49,0.495,0.505],[0,0,-2,0],[9E+009,9E+009,9E+009,9E+009,9E+009,9E+009]],[167,500,5000,500],[TRUE,0.5,0.5,0.5,0.05,0.5,0.05],tool1\WObj:=wobj1;
MoveL [[-1308.705,-773.284,831.074],[0.51,-0.49,0.495,0.505],[0,0,-2,0],[9E+009,9E+009,9E+009,9E+009,9E+009,9E+009]],[167,500,5000,500],[TRUE,0.5,0.5,0.5,0.05,0.5,0.05],tool1\WObj:=wobj1;
MoveL [[-1309.206,-773.217,829.137],[0.51,-0.49,0.495,0.505],[0,0,-2,0],[9E+009,9E+009,9E+009,9E+009,9E+009,9E+009]],[167,500,5000,500],[TRUE,0.5,0.5,0.5,0.05,0.5,0.05],tool1\WObj:=wobj1;
MoveL [[-1309.707,-773.15,827.2],[0.51,-0.49,0.495,0.505],[0,0,-2,0],[9E+009,9E+009,9E+009,9E+009,9E+009,9E+009]],[167,500,5000,500],[TRUE,0.5,0.5,0.5,0.05,0.5,0.05],tool1\WObj:=wobj1;
MoveL [[-1310.208,-773.083,825.263],[0.51,-0.49,0.495,0.505],[0,0,-2,0],[9E+009,9E+009,9E+009,9E+009,9E+009,9E+009]],[167,500,5000,500],[TRUE,0.5,0.5,0.5,0.05,0.5,0.05],tool1\WObj:=wobj1;
MoveL [[-1310.709,-773.016,823.326],[0.51,-0.49,0.495,0.505],[0,0,-2,0],[9E+009,9E+009,9E+009,9E+009,9E+009,9E+009]],[167,500,5000,500],[TRUE,0.5,0.5,0.5,0.05,0.5,0.05],tool1\WObj:=wobj1;
MoveL [[-1311.21,-772.95,821.389],[0.51,-0.49,0.495,0.505],[0,0,-2,0],[9E+009,9E+009,9E+009,9E+009,9E+009,9E+009]],[167,500,5000,500],[TRUE,0.5,0.5,0.5,0.05,0.5,0.05],tool1\WObj:=wobj1;
MoveL [[-1311.711,-772.883,819.451],[0.51,-0.49,0.495,0.505],[0,0,-2,0],[9E+009,9E+009,9E+009,9E+009,9E+009,9E+009]],[167,500,5000,500],[TRUE,0.5,0.5,0.5,0.05,0.5,0.05],tool1\WObj:=wobj1;
MoveL [[-1312.212,-772.816,817.514],[0.51,-0.49,0.495,0.505],[0,0,-2,0],[9E+009,9E+009,9E+009,9E+009,9E+009,9E+009]],[167,500,5000,500],[TRUE,0.5,0.5,0.5,0.05,0.5,0.05],tool1\WObj:=wobj1;
MoveL [[-1312.713,-772.749,815.577],[0.51,-0.49,0.495,0.505],[0,0,-2,0],[9E+009,9E+009,9E+009,9E+009,9E+009,9E+009]],[167,500,5000,500],[TRUE,0.5,0.5,0.5,0.05,0.5,0.05],tool1\WObj:=wobj1;
MoveL [[-1313.214,-772.682,813.64],[0.51,-0.49,0.495,0.505],[0,0,-2,0],[9E+009,9E+009,9E+009,9E+009,9E+009,9E+009]],[167,500,5000,500],[TRUE,0.5,0.5,0.5,0.05,0.5,0.05],tool1\WObj:=wobj1;
MoveL [[-1313.715,-772.615,811.703],[0.51,-0.49,0.495,0.505],[0,0,-2,0],[9E+009,9E+009,9E+009,9E+009,9E+009,9E+009]],[167,500,5000,500],[TRUE,0.5,0.5,0.5,0.05,0.5,0.05],tool1\WObj:=wobj1;
MoveL [[-1314.216,-772.548,809.766],[0.51,-0.49,0.495,0.505],[0,0,-2,0],[9E+009,9E+009,9E+009,9E+009,9E+009,9E+009]],[167,500,5000,500],[TRUE,0.5,0.5,0.5,0.05,0.5,0.05],tool1\WObj:=wobj1;
MoveL [[-1314.717,-772.481,807.828],[0.51,-0.49,0.495,0.505],[0,0,-2,0],[9E+009,9E+009,9E+009,9E+009,9E+009,9E+009]],[167,500,5000,500],[TRUE,0.5,0.5,0.5,0.05,0.5,0.05],tool1\WObj:=wobj1;
MoveL [[-1315.219,-772.414,805.891],[0.51,-0.49,0.495,0.505],[0,0,-2,0],[9E+009,9E+009,9E+009,9E+009,9E+009,9E+009]],[167,500,5000,500],[TRUE,0.5,0.5,0.5,0.05,0.5,0.05],tool1\WObj:=wobj1;
MoveL [[-1315.72,-772.347,803.954],[0.51,-0.49,0.495,0.505],[0,0,-2,0],[9E+009,9E+009,9E+009,9E+009,9E+009,9E+009]],[167,500,5000,500],[TRUE,0.5,0.5,0.5,0.05,0.5,0.05],tool1\WObj:=wobj1;
MoveL [[-1316.221,-772.281,802.017],[0.51,-0.49,0.495,0.505],[0,0,-2,0],[9E+009,9E+009,9E+009,9E+009,9E+009,9E+009]],[167,500,5000,500],[TRUE,0.5,0.5,0.5,0.05,0.5,0.05],tool1\WObj:=wobj1;
MoveL [[-1316.722,-772.214,800.08],[0.51,-0.49,0.495,0.505],[0,0,-2,0],[9E+009,9E+009,9E+009,9E+009,9E+009,9E+009]],[167,500,5000,500],[TRUE,0.5,0.5,0.5,0.05,0.5,0.05],tool1\WObj:=wobj1;
MoveL [[-1317.223,-772.147,798.143],[0.51,-0.49,0.495,0.505],[0,0,-2,0],[9E+009,9E+009,9E+009,9E+009,9E+009,9E+009]],[167,500,5000,500],[TRUE,0.5,0.5,0.5,0.05,0.5,0.05],tool1\WObj:=wobj1;
MoveL [[-1317.724,-772.08,796.205],[0.51,-0.49,0.495,0.505],[0,0,-2,0],[9E+009,9E+009,9E+009,9E+009,9E+009,9E+009]],[167,500,5000,500],[TRUE,0.5,0.5,0.5,0.05,0.5,0.05],tool1\WObj:=wobj1;
MoveL [[-1318.225,-772.013,794.268],[0.51,-0.49,0.494,0.505],[0,0,-2,0],[9E+009,9E+009,9E+009,9E+009,9E+009,9E+009]],[167,500,5000,500],[TRUE,0.5,0.5,0.5,0.05,0.5,0.05],tool1\WObj:=wobj1;
MoveL [[-1318.726,-771.946,792.331],[0.51,-0.49,0.494,0.505],[0,0,-2,0],[9E+009,9E+009,9E+009,9E+009,9E+009,9E+009]],[167,500,5000,500],[TRUE,0.5,0.5,0.5,0.05,0.5,0.05],tool1\WObj:=wobj1;
MoveL [[-1319.227,-771.879,790.394],[0.51,-0.49,0.494,0.505],[0,0,-2,0],[9E+009,9E+009,9E+009,9E+009,9E+009,9E+009]],[167,500,5000,500],[TRUE,0.5,0.5,0.5,0.05,0.5,0.05],tool1\WObj:=wobj1;
MoveL [[-1319.728,-771.812,788.457],[0.51,-0.49,0.494,0.505],[0,0,-2,0],[9E+009,9E+009,9E+009,9E+009,9E+009,9E+009]],[167,500,5000,500],[TRUE,0.5,0.5,0.5,0.05,0.5,0.05],tool1\WObj:=wobj1;
MoveL [[-1320.229,-771.745,786.52],[0.51,-0.49,0.494,0.505],[0,0,-2,0],[9E+009,9E+009,9E+009,9E+009,9E+009,9E+009]],[167,500,5000,500],[TRUE,0.5,0.5,0.5,0.05,0.5,0.05],tool1\WObj:=wobj1;
MoveL [[-1320.73,-771.679,784.582],[0.51,-0.49,0.494,0.506],[0,0,-2,0],[9E+009,9E+009,9E+009,9E+009,9E+009,9E+009]],[167,500,5000,500],[TRUE,0.5,0.5,0.5,0.05,0.5,0.05],tool1\WObj:=wobj1;
MoveL [[-1321.231,-771.612,782.645],[0.51,-0.49,0.494,0.506],[0,0,-2,0],[9E+009,9E+009,9E+009,9E+009,9E+009,9E+009]],[167,500,5000,500],[TRUE,0.5,0.5,0.5,0.05,0.5,0.05],tool1\WObj:=wobj1;
MoveL [[-1321.732,-771.545,780.708],[0.51,-0.49,0.494,0.506],[0,0,-2,0],[9E+009,9E+009,9E+009,9E+009,9E+009,9E+009]],[167,500,5000,500],[TRUE,0.5,0.5,0.5,0.05,0.5,0.05],tool1\WObj:=wobj1;
MoveL [[-1322.233,-771.478,778.771],[0.51,-0.49,0.494,0.506],[0,0,-2,0],[9E+009,9E+009,9E+009,9E+009,9E+009,9E+009]],[167,500,5000,500],[TRUE,0.5,0.5,0.5,0.05,0.5,0.05],tool1\WObj:=wobj1;
MoveL [[-1322.734,-771.411,776.834],[0.51,-0.49,0.494,0.506],[0,0,-2,0],[9E+009,9E+009,9E+009,9E+009,9E+009,9E+009]],[167,500,5000,500],[TRUE,0.5,0.5,0.5,0.05,0.5,0.05],tool1\WObj:=wobj1;
MoveL [[-1323.235,-771.344,774.897],[0.51,-0.49,0.494,0.506],[0,0,-2,0],[9E+009,9E+009,9E+009,9E+009,9E+009,9E+009]],[167,500,5000,500],[TRUE,0.5,0.5,0.5,0.05,0.5,0.05],tool1\WObj:=wobj1;
MoveL [[-1323.736,-771.277,772.959],[0.51,-0.49,0.494,0.506],[0,0,-2,0],[9E+009,9E+009,9E+009,9E+009,9E+009,9E+009]],[167,500,5000,500],[TRUE,0.5,0.5,0.5,0.05,0.5,0.05],tool1\WObj:=wobj1;
MoveL [[-1324.237,-771.21,771.022],[0.51,-0.49,0.494,0.506],[0,0,-2,0],[9E+009,9E+009,9E+009,9E+009,9E+009,9E+009]],[167,500,5000,500],[TRUE,0.5,0.5,0.5,0.05,0.5,0.05],tool1\WObj:=wobj1;
MoveL [[-1324.738,-771.143,769.085],[0.51,-0.49,0.494,0.506],[0,0,-2,0],[9E+009,9E+009,9E+009,9E+009,9E+009,9E+009]],[167,500,5000,500],[TRUE,0.5,0.5,0.5,0.05,0.5,0.05],tool1\WObj:=wobj1;
MoveL [[-1325.239,-771.077,767.148],[0.51,-0.49,0.494,0.506],[0,0,-2,0],[9E+009,9E+009,9E+009,9E+009,9E+009,9E+009]],[167,500,5000,500],[TRUE,0.5,0.5,0.5,0.05,0.5,0.05],tool1\WObj:=wobj1;
MoveL [[-1325.74,-771.01,765.211],[0.51,-0.49,0.494,0.506],[0,0,-2,0],[9E+009,9E+009,9E+009,9E+009,9E+009,9E+009]],[167,500,5000,500],[TRUE,0.5,0.5,0.5,0.05,0.5,0.05],tool1\WObj:=wobj1;
MoveL [[-1326.241,-770.943,763.274],[0.51,-0.49,0.494,0.506],[0,0,-2,0],[9E+009,9E+009,9E+009,9E+009,9E+009,9E+009]],[167,500,5000,500],[TRUE,0.5,0.5,0.5,0.05,0.5,0.05],tool1\WObj:=wobj1;
MoveL [[-1326.742,-770.876,761.336],[0.51,-0.49,0.494,0.506],[0,0,-2,0],[9E+009,9E+009,9E+009,9E+009,9E+009,9E+009]],[167,500,5000,500],[TRUE,0.5,0.5,0.5,0.05,0.5,0.05],tool1\WObj:=wobj1;
MoveL [[-1327.243,-770.809,759.399],[0.51,-0.49,0.494,0.506],[0,0,-2,0],[9E+009,9E+009,9E+009,9E+009,9E+009,9E+009]],[167,500,5000,500],[TRUE,0.5,0.5,0.5,0.05,0.5,0.05],tool1\WObj:=wobj1;
MoveL [[-1327.744,-770.742,757.462],[0.51,-0.49,0.494,0.506],[0,0,-2,0],[9E+009,9E+009,9E+009,9E+009,9E+009,9E+009]],[167,500,5000,500],[TRUE,0.5,0.5,0.5,0.05,0.5,0.05],tool1\WObj:=wobj1;
MoveL [[-1328.245,-770.675,755.525],[0.51,-0.489,0.494,0.506],[0,0,-2,0],[9E+009,9E+009,9E+009,9E+009,9E+009,9E+009]],[167,500,5000,500],[TRUE,0.5,0.5,0.5,0.05,0.5,0.05],tool1\WObj:=wobj1;
MoveL [[-1328.746,-770.608,753.588],[0.51,-0.489,0.494,0.506],[0,0,-2,0],[9E+009,9E+009,9E+009,9E+009,9E+009,9E+009]],[167,500,5000,500],[TRUE,0.5,0.5,0.5,0.05,0.5,0.05],tool1\WObj:=wobj1;
MoveL [[-1329.247,-770.541,751.651],[0.51,-0.489,0.494,0.506],[0,0,-2,0],[9E+009,9E+009,9E+009,9E+009,9E+009,9E+009]],[167,500,5000,500],[TRUE,0.5,0.5,0.5,0.05,0.5,0.05],tool1\WObj:=wobj1;
MoveL [[-1329.748,-770.475,749.713],[0.511,-0.489,0.494,0.506],[0,0,-2,0],[9E+009,9E+009,9E+009,9E+009,9E+009,9E+009]],[167,500,5000,500],[TRUE,0.5,0.5,0.5,0.05,0.5,0.05],tool1\WObj:=wobj1;
MoveL [[-1330.249,-770.408,747.776],[0.511,-0.489,0.494,0.506],[0,0,-2,0],[9E+009,9E+009,9E+009,9E+009,9E+009,9E+009]],[167,500,5000,500],[TRUE,0.5,0.5,0.5,0.05,0.5,0.05],tool1\WObj:=wobj1;
MoveL [[-1330.75,-770.341,745.839],[0.511,-0.489,0.494,0.506],[0,0,-2,0],[9E+009,9E+009,9E+009,9E+009,9E+009,9E+009]],[167,500,5000,500],[TRUE,0.5,0.5,0.5,0.05,0.5,0.05],tool1\WObj:=wobj1;
MoveL [[-1331.251,-770.274,743.902],[0.511,-0.489,0.494,0.506],[0,0,-2,0],[9E+009,9E+009,9E+009,9E+009,9E+009,9E+009]],[167,500,5000,500],[TRUE,0.5,0.5,0.5,0.05,0.5,0.05],tool1\WObj:=wobj1;
MoveL [[-1331.753,-770.207,741.965],[0.511,-0.489,0.494,0.506],[0,0,-2,0],[9E+009,9E+009,9E+009,9E+009,9E+009,9E+009]],[167,500,5000,500],[TRUE,0.5,0.5,0.5,0.05,0.5,0.05],tool1\WObj:=wobj1;
MoveL [[-1332.254,-770.14,740.028],[0.511,-0.489,0.493,0.506],[0,0,-2,0],[9E+009,9E+009,9E+009,9E+009,9E+009,9E+009]],[167,500,5000,500],[TRUE,0.5,0.5,0.5,0.05,0.5,0.05],tool1\WObj:=wobj1;
MoveL [[-1332.755,-770.073,738.09],[0.511,-0.489,0.493,0.506],[0,0,-2,0],[9E+009,9E+009,9E+009,9E+009,9E+009,9E+009]],[167,500,5000,500],[TRUE,0.5,0.5,0.5,0.05,0.5,0.05],tool1\WObj:=wobj1;
MoveL [[-1333.256,-770.006,736.153],[0.511,-0.489,0.493,0.506],[0,0,-2,0],[9E+009,9E+009,9E+009,9E+009,9E+009,9E+009]],[167,500,5000,500],[TRUE,0.5,0.5,0.5,0.05,0.5,0.05],tool1\WObj:=wobj1;
MoveL [[-1333.757,-769.939,734.216],[0.511,-0.489,0.493,0.506],[0,0,-2,0],[9E+009,9E+009,9E+009,9E+009,9E+009,9E+009]],[167,500,5000,500],[TRUE,0.5,0.5,0.5,0.05,0.5,0.05],tool1\WObj:=wobj1;
MoveL [[-1334.258,-769.873,732.279],[0.511,-0.489,0.493,0.506],[0,0,-2,0],[9E+009,9E+009,9E+009,9E+009,9E+009,9E+009]],[167,500,5000,500],[TRUE,0.5,0.5,0.5,0.05,0.5,0.05],tool1\WObj:=wobj1;
MoveL [[-1334.759,-769.806,730.342],[0.511,-0.489,0.493,0.506],[0,0,-2,0],[9E+009,9E+009,9E+009,9E+009,9E+009,9E+009]],[167,500,5000,500],[TRUE,0.5,0.5,0.5,0.05,0.5,0.05],tool1\WObj:=wobj1;
MoveL [[-1335.26,-769.739,728.405],[0.511,-0.489,0.493,0.507],[0,0,-2,0],[9E+009,9E+009,9E+009,9E+009,9E+009,9E+009]],[167,500,5000,500],[TRUE,0.5,0.5,0.5,0.05,0.5,0.05],tool1\WObj:=wobj1;
MoveL [[-1335.761,-769.672,726.467],[0.511,-0.489,0.493,0.507],[0,0,-2,0],[9E+009,9E+009,9E+009,9E+009,9E+009,9E+009]],[167,500,5000,500],[TRUE,0.5,0.5,0.5,0.05,0.5,0.05],tool1\WObj:=wobj1;
MoveL [[-1336.262,-769.605,724.53],[0.511,-0.489,0.493,0.507],[0,0,-2,0],[9E+009,9E+009,9E+009,9E+009,9E+009,9E+009]],[167,500,5000,500],[TRUE,0.5,0.5,0.5,0.05,0.5,0.05],tool1\WObj:=wobj1;
MoveL [[-1336.763,-769.538,722.593],[0.511,-0.489,0.493,0.507],[0,0,-2,0],[9E+009,9E+009,9E+009,9E+009,9E+009,9E+009]],[167,500,5000,500],[TRUE,0.5,0.5,0.5,0.05,0.5,0.05],tool1\WObj:=wobj1;
MoveL [[-1337.264,-769.471,720.656],[0.511,-0.489,0.493,0.507],[0,0,-2,0],[9E+009,9E+009,9E+009,9E+009,9E+009,9E+009]],[167,500,5000,500],[TRUE,0.5,0.5,0.5,0.05,0.5,0.05],tool1\WObj:=wobj1;
MoveL [[-1337.765,-769.404,718.719],[0.511,-0.489,0.493,0.507],[0,0,-2,0],[9E+009,9E+009,9E+009,9E+009,9E+009,9E+009]],[167,500,5000,500],[TRUE,0.5,0.5,0.5,0.05,0.5,0.05],tool1\WObj:=wobj1;
MoveL [[-1338.266,-769.337,716.782],[0.511,-0.489,0.493,0.507],[0,0,-2,0],[9E+009,9E+009,9E+009,9E+009,9E+009,9E+009]],[167,500,5000,500],[TRUE,0.5,0.5,0.5,0.05,0.5,0.05],tool1\WObj:=wobj1;
MoveL [[-1338.767,-769.27,714.844],[0.511,-0.489,0.493,0.507],[0,0,-2,0],[9E+009,9E+009,9E+009,9E+009,9E+009,9E+009]],[167,500,5000,500],[TRUE,0.5,0.5,0.5,0.05,0.5,0.05],tool1\WObj:=wobj1;
MoveL [[-1339.268,-769.204,712.907],[0.511,-0.489,0.493,0.507],[0,0,-2,0],[9E+009,9E+009,9E+009,9E+009,9E+009,9E+009]],[167,500,5000,500],[TRUE,0.5,0.5,0.5,0.05,0.5,0.05],tool1\WObj:=wobj1;
MoveL [[-1339.769,-769.137,710.97],[0.511,-0.489,0.493,0.507],[0,0,-2,0],[9E+009,9E+009,9E+009,9E+009,9E+009,9E+009]],[167,500,5000,500],[TRUE,0.5,0.5,0.5,0.05,0.5,0.05],tool1\WObj:=wobj1;
MoveL [[-1340.27,-769.07,709.033],[0.511,-0.489,0.493,0.507],[0,0,-2,0],[9E+009,9E+009,9E+009,9E+009,9E+009,9E+009]],[167,500,5000,500],[TRUE,0.5,0.5,0.5,0.05,0.5,0.05],tool1\WObj:=wobj1;
MoveL [[-1340.771,-769.003,707.096],[0.511,-0.489,0.493,0.507],[0,0,-2,0],[9E+009,9E+009,9E+009,9E+009,9E+009,9E+009]],[167,500,5000,500],[TRUE,0.5,0.5,0.5,0.05,0.5,0.05],tool1\WObj:=wobj1;
MoveL [[-1341.272,-768.936,705.159],[0.511,-0.489,0.493,0.507],[0,0,-2,0],[9E+009,9E+009,9E+009,9E+009,9E+009,9E+009]],[167,500,5000,500],[TRUE,0.5,0.5,0.5,0.05,0.5,0.05],tool1\WObj:=wobj1;
MoveL [[-1341.773,-768.869,703.221],[0.511,-0.489,0.493,0.507],[0,0,-2,0],[9E+009,9E+009,9E+009,9E+009,9E+009,9E+009]],[167,500,5000,500],[TRUE,0.5,0.5,0.5,0.05,0.5,0.05],tool1\WObj:=wobj1;
MoveL [[-1342.274,-768.802,701.284],[0.511,-0.489,0.493,0.507],[0,0,-2,0],[9E+009,9E+009,9E+009,9E+009,9E+009,9E+009]],[167,500,5000,500],[TRUE,0.5,0.5,0.5,0.05,0.5,0.05],tool1\WObj:=wobj1;
MoveL [[-1342.775,-768.735,699.347],[0.511,-0.489,0.493,0.507],[0,0,-2,0],[9E+009,9E+009,9E+009,9E+009,9E+009,9E+009]],[167,500,5000,500],[TRUE,0.5,0.5,0.5,0.05,0.5,0.05],tool1\WObj:=wobj1;
MoveL [[-1343.276,-768.668,697.41],[0.511,-0.489,0.493,0.507],[0,0,-2,0],[9E+009,9E+009,9E+009,9E+009,9E+009,9E+009]],[167,500,5000,500],[TRUE,0.5,0.5,0.5,0.05,0.5,0.05],tool1\WObj:=wobj1;
MoveL [[-1343.777,-768.602,695.473],[0.511,-0.489,0.493,0.507],[0,0,-2,0],[9E+009,9E+009,9E+009,9E+009,9E+009,9E+009]],[167,500,5000,500],[TRUE,0.5,0.5,0.5,0.05,0.5,0.05],tool1\WObj:=wobj1;
MoveL [[-1344.278,-768.535,693.536],[0.511,-0.489,0.493,0.507],[0,0,-2,0],[9E+009,9E+009,9E+009,9E+009,9E+009,9E+009]],[167,500,5000,500],[TRUE,0.5,0.5,0.5,0.05,0.5,0.05],tool1\WObj:=wobj1;
MoveL [[-1344.779,-768.468,691.598],[0.511,-0.489,0.493,0.507],[0,0,-2,0],[9E+009,9E+009,9E+009,9E+009,9E+009,9E+009]],[167,500,5000,500],[TRUE,0.5,0.5,0.5,0.05,0.5,0.05],tool1\WObj:=wobj1;
MoveL [[-1345.28,-768.401,689.661],[0.511,-0.489,0.493,0.507],[0,0,-2,0],[9E+009,9E+009,9E+009,9E+009,9E+009,9E+009]],[167,500,5000,500],[TRUE,0.5,0.5,0.5,0.05,0.5,0.05],tool1\WObj:=wobj1;
MoveL [[-1345.781,-768.334,687.724],[0.511,-0.489,0.493,0.507],[0,0,-2,0],[9E+009,9E+009,9E+009,9E+009,9E+009,9E+009]],[167,500,5000,500],[TRUE,0.5,0.5,0.5,0.05,0.5,0.05],tool1\WObj:=wobj1;
MoveL [[-1346.282,-768.267,685.787],[0.511,-0.489,0.492,0.507],[0,0,-2,0],[9E+009,9E+009,9E+009,9E+009,9E+009,9E+009]],[167,500,5000,500],[TRUE,0.5,0.5,0.5,0.05,0.5,0.05],tool1\WObj:=wobj1;
MoveL [[-1346.783,-768.2,683.85],[0.511,-0.489,0.492,0.507],[0,0,-2,0],[9E+009,9E+009,9E+009,9E+009,9E+009,9E+009]],[167,500,5000,500],[TRUE,0.5,0.5,0.5,0.05,0.5,0.05],tool1\WObj:=wobj1;
MoveL [[-1347.284,-768.133,681.913],[0.511,-0.489,0.492,0.507],[0,0,-2,0],[9E+009,9E+009,9E+009,9E+009,9E+009,9E+009]],[167,500,5000,500],[TRUE,0.5,0.5,0.5,0.05,0.5,0.05],tool1\WObj:=wobj1;
MoveL [[-1347.785,-768.066,679.975],[0.511,-0.489,0.492,0.507],[0,0,-2,0],[9E+009,9E+009,9E+009,9E+009,9E+009,9E+009]],[167,500,5000,500],[TRUE,0.5,0.5,0.5,0.05,0.5,0.05],tool1\WObj:=wobj1;
MoveL [[-1348.287,-767.999,678.038],[0.511,-0.489,0.492,0.507],[0,0,-2,0],[9E+009,9E+009,9E+009,9E+009,9E+009,9E+009]],[167,500,5000,500],[TRUE,0.5,0.5,0.5,0.05,0.5,0.05],tool1\WObj:=wobj1;
MoveL [[-1348.788,-767.933,676.101],[0.511,-0.489,0.492,0.507],[0,0,-2,0],[9E+009,9E+009,9E+009,9E+009,9E+009,9E+009]],[167,500,5000,500],[TRUE,0.5,0.5,0.5,0.05,0.5,0.05],tool1\WObj:=wobj1;
MoveL [[-1349.289,-767.866,674.164],[0.511,-0.489,0.492,0.507],[0,0,-2,0],[9E+009,9E+009,9E+009,9E+009,9E+009,9E+009]],[167,500,5000,500],[TRUE,0.5,0.5,0.5,0.05,0.5,0.05],tool1\WObj:=wobj1;
MoveL [[-1349.79,-767.799,672.227],[0.511,-0.489,0.492,0.507],[0,0,-2,0],[9E+009,9E+009,9E+009,9E+009,9E+009,9E+009]],[167,500,5000,500],[TRUE,0.5,0.5,0.5,0.05,0.5,0.05],tool1\WObj:=wobj1;
MoveL [[-1350.291,-767.732,670.29],[0.511,-0.489,0.492,0.508],[0,0,-2,0],[9E+009,9E+009,9E+009,9E+009,9E+009,9E+009]],[167,500,5000,500],[TRUE,0.5,0.5,0.5,0.05,0.5,0.05],tool1\WObj:=wobj1;
MoveL [[-1350.792,-767.665,668.352],[0.511,-0.488,0.492,0.508],[0,0,-2,0],[9E+009,9E+009,9E+009,9E+009,9E+009,9E+009]],[167,500,5000,500],[TRUE,0.5,0.5,0.5,0.05,0.5,0.05],tool1\WObj:=wobj1;
MoveL [[-1351.293,-767.598,666.415],[0.511,-0.488,0.492,0.508],[0,0,-2,0],[9E+009,9E+009,9E+009,9E+009,9E+009,9E+009]],[167,500,5000,500],[TRUE,0.5,0.5,0.5,0.05,0.5,0.05],tool1\WObj:=wobj1;
MoveL [[-1351.794,-767.531,664.478],[0.511,-0.488,0.492,0.508],[0,1,-2,0],[9E+009,9E+009,9E+009,9E+009,9E+009,9E+009]],[167,500,5000,500],[TRUE,0.5,0.5,0.5,0.05,0.5,0.05],tool1\WObj:=wobj1;
MoveL [[-1352.295,-767.464,662.541],[0.511,-0.488,0.492,0.508],[0,1,-3,0],[9E+009,9E+009,9E+009,9E+009,9E+009,9E+009]],[167,500,5000,500],[TRUE,0.5,0.5,0.5,0.05,0.5,0.05],tool1\WObj:=wobj1;
MoveL [[-1352.796,-767.398,660.604],[0.511,-0.488,0.492,0.508],[0,1,-3,0],[9E+009,9E+009,9E+009,9E+009,9E+009,9E+009]],[167,500,5000,500],[TRUE,0.5,0.5,0.5,0.05,0.5,0.05],tool1\WObj:=wobj1;
MoveL [[-1353.297,-767.331,658.667],[0.512,-0.488,0.492,0.508],[0,1,-3,0],[9E+009,9E+009,9E+009,9E+009,9E+009,9E+009]],[167,500,5000,500],[TRUE,0.5,0.5,0.5,0.05,0.5,0.05],tool1\WObj:=wobj1;
MoveL [[-1353.798,-767.264,656.729],[0.512,-0.488,0.492,0.508],[0,1,-3,0],[9E+009,9E+009,9E+009,9E+009,9E+009,9E+009]],[167,500,5000,500],[TRUE,0.5,0.5,0.5,0.05,0.5,0.05],tool1\WObj:=wobj1;
MoveL [[-1354.299,-767.197,654.792],[0.512,-0.488,0.492,0.508],[0,1,-3,0],[9E+009,9E+009,9E+009,9E+009,9E+009,9E+009]],[167,500,5000,500],[TRUE,0.5,0.5,0.5,0.05,0.5,0.05],tool1\WObj:=wobj1;
MoveL [[-1354.8,-767.13,652.855],[0.512,-0.488,0.492,0.508],[0,1,-3,0],[9E+009,9E+009,9E+009,9E+009,9E+009,9E+009]],[167,500,5000,500],[TRUE,0.5,0.5,0.5,0.05,0.5,0.05],tool1\WObj:=wobj1;
MoveL [[-1355.301,-767.063,650.918],[0.512,-0.488,0.492,0.508],[0,1,-3,0],[9E+009,9E+009,9E+009,9E+009,9E+009,9E+009]],[167,500,5000,500],[TRUE,0.5,0.5,0.5,0.05,0.5,0.05],tool1\WObj:=wobj1;
MoveL [[-1355.802,-766.996,648.981],[0.512,-0.488,0.492,0.508],[0,1,-3,0],[9E+009,9E+009,9E+009,9E+009,9E+009,9E+009]],[167,500,5000,500],[TRUE,0.5,0.5,0.5,0.05,0.5,0.05],tool1\WObj:=wobj1;
MoveL [[-1356.303,-766.929,647.044],[0.512,-0.488,0.492,0.508],[0,1,-3,0],[9E+009,9E+009,9E+009,9E+009,9E+009,9E+009]],[167,500,5000,500],[TRUE,0.5,0.5,0.5,0.05,0.5,0.05],tool1\WObj:=wobj1;
MoveL [[-1356.804,-766.862,645.106],[0.512,-0.488,0.492,0.508],[0,1,-3,0],[9E+009,9E+009,9E+009,9E+009,9E+009,9E+009]],[167,500,5000,500],[TRUE,0.5,0.5,0.5,0.05,0.5,0.05],tool1\WObj:=wobj1;
MoveL [[-1357.305,-766.795,643.169],[0.512,-0.488,0.492,0.508],[0,1,-3,0],[9E+009,9E+009,9E+009,9E+009,9E+009,9E+009]],[167,500,5000,500],[TRUE,0.5,0.5,0.5,0.05,0.5,0.05],tool1\WObj:=wobj1;
MoveL [[-1357.806,-766.729,641.232],[0.512,-0.488,0.492,0.508],[0,1,-3,0],[9E+009,9E+009,9E+009,9E+009,9E+009,9E+009]],[167,500,5000,500],[TRUE,0.5,0.5,0.5,0.05,0.5,0.05],tool1\WObj:=wobj1;
MoveL [[-1358.307,-766.662,639.295],[0.512,-0.488,0.492,0.508],[0,1,-3,0],[9E+009,9E+009,9E+009,9E+009,9E+009,9E+009]],[167,500,5000,500],[TRUE,0.5,0.5,0.5,0.05,0.5,0.05],tool1\WObj:=wobj1;
MoveL [[-1358.808,-766.595,637.358],[0.512,-0.488,0.492,0.508],[0,1,-3,0],[9E+009,9E+009,9E+009,9E+009,9E+009,9E+009]],[167,500,5000,500],[TRUE,0.5,0.5,0.5,0.05,0.5,0.05],tool1\WObj:=wobj1;
MoveL [[-1359.309,-766.528,635.421],[0.512,-0.488,0.492,0.508],[0,1,-3,0],[9E+009,9E+009,9E+009,9E+009,9E+009,9E+009]],[167,500,5000,500],[TRUE,0.5,0.5,0.5,0.05,0.5,0.05],tool1\WObj:=wobj1;
MoveL [[-1359.81,-766.461,633.483],[0.512,-0.488,0.492,0.508],[0,1,-3,0],[9E+009,9E+009,9E+009,9E+009,9E+009,9E+009]],[167,500,5000,500],[TRUE,0.5,0.5,0.5,0.05,0.5,0.05],tool1\WObj:=wobj1;
MoveL [[-1360.311,-766.394,631.546],[0.512,-0.488,0.492,0.508],[0,1,-3,0],[9E+009,9E+009,9E+009,9E+009,9E+009,9E+009]],[167,500,5000,500],[TRUE,0.5,0.5,0.5,0.05,0.5,0.05],tool1\WObj:=wobj1;
MoveL [[-1360.812,-766.327,629.609],[0.512,-0.488,0.491,0.508],[0,1,-3,0],[9E+009,9E+009,9E+009,9E+009,9E+009,9E+009]],[167,500,5000,500],[TRUE,0.5,0.5,0.5,0.05,0.5,0.05],tool1\WObj:=wobj1;
MoveL [[-1361.313,-766.26,627.672],[0.512,-0.488,0.491,0.508],[0,1,-3,0],[9E+009,9E+009,9E+009,9E+009,9E+009,9E+009]],[167,500,5000,500],[TRUE,0.5,0.5,0.5,0.05,0.5,0.05],tool1\WObj:=wobj1;
MoveL [[-1361.814,-766.193,625.735],[0.512,-0.488,0.491,0.508],[0,1,-3,0],[9E+009,9E+009,9E+009,9E+009,9E+009,9E+009]],[167,500,5000,500],[TRUE,0.5,0.5,0.5,0.05,0.5,0.05],tool1\WObj:=wobj1;
MoveL [[-1362.315,-766.127,623.798],[0.512,-0.488,0.491,0.508],[0,1,-3,0],[9E+009,9E+009,9E+009,9E+009,9E+009,9E+009]],[167,500,5000,500],[TRUE,0.5,0.5,0.5,0.05,0.5,0.05],tool1\WObj:=wobj1;
MoveL [[-1362.816,-766.06,621.86],[0.512,-0.488,0.491,0.508],[0,1,-3,0],[9E+009,9E+009,9E+009,9E+009,9E+009,9E+009]],[167,500,5000,500],[TRUE,0.5,0.5,0.5,0.05,0.5,0.05],tool1\WObj:=wobj1;
MoveL [[-1363.317,-765.993,619.923],[0.512,-0.488,0.491,0.508],[0,1,-3,0],[9E+009,9E+009,9E+009,9E+009,9E+009,9E+009]],[167,500,5000,500],[TRUE,0.5,0.5,0.5,0.05,0.5,0.05],tool1\WObj:=wobj1;
MoveL [[-1363.818,-765.926,617.986],[0.512,-0.488,0.491,0.508],[0,1,-3,0],[9E+009,9E+009,9E+009,9E+009,9E+009,9E+009]],[167,500,5000,500],[TRUE,0.5,0.5,0.5,0.05,0.5,0.05],tool1\WObj:=wobj1;
MoveL [[-1364.319,-765.859,616.049],[0.512,-0.488,0.491,0.508],[0,1,-3,0],[9E+009,9E+009,9E+009,9E+009,9E+009,9E+009]],[167,500,5000,500],[TRUE,0.5,0.5,0.5,0.05,0.5,0.05],tool1\WObj:=wobj1;
MoveL [[-1364.821,-765.792,614.112],[0.512,-0.488,0.491,0.509],[0,1,-3,0],[9E+009,9E+009,9E+009,9E+009,9E+009,9E+009]],[167,500,5000,500],[TRUE,0.5,0.5,0.5,0.05,0.5,0.05],tool1\WObj:=wobj1;
MoveL [[-1365.322,-765.725,612.175],[0.512,-0.488,0.491,0.509],[0,1,-3,0],[9E+009,9E+009,9E+009,9E+009,9E+009,9E+009]],[167,500,5000,500],[TRUE,0.5,0.5,0.5,0.05,0.5,0.05],tool1\WObj:=wobj1;
MoveL [[-1365.823,-765.658,610.237],[0.512,-0.488,0.491,0.509],[0,1,-3,0],[9E+009,9E+009,9E+009,9E+009,9E+009,9E+009]],[167,500,5000,500],[TRUE,0.5,0.5,0.5,0.05,0.5,0.05],tool1\WObj:=wobj1;
MoveL [[-1366.324,-765.591,608.3],[0.512,-0.488,0.491,0.509],[0,1,-3,0],[9E+009,9E+009,9E+009,9E+009,9E+009,9E+009]],[167,500,5000,500],[TRUE,0.5,0.5,0.5,0.05,0.5,0.05],tool1\WObj:=wobj1;
MoveL [[-1366.825,-765.524,606.363],[0.512,-0.488,0.491,0.509],[0,1,-3,0],[9E+009,9E+009,9E+009,9E+009,9E+009,9E+009]],[167,500,5000,500],[TRUE,0.5,0.5,0.5,0.05,0.5,0.05],tool1\WObj:=wobj1;
MoveL [[-1367.326,-765.458,604.426],[0.512,-0.488,0.491,0.509],[0,1,-3,0],[9E+009,9E+009,9E+009,9E+009,9E+009,9E+009]],[167,500,5000,500],[TRUE,0.5,0.5,0.5,0.05,0.5,0.05],tool1\WObj:=wobj1;
MoveL [[-1367.827,-765.391,602.489],[0.512,-0.488,0.491,0.509],[0,1,-3,0],[9E+009,9E+009,9E+009,9E+009,9E+009,9E+009]],[167,500,5000,500],[TRUE,0.5,0.5,0.5,0.05,0.5,0.05],tool1\WObj:=wobj1;
MoveL [[-1368.328,-765.324,600.552],[0.512,-0.488,0.491,0.509],[0,1,-3,0],[9E+009,9E+009,9E+009,9E+009,9E+009,9E+009]],[167,500,5000,500],[TRUE,0.5,0.5,0.5,0.05,0.5,0.05],tool1\WObj:=wobj1;
MoveL [[-1368.829,-765.257,598.614],[0.512,-0.488,0.491,0.509],[0,1,-3,0],[9E+009,9E+009,9E+009,9E+009,9E+009,9E+009]],[167,500,5000,500],[TRUE,0.5,0.5,0.5,0.05,0.5,0.05],tool1\WObj:=wobj1;
MoveL [[-1369.33,-765.19,596.677],[0.512,-0.488,0.491,0.509],[0,1,-3,0],[9E+009,9E+009,9E+009,9E+009,9E+009,9E+009]],[167,500,5000,500],[TRUE,0.5,0.5,0.5,0.05,0.5,0.05],tool1\WObj:=wobj1;
MoveL [[-1369.831,-765.123,594.74],[0.512,-0.488,0.491,0.509],[0,1,-3,0],[9E+009,9E+009,9E+009,9E+009,9E+009,9E+009]],[167,500,5000,500],[TRUE,0.5,0.5,0.5,0.05,0.5,0.05],tool1\WObj:=wobj1;
MoveL [[-1370.332,-765.056,592.803],[0.512,-0.488,0.491,0.509],[0,1,-3,0],[9E+009,9E+009,9E+009,9E+009,9E+009,9E+009]],[167,500,5000,500],[TRUE,0.5,0.5,0.5,0.05,0.5,0.05],tool1\WObj:=wobj1;
MoveL [[-1370.833,-764.989,590.866],[0.512,-0.488,0.491,0.509],[0,1,-3,0],[9E+009,9E+009,9E+009,9E+009,9E+009,9E+009]],[167,500,5000,500],[TRUE,0.5,0.5,0.5,0.05,0.5,0.05],tool1\WObj:=wobj1;
MoveL [[-1371.334,-764.923,588.929],[0.512,-0.488,0.491,0.509],[0,1,-3,0],[9E+009,9E+009,9E+009,9E+009,9E+009,9E+009]],[167,500,5000,500],[TRUE,0.5,0.5,0.5,0.05,0.5,0.05],tool1\WObj:=wobj1;
MoveL [[-1371.835,-764.856,586.991],[0.512,-0.488,0.491,0.509],[0,1,-3,0],[9E+009,9E+009,9E+009,9E+009,9E+009,9E+009]],[167,500,5000,500],[TRUE,0.5,0.5,0.5,0.05,0.5,0.05],tool1\WObj:=wobj1;
MoveL [[-1372.336,-764.789,585.054],[0.512,-0.488,0.491,0.509],[0,1,-3,0],[9E+009,9E+009,9E+009,9E+009,9E+009,9E+009]],[167,500,5000,500],[TRUE,0.5,0.5,0.5,0.05,0.5,0.05],tool1\WObj:=wobj1;
MoveL [[-1372.837,-764.722,583.117],[0.512,-0.488,0.491,0.509],[0,1,-3,0],[9E+009,9E+009,9E+009,9E+009,9E+009,9E+009]],[167,500,5000,500],[TRUE,0.5,0.5,0.5,0.05,0.5,0.05],tool1\WObj:=wobj1;
MoveL [[-1373.338,-764.655,581.18],[0.512,-0.487,0.491,0.509],[0,1,-3,0],[9E+009,9E+009,9E+009,9E+009,9E+009,9E+009]],[167,500,5000,500],[TRUE,0.5,0.5,0.5,0.05,0.5,0.05],tool1\WObj:=wobj1;
MoveL [[-1373.839,-764.588,579.243],[0.512,-0.487,0.491,0.509],[0,1,-3,0],[9E+009,9E+009,9E+009,9E+009,9E+009,9E+009]],[167,500,5000,500],[TRUE,0.5,0.5,0.5,0.05,0.5,0.05],tool1\WObj:=wobj1;
MoveL [[-1374.34,-764.521,577.306],[0.512,-0.487,0.491,0.509],[0,1,-3,0],[9E+009,9E+009,9E+009,9E+009,9E+009,9E+009]],[167,500,5000,500],[TRUE,0.5,0.5,0.5,0.05,0.5,0.05],tool1\WObj:=wobj1;
MoveL [[-1374.841,-764.454,575.368],[0.512,-0.487,0.49,0.509],[0,1,-3,0],[9E+009,9E+009,9E+009,9E+009,9E+009,9E+009]],[167,500,5000,500],[TRUE,0.5,0.5,0.5,0.05,0.5,0.05],tool1\WObj:=wobj1;
MoveL [[-1375.342,-764.387,573.431],[0.512,-0.487,0.49,0.509],[0,1,-3,0],[9E+009,9E+009,9E+009,9E+009,9E+009,9E+009]],[167,500,5000,500],[TRUE,0.5,0.5,0.5,0.05,0.5,0.05],tool1\WObj:=wobj1;
MoveL [[-1375.843,-764.321,571.494],[0.512,-0.487,0.49,0.509],[0,1,-3,0],[9E+009,9E+009,9E+009,9E+009,9E+009,9E+009]],[167,500,5000,500],[TRUE,0.5,0.5,0.5,0.05,0.5,0.05],tool1\WObj:=wobj1;
MoveL [[-1376.344,-764.254,569.557],[0.512,-0.487,0.49,0.509],[0,1,-3,0],[9E+009,9E+009,9E+009,9E+009,9E+009,9E+009]],[167,500,5000,500],[TRUE,0.5,0.5,0.5,0.05,0.5,0.05],tool1\WObj:=wobj1;
MoveL [[-1376.845,-764.187,567.62],[0.512,-0.487,0.49,0.509],[0,1,-3,0],[9E+009,9E+009,9E+009,9E+009,9E+009,9E+009]],[167,500,5000,500],[TRUE,0.5,0.5,0.5,0.05,0.5,0.05],tool1\WObj:=wobj1;
MoveL [[-1377.346,-764.12,565.683],[0.513,-0.487,0.49,0.509],[0,1,-3,0],[9E+009,9E+009,9E+009,9E+009,9E+009,9E+009]],[167,500,5000,500],[TRUE,0.5,0.5,0.5,0.05,0.5,0.05],tool1\WObj:=wobj1;
MoveL [[-1377.847,-764.053,563.745],[0.513,-0.487,0.49,0.509],[0,1,-3,0],[9E+009,9E+009,9E+009,9E+009,9E+009,9E+009]],[167,500,5000,500],[TRUE,0.5,0.5,0.5,0.05,0.5,0.05],tool1\WObj:=wobj1;
MoveL [[-1378.348,-763.986,561.808],[0.513,-0.487,0.49,0.509],[0,1,-3,0],[9E+009,9E+009,9E+009,9E+009,9E+009,9E+009]],[167,500,5000,500],[TRUE,0.5,0.5,0.5,0.05,0.5,0.05],tool1\WObj:=wobj1;
MoveL [[-1378.849,-763.919,559.871],[0.513,-0.487,0.49,0.509],[0,1,-3,0],[9E+009,9E+009,9E+009,9E+009,9E+009,9E+009]],[167,500,5000,500],[TRUE,0.5,0.5,0.5,0.05,0.5,0.05],tool1\WObj:=wobj1;
MoveL [[-1379.35,-763.852,557.934],[0.513,-0.487,0.49,0.51],[0,1,-3,0],[9E+009,9E+009,9E+009,9E+009,9E+009,9E+009]],[167,500,5000,500],[TRUE,0.5,0.5,0.5,0.05,0.5,0.05],tool1\WObj:=wobj1;
MoveL [[-1379.851,-763.785,555.997],[0.513,-0.487,0.49,0.51],[0,1,-3,0],[9E+009,9E+009,9E+009,9E+009,9E+009,9E+009]],[167,500,5000,500],[TRUE,0.5,0.5,0.5,0.05,0.5,0.05],tool1\WObj:=wobj1;
MoveL [[-1380.352,-763.718,554.06],[0.513,-0.487,0.49,0.51],[0,1,-3,0],[9E+009,9E+009,9E+009,9E+009,9E+009,9E+009]],[167,500,5000,500],[TRUE,0.5,0.5,0.5,0.05,0.5,0.05],tool1\WObj:=wobj1;
MoveL [[-1380.853,-763.652,552.122],[0.513,-0.487,0.49,0.51],[0,1,-3,0],[9E+009,9E+009,9E+009,9E+009,9E+009,9E+009]],[167,500,5000,500],[TRUE,0.5,0.5,0.5,0.05,0.5,0.05],tool1\WObj:=wobj1;
MoveL [[-1381.355,-763.585,550.185],[0.513,-0.487,0.49,0.51],[0,1,-3,0],[9E+009,9E+009,9E+009,9E+009,9E+009,9E+009]],[167,500,5000,500],[TRUE,0.5,0.5,0.5,0.05,0.5,0.05],tool1\WObj:=wobj1;
MoveL [[-1381.856,-763.518,548.248],[0.513,-0.487,0.49,0.51],[0,1,-3,0],[9E+009,9E+009,9E+009,9E+009,9E+009,9E+009]],[167,500,5000,500],[TRUE,0.5,0.5,0.5,0.05,0.5,0.05],tool1\WObj:=wobj1;
MoveL [[-1382.357,-763.451,546.311],[0.513,-0.487,0.49,0.51],[0,1,-3,0],[9E+009,9E+009,9E+009,9E+009,9E+009,9E+009]],[167,500,5000,500],[TRUE,0.5,0.5,0.5,0.05,0.5,0.05],tool1\WObj:=wobj1;
MoveL [[-1382.858,-763.384,544.374],[0.513,-0.487,0.49,0.51],[0,1,-3,0],[9E+009,9E+009,9E+009,9E+009,9E+009,9E+009]],[167,500,5000,500],[TRUE,0.5,0.5,0.5,0.05,0.5,0.05],tool1\WObj:=wobj1;
MoveL [[-1383.359,-763.317,542.437],[0.513,-0.487,0.49,0.51],[0,1,-3,0],[9E+009,9E+009,9E+009,9E+009,9E+009,9E+009]],[167,500,5000,500],[TRUE,0.5,0.5,0.5,0.05,0.5,0.05],tool1\WObj:=wobj1;
MoveL [[-1383.86,-763.25,540.499],[0.513,-0.487,0.49,0.51],[0,1,-3,0],[9E+009,9E+009,9E+009,9E+009,9E+009,9E+009]],[167,500,5000,500],[TRUE,0.5,0.5,0.5,0.05,0.5,0.05],tool1\WObj:=wobj1;
MoveL [[-1384.361,-763.183,538.562],[0.513,-0.487,0.49,0.51],[0,1,-3,0],[9E+009,9E+009,9E+009,9E+009,9E+009,9E+009]],[167,500,5000,500],[TRUE,0.5,0.5,0.5,0.05,0.5,0.05],tool1\WObj:=wobj1;
MoveL [[-1384.862,-763.116,536.625],[0.513,-0.487,0.49,0.51],[0,1,-3,0],[9E+009,9E+009,9E+009,9E+009,9E+009,9E+009]],[167,500,5000,500],[TRUE,0.5,0.5,0.5,0.05,0.5,0.05],tool1\WObj:=wobj1;
MoveL [[-1385.363,-763.05,534.688],[0.513,-0.487,0.49,0.51],[0,1,-3,0],[9E+009,9E+009,9E+009,9E+009,9E+009,9E+009]],[167,500,5000,500],[TRUE,0.5,0.5,0.5,0.05,0.5,0.05],tool1\WObj:=wobj1;
MoveL [[-1385.864,-762.983,532.751],[0.513,-0.487,0.49,0.51],[0,1,-3,0],[9E+009,9E+009,9E+009,9E+009,9E+009,9E+009]],[167,500,5000,500],[TRUE,0.5,0.5,0.5,0.05,0.5,0.05],tool1\WObj:=wobj1;
MoveL [[-1386.365,-762.916,530.814],[0.513,-0.487,0.49,0.51],[0,1,-3,0],[9E+009,9E+009,9E+009,9E+009,9E+009,9E+009]],[167,500,5000,500],[TRUE,0.5,0.5,0.5,0.05,0.5,0.05],tool1\WObj:=wobj1;
MoveL [[-1386.866,-762.849,528.877],[0.513,-0.487,0.49,0.51],[0,1,-3,0],[9E+009,9E+009,9E+009,9E+009,9E+009,9E+009]],[167,500,5000,500],[TRUE,0.5,0.5,0.5,0.05,0.5,0.05],tool1\WObj:=wobj1;
MoveL [[-1387.367,-762.782,526.939],[0.513,-0.487,0.49,0.51],[0,1,-3,0],[9E+009,9E+009,9E+009,9E+009,9E+009,9E+009]],[167,500,5000,500],[TRUE,0.5,0.5,0.5,0.05,0.5,0.05],tool1\WObj:=wobj1;
MoveL [[-1387.868,-762.715,525.002],[0.513,-0.487,0.49,0.51],[0,1,-3,0],[9E+009,9E+009,9E+009,9E+009,9E+009,9E+009]],[167,500,5000,500],[TRUE,0.5,0.5,0.5,0.05,0.5,0.05],tool1\WObj:=wobj1;
MoveL [[-1388.369,-762.648,523.065],[0.513,-0.487,0.49,0.51],[0,1,-3,0],[9E+009,9E+009,9E+009,9E+009,9E+009,9E+009]],[167,500,5000,500],[TRUE,0.5,0.5,0.5,0.05,0.5,0.05],tool1\WObj:=wobj1;
MoveL [[-1388.87,-762.581,521.128],[0.513,-0.487,0.489,0.51],[0,1,-3,0],[9E+009,9E+009,9E+009,9E+009,9E+009,9E+009]],[167,500,5000,500],[TRUE,0.5,0.5,0.5,0.05,0.5,0.05],tool1\WObj:=wobj1;
MoveL [[-1389.371,-762.514,519.191],[0.513,-0.487,0.489,0.51],[0,1,-3,0],[9E+009,9E+009,9E+009,9E+009,9E+009,9E+009]],[167,500,5000,500],[TRUE,0.5,0.5,0.5,0.05,0.5,0.05],tool1\WObj:=wobj1;
MoveL [[-1389.872,-762.448,517.253],[0.513,-0.487,0.489,0.51],[0,1,-3,0],[9E+009,9E+009,9E+009,9E+009,9E+009,9E+009]],[167,500,5000,500],[TRUE,0.5,0.5,0.5,0.05,0.5,0.05],tool1\WObj:=wobj1;
MoveL [[-1390.373,-762.381,515.316],[0.513,-0.487,0.489,0.51],[0,1,-3,0],[9E+009,9E+009,9E+009,9E+009,9E+009,9E+009]],[167,500,5000,500],[TRUE,0.5,0.5,0.5,0.05,0.5,0.05],tool1\WObj:=wobj1;
MoveL [[-1390.874,-762.314,513.379],[0.513,-0.487,0.489,0.51],[0,1,-3,0],[9E+009,9E+009,9E+009,9E+009,9E+009,9E+009]],[167,500,5000,500],[TRUE,0.5,0.5,0.5,0.05,0.5,0.05],tool1\WObj:=wobj1;
MoveL [[-1391.375,-762.247,511.442],[0.513,-0.487,0.489,0.51],[0,1,-3,0],[9E+009,9E+009,9E+009,9E+009,9E+009,9E+009]],[167,500,5000,500],[TRUE,0.5,0.5,0.5,0.05,0.5,0.05],tool1\WObj:=wobj1;
MoveL [[-1391.876,-762.18,509.505],[0.513,-0.487,0.489,0.51],[0,1,-3,0],[9E+009,9E+009,9E+009,9E+009,9E+009,9E+009]],[167,500,5000,500],[TRUE,0.5,0.5,0.5,0.05,0.5,0.05],tool1\WObj:=wobj1;
MoveL [[-1392.377,-762.113,507.568],[0.513,-0.487,0.489,0.51],[0,1,-3,0],[9E+009,9E+009,9E+009,9E+009,9E+009,9E+009]],[167,500,5000,500],[TRUE,0.5,0.5,0.5,0.05,0.5,0.05],tool1\WObj:=wobj1;
MoveL [[-1392.878,-762.046,505.631],[0.513,-0.487,0.489,0.51],[0,1,-3,0],[9E+009,9E+009,9E+009,9E+009,9E+009,9E+009]],[167,500,5000,500],[TRUE,0.5,0.5,0.5,0.05,0.5,0.05],tool1\WObj:=wobj1;
MoveL [[-1393.379,-761.979,503.693],[0.513,-0.487,0.489,0.51],[0,1,-3,0],[9E+009,9E+009,9E+009,9E+009,9E+009,9E+009]],[167,500,5000,500],[TRUE,0.5,0.5,0.5,0.05,0.5,0.05],tool1\WObj:=wobj1;
MoveL [[-1393.88,-761.912,501.756],[0.513,-0.487,0.489,0.511],[0,1,-3,0],[9E+009,9E+009,9E+009,9E+009,9E+009,9E+009]],[167,500,5000,500],[TRUE,0.5,0.5,0.5,0.05,0.5,0.05],tool1\WObj:=wobj1;
MoveL [[-1394.381,-761.846,499.819],[0.513,-0.487,0.489,0.511],[0,1,-3,0],[9E+009,9E+009,9E+009,9E+009,9E+009,9E+009]],[167,500,5000,500],[TRUE,0.5,0.5,0.5,0.05,0.5,0.05],tool1\WObj:=wobj1;
MoveL [[-1394.882,-761.779,497.882],[0.513,-0.487,0.489,0.511],[0,1,-3,0],[9E+009,9E+009,9E+009,9E+009,9E+009,9E+009]],[167,500,5000,500],[TRUE,0.5,0.5,0.5,0.05,0.5,0.05],tool1\WObj:=wobj1;
MoveL [[-1395.383,-761.712,495.945],[0.513,-0.487,0.489,0.511],[0,1,-3,0],[9E+009,9E+009,9E+009,9E+009,9E+009,9E+009]],[167,500,5000,500],[TRUE,0.5,0.5,0.5,0.05,0.5,0.05],tool1\WObj:=wobj1;
MoveL [[-1395.884,-761.645,494.008],[0.513,-0.486,0.489,0.511],[0,1,-3,0],[9E+009,9E+009,9E+009,9E+009,9E+009,9E+009]],[167,500,5000,500],[TRUE,0.5,0.5,0.5,0.05,0.5,0.05],tool1\WObj:=wobj1;
MoveL [[-1396.385,-761.578,492.07],[0.513,-0.486,0.489,0.511],[0,1,-3,0],[9E+009,9E+009,9E+009,9E+009,9E+009,9E+009]],[167,500,5000,500],[TRUE,0.5,0.5,0.5,0.05,0.5,0.05],tool1\WObj:=wobj1;
MoveL [[-1396.886,-761.511,490.133],[0.513,-0.486,0.489,0.511],[0,1,-3,0],[9E+009,9E+009,9E+009,9E+009,9E+009,9E+009]],[167,500,5000,500],[TRUE,0.5,0.5,0.5,0.05,0.5,0.05],tool1\WObj:=wobj1;
MoveL [[-1397.387,-761.444,488.196],[0.513,-0.486,0.489,0.511],[0,1,-3,0],[9E+009,9E+009,9E+009,9E+009,9E+009,9E+009]],[167,500,5000,500],[TRUE,0.5,0.5,0.5,0.05,0.5,0.05],tool1\WObj:=wobj1;
MoveL [[-1397.889,-761.377,486.259],[0.513,-0.486,0.489,0.511],[0,1,-3,0],[9E+009,9E+009,9E+009,9E+009,9E+009,9E+009]],[167,500,5000,500],[TRUE,0.5,0.5,0.5,0.05,0.5,0.05],tool1\WObj:=wobj1;
MoveL [[-1398.39,-761.31,484.322],[0.513,-0.486,0.489,0.511],[0,1,-3,0],[9E+009,9E+009,9E+009,9E+009,9E+009,9E+009]],[167,500,5000,500],[TRUE,0.5,0.5,0.5,0.05,0.5,0.05],tool1\WObj:=wobj1;
MoveL [[-1398.891,-761.243,482.385],[0.513,-0.486,0.489,0.511],[0,1,-3,0],[9E+009,9E+009,9E+009,9E+009,9E+009,9E+009]],[167,500,5000,500],[TRUE,0.5,0.5,0.5,0.05,0.5,0.05],tool1\WObj:=wobj1;
MoveL [[-1399.392,-761.177,480.447],[0.513,-0.486,0.489,0.511],[0,1,-3,0],[9E+009,9E+009,9E+009,9E+009,9E+009,9E+009]],[167,500,5000,500],[TRUE,0.5,0.5,0.5,0.05,0.5,0.05],tool1\WObj:=wobj1;
MoveL [[-1399.893,-761.11,478.51],[0.513,-0.486,0.489,0.511],[0,1,-3,0],[9E+009,9E+009,9E+009,9E+009,9E+009,9E+009]],[167,500,5000,500],[TRUE,0.5,0.5,0.5,0.05,0.5,0.05],tool1\WObj:=wobj1;
MoveL [[-1400.394,-761.043,476.573],[0.513,-0.486,0.489,0.511],[0,1,-3,0],[9E+009,9E+009,9E+009,9E+009,9E+009,9E+009]],[167,500,5000,500],[TRUE,0.5,0.5,0.5,0.05,0.5,0.05],tool1\WObj:=wobj1;
MoveL [[-1400.895,-760.976,474.636],[0.513,-0.486,0.489,0.511],[0,1,-3,0],[9E+009,9E+009,9E+009,9E+009,9E+009,9E+009]],[167,500,5000,500],[TRUE,0.5,0.5,0.5,0.05,0.5,0.05],tool1\WObj:=wobj1;
MoveL [[-1401.396,-760.909,472.699],[0.514,-0.486,0.489,0.511],[0,1,-3,0],[9E+009,9E+009,9E+009,9E+009,9E+009,9E+009]],[167,500,5000,500],[TRUE,0.5,0.5,0.5,0.05,0.5,0.05],tool1\WObj:=wobj1;
MoveL [[-1401.897,-760.842,470.762],[0.514,-0.486,0.489,0.511],[0,1,-3,0],[9E+009,9E+009,9E+009,9E+009,9E+009,9E+009]],[167,500,5000,500],[TRUE,0.5,0.5,0.5,0.05,0.5,0.05],tool1\WObj:=wobj1;
MoveL [[-1402.398,-760.775,468.824],[0.514,-0.486,0.489,0.511],[0,1,-3,0],[9E+009,9E+009,9E+009,9E+009,9E+009,9E+009]],[167,500,5000,500],[TRUE,0.5,0.5,0.5,0.05,0.5,0.05],tool1\WObj:=wobj1;
MoveL [[-1402.899,-760.708,466.887],[0.514,-0.486,0.488,0.511],[0,1,-3,0],[9E+009,9E+009,9E+009,9E+009,9E+009,9E+009]],[167,500,5000,500],[TRUE,0.5,0.5,0.5,0.05,0.5,0.05],tool1\WObj:=wobj1;
MoveL [[-1403.4,-760.641,464.95],[0.514,-0.486,0.488,0.511],[0,1,-3,0],[9E+009,9E+009,9E+009,9E+009,9E+009,9E+009]],[167,500,5000,500],[TRUE,0.5,0.5,0.5,0.05,0.5,0.05],tool1\WObj:=wobj1;
MoveL [[-1403.901,-760.575,463.013],[0.514,-0.486,0.488,0.511],[0,1,-3,0],[9E+009,9E+009,9E+009,9E+009,9E+009,9E+009]],[167,500,5000,500],[TRUE,0.5,0.5,0.5,0.05,0.5,0.05],tool1\WObj:=wobj1;
MoveL [[-1404.402,-760.508,461.076],[0.514,-0.486,0.488,0.511],[0,1,-3,0],[9E+009,9E+009,9E+009,9E+009,9E+009,9E+009]],[167,500,5000,500],[TRUE,0.5,0.5,0.5,0.05,0.5,0.05],tool1\WObj:=wobj1;
MoveL [[-1404.903,-760.441,459.139],[0.514,-0.486,0.488,0.511],[0,1,-3,0],[9E+009,9E+009,9E+009,9E+009,9E+009,9E+009]],[167,500,5000,500],[TRUE,0.5,0.5,0.5,0.05,0.5,0.05],tool1\WObj:=wobj1;
MoveL [[-1405.404,-760.374,457.201],[0.514,-0.486,0.488,0.511],[0,1,-3,0],[9E+009,9E+009,9E+009,9E+009,9E+009,9E+009]],[167,500,5000,500],[TRUE,0.5,0.5,0.5,0.05,0.5,0.05],tool1\WObj:=wobj1;
MoveL [[-1405.905,-760.307,455.264],[0.514,-0.486,0.488,0.511],[0,1,-3,0],[9E+009,9E+009,9E+009,9E+009,9E+009,9E+009]],[167,500,5000,500],[TRUE,0.5,0.5,0.5,0.05,0.5,0.05],tool1\WObj:=wobj1;
MoveL [[-1406.406,-760.24,453.327],[0.514,-0.486,0.488,0.511],[0,1,-3,0],[9E+009,9E+009,9E+009,9E+009,9E+009,9E+009]],[167,500,5000,500],[TRUE,0.5,0.5,0.5,0.05,0.5,0.05],tool1\WObj:=wobj1;
MoveL [[-1406.907,-760.173,451.39],[0.514,-0.486,0.488,0.511],[0,1,-3,0],[9E+009,9E+009,9E+009,9E+009,9E+009,9E+009]],[167,500,5000,500],[TRUE,0.5,0.5,0.5,0.05,0.5,0.05],tool1\WObj:=wobj1;
MoveL [[-1407.408,-760.106,449.453],[0.514,-0.486,0.488,0.511],[0,1,-3,0],[9E+009,9E+009,9E+009,9E+009,9E+009,9E+009]],[167,500,5000,500],[TRUE,0.5,0.5,0.5,0.05,0.5,0.05],tool1\WObj:=wobj1;
MoveL [[-1407.909,-760.04,447.516],[0.514,-0.486,0.488,0.511],[0,1,-3,0],[9E+009,9E+009,9E+009,9E+009,9E+009,9E+009]],[167,500,5000,500],[TRUE,0.5,0.5,0.5,0.05,0.5,0.05],tool1\WObj:=wobj1;
MoveL [[-1408.41,-759.973,445.578],[0.514,-0.486,0.488,0.512],[0,1,-3,0],[9E+009,9E+009,9E+009,9E+009,9E+009,9E+009]],[167,500,5000,500],[TRUE,0.5,0.5,0.5,0.05,0.5,0.05],tool1\WObj:=wobj1;
MoveL [[-1408.911,-759.906,443.641],[0.514,-0.486,0.488,0.512],[0,1,-3,0],[9E+009,9E+009,9E+009,9E+009,9E+009,9E+009]],[167,500,5000,500],[TRUE,0.5,0.5,0.5,0.05,0.5,0.05],tool1\WObj:=wobj1;
MoveL [[-1409.412,-759.839,441.704],[0.514,-0.486,0.488,0.512],[0,1,-3,0],[9E+009,9E+009,9E+009,9E+009,9E+009,9E+009]],[167,500,5000,500],[TRUE,0.5,0.5,0.5,0.05,0.5,0.05],tool1\WObj:=wobj1;
MoveL [[-1409.913,-759.772,439.767],[0.514,-0.486,0.488,0.512],[0,1,-3,0],[9E+009,9E+009,9E+009,9E+009,9E+009,9E+009]],[167,500,5000,500],[TRUE,0.5,0.5,0.5,0.05,0.5,0.05],tool1\WObj:=wobj1;
MoveL [[-1410.414,-759.705,437.83],[0.514,-0.486,0.488,0.512],[0,1,-3,0],[9E+009,9E+009,9E+009,9E+009,9E+009,9E+009]],[167,500,5000,500],[TRUE,0.5,0.5,0.5,0.05,0.5,0.05],tool1\WObj:=wobj1;
MoveL [[-1410.915,-759.638,435.893],[0.514,-0.486,0.488,0.512],[0,1,-3,0],[9E+009,9E+009,9E+009,9E+009,9E+009,9E+009]],[167,500,5000,500],[TRUE,0.5,0.5,0.5,0.05,0.5,0.05],tool1\WObj:=wobj1;
MoveL [[-1411.416,-759.571,433.955],[0.514,-0.486,0.488,0.512],[0,1,-3,0],[9E+009,9E+009,9E+009,9E+009,9E+009,9E+009]],[167,500,5000,500],[TRUE,0.5,0.5,0.5,0.05,0.5,0.05],tool1\WObj:=wobj1;
MoveL [[-1411.917,-759.504,432.018],[0.514,-0.486,0.488,0.512],[0,1,-3,0],[9E+009,9E+009,9E+009,9E+009,9E+009,9E+009]],[167,500,5000,500],[TRUE,0.5,0.5,0.5,0.05,0.5,0.05],tool1\WObj:=wobj1;
MoveL [[-1412.418,-759.437,430.081],[0.514,-0.486,0.488,0.512],[0,1,-3,0],[9E+009,9E+009,9E+009,9E+009,9E+009,9E+009]],[167,500,5000,500],[TRUE,0.5,0.5,0.5,0.05,0.5,0.05],tool1\WObj:=wobj1;
MoveL [[-1412.919,-759.371,428.144],[0.514,-0.486,0.488,0.512],[0,1,-3,0],[9E+009,9E+009,9E+009,9E+009,9E+009,9E+009]],[167,500,5000,500],[TRUE,0.5,0.5,0.5,0.05,0.5,0.05],tool1\WObj:=wobj1;
MoveL [[-1413.42,-759.304,426.207],[0.514,-0.486,0.488,0.512],[0,1,-3,0],[9E+009,9E+009,9E+009,9E+009,9E+009,9E+009]],[167,500,5000,500],[TRUE,0.5,0.5,0.5,0.05,0.5,0.05],tool1\WObj:=wobj1;
MoveL [[-1413.921,-759.237,424.27],[0.514,-0.486,0.488,0.512],[0,1,-3,0],[9E+009,9E+009,9E+009,9E+009,9E+009,9E+009]],[167,500,5000,500],[TRUE,0.5,0.5,0.5,0.05,0.5,0.05],tool1\WObj:=wobj1;
MoveL [[-1414.422,-759.17,422.332],[0.514,-0.486,0.488,0.512],[0,1,-3,0],[9E+009,9E+009,9E+009,9E+009,9E+009,9E+009]],[167,500,5000,500],[TRUE,0.5,0.5,0.5,0.05,0.5,0.05],tool1\WObj:=wobj1;
MoveL [[-1414.924,-759.103,420.395],[0.514,-0.486,0.488,0.512],[0,1,-3,0],[9E+009,9E+009,9E+009,9E+009,9E+009,9E+009]],[167,500,5000,500],[TRUE,0.5,0.5,0.5,0.05,0.5,0.05],tool1\WObj:=wobj1;
MoveL [[-1415.425,-759.036,418.458],[0.514,-0.486,0.488,0.512],[0,1,-3,0],[9E+009,9E+009,9E+009,9E+009,9E+009,9E+009]],[167,500,5000,500],[TRUE,0.5,0.5,0.5,0.05,0.5,0.05],tool1\WObj:=wobj1;
MoveL [[-1415.926,-758.969,416.521],[0.514,-0.486,0.488,0.512],[0,1,-3,0],[9E+009,9E+009,9E+009,9E+009,9E+009,9E+009]],[167,500,5000,500],[TRUE,0.5,0.5,0.5,0.05,0.5,0.05],tool1\WObj:=wobj1;
MoveL [[-1416.427,-758.902,414.584],[0.514,-0.486,0.488,0.512],[0,1,-3,0],[9E+009,9E+009,9E+009,9E+009,9E+009,9E+009]],[167,500,5000,500],[TRUE,0.5,0.5,0.5,0.05,0.5,0.05],tool1\WObj:=wobj1;
MoveL [[-1416.928,-758.835,412.647],[0.514,-0.486,0.488,0.512],[0,1,-3,0],[9E+009,9E+009,9E+009,9E+009,9E+009,9E+009]],[167,500,5000,500],[TRUE,0.5,0.5,0.5,0.05,0.5,0.05],tool1\WObj:=wobj1;
MoveL [[-1417.429,-758.769,410.709],[0.514,-0.486,0.487,0.512],[0,1,-3,0],[9E+009,9E+009,9E+009,9E+009,9E+009,9E+009]],[167,500,5000,500],[TRUE,0.5,0.5,0.5,0.05,0.5,0.05],tool1\WObj:=wobj1;
MoveL [[-1417.93,-758.702,408.772],[0.514,-0.485,0.487,0.512],[0,1,-3,0],[9E+009,9E+009,9E+009,9E+009,9E+009,9E+009]],[167,500,5000,500],[TRUE,0.5,0.5,0.5,0.05,0.5,0.05],tool1\WObj:=wobj1;
MoveL [[-1418.431,-758.635,406.835],[0.514,-0.485,0.487,0.512],[0,1,-3,0],[9E+009,9E+009,9E+009,9E+009,9E+009,9E+009]],[167,500,5000,500],[TRUE,0.5,0.5,0.5,0.05,0.5,0.05],tool1\WObj:=wobj1;
MoveL [[-1418.932,-758.568,404.898],[0.514,-0.485,0.487,0.512],[0,1,-3,0],[9E+009,9E+009,9E+009,9E+009,9E+009,9E+009]],[167,500,5000,500],[TRUE,0.5,0.5,0.5,0.05,0.5,0.05],tool1\WObj:=wobj1;
MoveL [[-1419.433,-758.501,402.961],[0.514,-0.485,0.487,0.512],[0,1,-3,0],[9E+009,9E+009,9E+009,9E+009,9E+009,9E+009]],[167,500,5000,500],[TRUE,0.5,0.5,0.5,0.05,0.5,0.05],tool1\WObj:=wobj1;
MoveL [[-1419.934,-758.434,401.024],[0.514,-0.485,0.487,0.512],[0,1,-3,0],[9E+009,9E+009,9E+009,9E+009,9E+009,9E+009]],[167,500,5000,500],[TRUE,0.5,0.5,0.5,0.05,0.5,0.05],tool1\WObj:=wobj1;
MoveL [[-1420.435,-758.367,399.086],[0.514,-0.485,0.487,0.512],[0,1,-3,0],[9E+009,9E+009,9E+009,9E+009,9E+009,9E+009]],[167,500,5000,500],[TRUE,0.5,0.5,0.5,0.05,0.5,0.05],tool1\WObj:=wobj1;
MoveL [[-1420.936,-758.3,397.149],[0.514,-0.485,0.487,0.512],[0,1,-3,0],[9E+009,9E+009,9E+009,9E+009,9E+009,9E+009]],[167,500,5000,500],[TRUE,0.5,0.5,0.5,0.05,0.5,0.05],tool1\WObj:=wobj1;
MoveL [[-1421.437,-758.233,395.212],[0.514,-0.485,0.487,0.512],[0,1,-3,0],[9E+009,9E+009,9E+009,9E+009,9E+009,9E+009]],[167,500,5000,500],[TRUE,0.5,0.5,0.5,0.05,0.5,0.05],tool1\WObj:=wobj1;
MoveL [[-1421.938,-758.166,393.275],[0.514,-0.485,0.487,0.512],[0,1,-3,0],[9E+009,9E+009,9E+009,9E+009,9E+009,9E+009]],[167,500,5000,500],[TRUE,0.5,0.5,0.5,0.05,0.5,0.05],tool1\WObj:=wobj1;
MoveL [[-1422.439,-758.1,391.338],[0.514,-0.485,0.487,0.512],[0,1,-3,0],[9E+009,9E+009,9E+009,9E+009,9E+009,9E+009]],[167,500,5000,500],[TRUE,0.5,0.5,0.5,0.05,0.5,0.05],tool1\WObj:=wobj1;
MoveL [[-1422.94,-758.033,389.401],[0.514,-0.485,0.487,0.513],[0,1,-3,0],[9E+009,9E+009,9E+009,9E+009,9E+009,9E+009]],[167,500,5000,500],[TRUE,0.5,0.5,0.5,0.05,0.5,0.05],tool1\WObj:=wobj1;
MoveL [[-1423.441,-757.966,387.463],[0.514,-0.485,0.487,0.513],[0,1,-3,0],[9E+009,9E+009,9E+009,9E+009,9E+009,9E+009]],[167,500,5000,500],[TRUE,0.5,0.5,0.5,0.05,0.5,0.05],tool1\WObj:=wobj1;
MoveL [[-1423.942,-757.899,385.526],[0.514,-0.485,0.487,0.513],[0,1,-3,0],[9E+009,9E+009,9E+009,9E+009,9E+009,9E+009]],[167,500,5000,500],[TRUE,0.5,0.5,0.5,0.05,0.5,0.05],tool1\WObj:=wobj1;
MoveL [[-1424.443,-757.832,383.589],[0.514,-0.485,0.487,0.513],[0,1,-3,0],[9E+009,9E+009,9E+009,9E+009,9E+009,9E+009]],[167,500,5000,500],[TRUE,0.5,0.5,0.5,0.05,0.5,0.05],tool1\WObj:=wobj1;
MoveL [[-1424.944,-757.765,381.652],[0.514,-0.485,0.487,0.513],[0,1,-3,0],[9E+009,9E+009,9E+009,9E+009,9E+009,9E+009]],[167,500,5000,500],[TRUE,0.5,0.5,0.5,0.05,0.5,0.05],tool1\WObj:=wobj1;
MoveL [[-1425.445,-757.698,379.715],[0.515,-0.485,0.487,0.513],[0,1,-3,0],[9E+009,9E+009,9E+009,9E+009,9E+009,9E+009]],[167,500,5000,500],[TRUE,0.5,0.5,0.5,0.05,0.5,0.05],tool1\WObj:=wobj1;
MoveL [[-1425.946,-757.631,377.778],[0.515,-0.485,0.487,0.513],[0,1,-3,0],[9E+009,9E+009,9E+009,9E+009,9E+009,9E+009]],[167,500,5000,500],[TRUE,0.5,0.5,0.5,0.05,0.5,0.05],tool1\WObj:=wobj1;
MoveL [[-1426.447,-757.565,375.84],[0.515,-0.485,0.487,0.513],[0,1,-3,0],[9E+009,9E+009,9E+009,9E+009,9E+009,9E+009]],[167,500,5000,500],[TRUE,0.5,0.5,0.5,0.05,0.5,0.05],tool1\WObj:=wobj1;
MoveL [[-1426.948,-757.498,373.903],[0.515,-0.485,0.487,0.513],[0,1,-3,0],[9E+009,9E+009,9E+009,9E+009,9E+009,9E+009]],[167,500,5000,500],[TRUE,0.5,0.5,0.5,0.05,0.5,0.05],tool1\WObj:=wobj1;
MoveL [[-1427.449,-757.431,371.966],[0.515,-0.485,0.487,0.513],[0,1,-3,0],[9E+009,9E+009,9E+009,9E+009,9E+009,9E+009]],[167,500,5000,500],[TRUE,0.5,0.5,0.5,0.05,0.5,0.05],tool1\WObj:=wobj1;
MoveL [[-1427.95,-757.364,370.029],[0.515,-0.485,0.487,0.513],[0,1,-3,0],[9E+009,9E+009,9E+009,9E+009,9E+009,9E+009]],[167,500,5000,500],[TRUE,0.5,0.5,0.5,0.05,0.5,0.05],tool1\WObj:=wobj1;
MoveL [[-1428.451,-757.297,368.092],[0.515,-0.485,0.487,0.513],[0,1,-3,0],[9E+009,9E+009,9E+009,9E+009,9E+009,9E+009]],[167,500,5000,500],[TRUE,0.5,0.5,0.5,0.05,0.5,0.05],tool1\WObj:=wobj1;
MoveL [[-1428.952,-757.23,366.155],[0.515,-0.485,0.487,0.513],[0,1,-3,0],[9E+009,9E+009,9E+009,9E+009,9E+009,9E+009]],[167,500,5000,500],[TRUE,0.5,0.5,0.5,0.05,0.5,0.05],tool1\WObj:=wobj1;
MoveL [[-1429.453,-757.163,364.217],[0.515,-0.485,0.487,0.513],[0,1,-3,0],[9E+009,9E+009,9E+009,9E+009,9E+009,9E+009]],[167,500,5000,500],[TRUE,0.5,0.5,0.5,0.05,0.5,0.05],tool1\WObj:=wobj1;
MoveL [[-1429.954,-757.096,362.28],[0.515,-0.485,0.487,0.513],[0,1,-3,0],[9E+009,9E+009,9E+009,9E+009,9E+009,9E+009]],[167,500,5000,500],[TRUE,0.5,0.5,0.5,0.05,0.5,0.05],tool1\WObj:=wobj1;
MoveL [[-1430.455,-757.029,360.343],[0.515,-0.485,0.487,0.513],[0,1,-3,0],[9E+009,9E+009,9E+009,9E+009,9E+009,9E+009]],[167,500,5000,500],[TRUE,0.5,0.5,0.5,0.05,0.5,0.05],tool1\WObj:=wobj1;
MoveL [[-1430.956,-756.962,358.406],[0.515,-0.485,0.487,0.513],[0,1,-3,0],[9E+009,9E+009,9E+009,9E+009,9E+009,9E+009]],[167,500,5000,500],[TRUE,0.5,0.5,0.5,0.05,0.5,0.05],tool1\WObj:=wobj1;
MoveL [[-1431.458,-756.896,356.469],[0.515,-0.485,0.486,0.513],[0,1,-3,0],[9E+009,9E+009,9E+009,9E+009,9E+009,9E+009]],[167,500,5000,500],[TRUE,0.5,0.5,0.5,0.05,0.5,0.05],tool1\WObj:=wobj1;
MoveL [[-1431.959,-756.829,354.532],[0.515,-0.485,0.486,0.513],[0,1,-3,0],[9E+009,9E+009,9E+009,9E+009,9E+009,9E+009]],[167,500,5000,500],[TRUE,0.5,0.5,0.5,0.05,0.5,0.05],tool1\WObj:=wobj1;
MoveL [[-1432.46,-756.762,352.594],[0.515,-0.485,0.486,0.513],[0,1,-3,0],[9E+009,9E+009,9E+009,9E+009,9E+009,9E+009]],[167,500,5000,500],[TRUE,0.5,0.5,0.5,0.05,0.5,0.05],tool1\WObj:=wobj1;
MoveL [[-1432.961,-756.695,350.657],[0.515,-0.485,0.486,0.513],[0,1,-3,0],[9E+009,9E+009,9E+009,9E+009,9E+009,9E+009]],[167,500,5000,500],[TRUE,0.5,0.5,0.5,0.05,0.5,0.05],tool1\WObj:=wobj1;
MoveL [[-1433.462,-756.628,348.72],[0.515,-0.485,0.486,0.513],[0,1,-3,0],[9E+009,9E+009,9E+009,9E+009,9E+009,9E+009]],[167,500,5000,500],[TRUE,0.5,0.5,0.5,0.05,0.5,0.05],tool1\WObj:=wobj1;
MoveL [[-1433.963,-756.561,346.783],[0.515,-0.485,0.486,0.513],[0,1,-3,0],[9E+009,9E+009,9E+009,9E+009,9E+009,9E+009]],[167,500,5000,500],[TRUE,0.5,0.5,0.5,0.05,0.5,0.05],tool1\WObj:=wobj1;
MoveL [[-1434.464,-756.494,344.846],[0.515,-0.485,0.486,0.513],[0,1,-3,0],[9E+009,9E+009,9E+009,9E+009,9E+009,9E+009]],[167,500,5000,500],[TRUE,0.5,0.5,0.5,0.05,0.5,0.05],tool1\WObj:=wobj1;
MoveL [[-1434.965,-756.427,342.909],[0.515,-0.485,0.486,0.513],[0,1,-3,0],[9E+009,9E+009,9E+009,9E+009,9E+009,9E+009]],[167,500,5000,500],[TRUE,0.5,0.5,0.5,0.05,0.5,0.05],tool1\WObj:=wobj1;
MoveL [[-1435.466,-756.36,340.971],[0.515,-0.485,0.486,0.513],[0,1,-3,0],[9E+009,9E+009,9E+009,9E+009,9E+009,9E+009]],[167,500,5000,500],[TRUE,0.5,0.5,0.5,0.05,0.5,0.05],tool1\WObj:=wobj1;
MoveL [[-1435.967,-756.294,339.034],[0.515,-0.485,0.486,0.513],[0,1,-3,0],[9E+009,9E+009,9E+009,9E+009,9E+009,9E+009]],[167,500,5000,500],[TRUE,0.5,0.5,0.5,0.05,0.5,0.05],tool1\WObj:=wobj1;
MoveL [[-1436.468,-756.227,337.097],[0.515,-0.485,0.486,0.513],[0,1,-3,0],[9E+009,9E+009,9E+009,9E+009,9E+009,9E+009]],[167,500,5000,500],[TRUE,0.5,0.5,0.5,0.05,0.5,0.05],tool1\WObj:=wobj1;
MoveL [[-1436.969,-756.16,335.16],[0.515,-0.485,0.486,0.513],[0,1,-3,0],[9E+009,9E+009,9E+009,9E+009,9E+009,9E+009]],[167,500,5000,500],[TRUE,0.5,0.5,0.5,0.05,0.5,0.05],tool1\WObj:=wobj1;
MoveL [[-1437.47,-756.093,333.223],[0.515,-0.485,0.486,0.513],[0,1,-3,0],[9E+009,9E+009,9E+009,9E+009,9E+009,9E+009]],[167,500,5000,500],[TRUE,0.5,0.5,0.5,0.05,0.5,0.05],tool1\WObj:=wobj1;
MoveL [[-1437.971,-756.026,331.286],[0.515,-0.485,0.486,0.514],[0,1,-3,0],[9E+009,9E+009,9E+009,9E+009,9E+009,9E+009]],[167,500,5000,500],[TRUE,0.5,0.5,0.5,0.05,0.5,0.05],tool1\WObj:=wobj1;
MoveL [[-1438.472,-755.959,329.348],[0.515,-0.485,0.486,0.514],[0,1,-3,0],[9E+009,9E+009,9E+009,9E+009,9E+009,9E+009]],[167,500,5000,500],[TRUE,0.5,0.5,0.5,0.05,0.5,0.05],tool1\WObj:=wobj1;
MoveL [[-1438.973,-755.892,327.411],[0.515,-0.485,0.486,0.514],[0,1,-3,0],[9E+009,9E+009,9E+009,9E+009,9E+009,9E+009]],[167,500,5000,500],[TRUE,0.5,0.5,0.5,0.05,0.5,0.05],tool1\WObj:=wobj1;
MoveL [[-1439.474,-755.825,325.474],[0.515,-0.485,0.486,0.514],[0,1,-3,0],[9E+009,9E+009,9E+009,9E+009,9E+009,9E+009]],[167,500,5000,500],[TRUE,0.5,0.5,0.5,0.05,0.5,0.05],tool1\WObj:=wobj1;
MoveL [[-1439.975,-755.758,323.537],[0.515,-0.485,0.486,0.514],[0,1,-3,0],[9E+009,9E+009,9E+009,9E+009,9E+009,9E+009]],[167,500,5000,500],[TRUE,0.5,0.5,0.5,0.05,0.5,0.05],tool1\WObj:=wobj1;
MoveL [[-1440.476,-755.691,321.6],[0.515,-0.484,0.486,0.514],[0,1,-3,0],[9E+009,9E+009,9E+009,9E+009,9E+009,9E+009]],[167,500,5000,500],[TRUE,0.5,0.5,0.5,0.05,0.5,0.05],tool1\WObj:=wobj1;
MoveL [[-1440.977,-755.625,319.663],[0.515,-0.484,0.486,0.514],[0,1,-3,0],[9E+009,9E+009,9E+009,9E+009,9E+009,9E+009]],[167,500,5000,500],[TRUE,0.5,0.5,0.5,0.05,0.5,0.05],tool1\WObj:=wobj1;
MoveL [[-1441.478,-755.558,317.725],[0.515,-0.484,0.486,0.514],[0,1,-3,0],[9E+009,9E+009,9E+009,9E+009,9E+009,9E+009]],[167,500,5000,500],[TRUE,0.5,0.5,0.5,0.05,0.5,0.05],tool1\WObj:=wobj1;
MoveL [[-1441.979,-755.491,315.788],[0.515,-0.484,0.486,0.514],[0,1,-3,0],[9E+009,9E+009,9E+009,9E+009,9E+009,9E+009]],[167,500,5000,500],[TRUE,0.5,0.5,0.5,0.05,0.5,0.05],tool1\WObj:=wobj1;
MoveL [[-1442.48,-755.424,313.851],[0.515,-0.484,0.486,0.514],[0,1,-3,0],[9E+009,9E+009,9E+009,9E+009,9E+009,9E+009]],[167,500,5000,500],[TRUE,0.5,0.5,0.5,0.05,0.5,0.05],tool1\WObj:=wobj1;
MoveL [[-1442.981,-755.357,311.914],[0.515,-0.484,0.486,0.514],[0,1,-3,0],[9E+009,9E+009,9E+009,9E+009,9E+009,9E+009]],[167,500,5000,500],[TRUE,0.5,0.5,0.5,0.05,0.5,0.05],tool1\WObj:=wobj1;
MoveL [[-1443.482,-755.29,309.977],[0.515,-0.484,0.486,0.514],[0,1,-3,0],[9E+009,9E+009,9E+009,9E+009,9E+009,9E+009]],[167,500,5000,500],[TRUE,0.5,0.5,0.5,0.05,0.5,0.05],tool1\WObj:=wobj1;
MoveL [[-1443.983,-755.223,308.04],[0.515,-0.484,0.486,0.514],[0,1,-3,0],[9E+009,9E+009,9E+009,9E+009,9E+009,9E+009]],[167,500,5000,500],[TRUE,0.5,0.5,0.5,0.05,0.5,0.05],tool1\WObj:=wobj1;
MoveL [[-1444.484,-755.156,306.102],[0.515,-0.484,0.486,0.514],[0,1,-3,0],[9E+009,9E+009,9E+009,9E+009,9E+009,9E+009]],[167,500,5000,500],[TRUE,0.5,0.5,0.5,0.05,0.5,0.05],tool1\WObj:=wobj1;
MoveL [[-1444.985,-755.09,304.165],[0.515,-0.484,0.486,0.514],[0,1,-3,0],[9E+009,9E+009,9E+009,9E+009,9E+009,9E+009]],[167,500,5000,500],[TRUE,0.5,0.5,0.5,0.05,0.5,0.05],tool1\WObj:=wobj1;
MoveL [[-1445.486,-755.023,302.228],[0.515,-0.484,0.485,0.514],[0,1,-3,0],[9E+009,9E+009,9E+009,9E+009,9E+009,9E+009]],[167,500,5000,500],[TRUE,0.5,0.5,0.5,0.05,0.5,0.05],tool1\WObj:=wobj1;
MoveL [[-1445.987,-754.956,300.291],[0.515,-0.484,0.485,0.514],[0,1,-3,0],[9E+009,9E+009,9E+009,9E+009,9E+009,9E+009]],[167,500,5000,500],[TRUE,0.5,0.5,0.5,0.05,0.5,0.05],tool1\WObj:=wobj1;
MoveL [[-1446.488,-754.889,298.354],[0.515,-0.484,0.485,0.514],[0,1,-3,0],[9E+009,9E+009,9E+009,9E+009,9E+009,9E+009]],[167,500,5000,500],[TRUE,0.5,0.5,0.5,0.05,0.5,0.05],tool1\WObj:=wobj1;
MoveL [[-1446.989,-754.822,296.417],[0.515,-0.484,0.485,0.514],[0,1,-3,0],[9E+009,9E+009,9E+009,9E+009,9E+009,9E+009]],[167,500,5000,500],[TRUE,0.5,0.5,0.5,0.05,0.5,0.05],tool1\WObj:=wobj1;
MoveL [[-1447.49,-754.755,294.479],[0.515,-0.484,0.485,0.514],[0,1,-3,0],[9E+009,9E+009,9E+009,9E+009,9E+009,9E+009]],[167,500,5000,500],[TRUE,0.5,0.5,0.5,0.05,0.5,0.05],tool1\WObj:=wobj1;
MoveL [[-1447.991,-754.688,292.542],[0.515,-0.484,0.485,0.514],[0,1,-3,0],[9E+009,9E+009,9E+009,9E+009,9E+009,9E+009]],[167,500,5000,500],[TRUE,0.5,0.5,0.5,0.05,0.5,0.05],tool1\WObj:=wobj1;
MoveL [[-1448.493,-754.621,290.605],[0.515,-0.484,0.485,0.514],[0,1,-3,0],[9E+009,9E+009,9E+009,9E+009,9E+009,9E+009]],[167,500,5000,500],[TRUE,0.5,0.5,0.5,0.05,0.5,0.05],tool1\WObj:=wobj1;
MoveL [[-1448.994,-754.554,288.668],[0.515,-0.484,0.485,0.514],[0,1,-3,0],[9E+009,9E+009,9E+009,9E+009,9E+009,9E+009]],[167,500,5000,500],[TRUE,0.5,0.5,0.5,0.05,0.5,0.05],tool1\WObj:=wobj1;
MoveL [[-1449.495,-754.487,286.731],[0.515,-0.484,0.485,0.514],[0,1,-3,0],[9E+009,9E+009,9E+009,9E+009,9E+009,9E+009]],[167,500,5000,500],[TRUE,0.5,0.5,0.5,0.05,0.5,0.05],tool1\WObj:=wobj1;
MoveL [[-1449.996,-754.421,284.794],[0.516,-0.484,0.485,0.514],[0,1,-3,0],[9E+009,9E+009,9E+009,9E+009,9E+009,9E+009]],[167,500,5000,500],[TRUE,0.5,0.5,0.5,0.05,0.5,0.05],tool1\WObj:=wobj1;
MoveL [[-1450.497,-754.354,282.856],[0.516,-0.484,0.485,0.514],[0,1,-3,0],[9E+009,9E+009,9E+009,9E+009,9E+009,9E+009]],[167,500,5000,500],[TRUE,0.5,0.5,0.5,0.05,0.5,0.05],tool1\WObj:=wobj1;
MoveL [[-1450.998,-754.287,280.919],[0.516,-0.484,0.485,0.514],[0,1,-3,0],[9E+009,9E+009,9E+009,9E+009,9E+009,9E+009]],[167,500,5000,500],[TRUE,0.5,0.5,0.5,0.05,0.5,0.05],tool1\WObj:=wobj1;
MoveL [[-1451.499,-754.22,278.982],[0.516,-0.484,0.485,0.514],[0,1,-3,0],[9E+009,9E+009,9E+009,9E+009,9E+009,9E+009]],[167,500,5000,500],[TRUE,0.5,0.5,0.5,0.05,0.5,0.05],tool1\WObj:=wobj1;
MoveL [[-1452,-754.153,277.045],[0.516,-0.484,0.485,0.514],[0,1,-3,0],[9E+009,9E+009,9E+009,9E+009,9E+009,9E+009]],[167,500,5000,500],[TRUE,0.5,0.5,0.5,0.05,0.5,0.05],tool1\WObj:=wobj1;
MoveL [[-1452.501,-754.086,275.108],[0.516,-0.484,0.485,0.515],[0,1,-3,0],[9E+009,9E+009,9E+009,9E+009,9E+009,9E+009]],[167,500,5000,500],[TRUE,0.5,0.5,0.5,0.05,0.5,0.05],tool1\WObj:=wobj1;
MoveL [[-1453.002,-754.019,273.171],[0.516,-0.484,0.485,0.515],[0,1,-3,0],[9E+009,9E+009,9E+009,9E+009,9E+009,9E+009]],[167,500,5000,500],[TRUE,0.5,0.5,0.5,0.05,0.5,0.05],tool1\WObj:=wobj1;
MoveL [[-1453.503,-753.952,271.233],[0.516,-0.484,0.485,0.515],[0,1,-3,0],[9E+009,9E+009,9E+009,9E+009,9E+009,9E+009]],[167,500,5000,500],[TRUE,0.5,0.5,0.5,0.05,0.5,0.05],tool1\WObj:=wobj1;
MoveL [[-1454.004,-753.885,269.296],[0.516,-0.484,0.485,0.515],[0,1,-3,0],[9E+009,9E+009,9E+009,9E+009,9E+009,9E+009]],[167,500,5000,500],[TRUE,0.5,0.5,0.5,0.05,0.5,0.05],tool1\WObj:=wobj1;
MoveL [[-1454.505,-753.819,267.359],[0.516,-0.484,0.485,0.515],[0,1,-3,0],[9E+009,9E+009,9E+009,9E+009,9E+009,9E+009]],[167,500,5000,500],[TRUE,0.5,0.5,0.5,0.05,0.5,0.05],tool1\WObj:=wobj1;
MoveL [[-1455.006,-753.752,265.422],[0.516,-0.484,0.485,0.515],[0,1,-3,0],[9E+009,9E+009,9E+009,9E+009,9E+009,9E+009]],[167,500,5000,500],[TRUE,0.5,0.5,0.5,0.05,0.5,0.05],tool1\WObj:=wobj1;
MoveL [[-1455.507,-753.685,263.485],[0.516,-0.484,0.485,0.515],[0,1,-3,0],[9E+009,9E+009,9E+009,9E+009,9E+009,9E+009]],[167,500,5000,500],[TRUE,0.5,0.5,0.5,0.05,0.5,0.05],tool1\WObj:=wobj1;
MoveL [[-1456.008,-753.618,261.548],[0.516,-0.484,0.485,0.515],[0,1,-3,0],[9E+009,9E+009,9E+009,9E+009,9E+009,9E+009]],[167,500,5000,500],[TRUE,0.5,0.5,0.5,0.05,0.5,0.05],tool1\WObj:=wobj1;
MoveL [[-1456.509,-753.551,259.61],[0.516,-0.484,0.485,0.515],[0,1,-3,0],[9E+009,9E+009,9E+009,9E+009,9E+009,9E+009]],[167,500,5000,500],[TRUE,0.5,0.5,0.5,0.05,0.5,0.05],tool1\WObj:=wobj1;
MoveL [[-1457.01,-753.484,257.673],[0.516,-0.484,0.485,0.515],[0,1,-3,0],[9E+009,9E+009,9E+009,9E+009,9E+009,9E+009]],[167,500,5000,500],[TRUE,0.5,0.5,0.5,0.05,0.5,0.05],tool1\WObj:=wobj1;
MoveL [[-1457.511,-753.417,255.736],[0.516,-0.484,0.485,0.515],[0,1,-3,0],[9E+009,9E+009,9E+009,9E+009,9E+009,9E+009]],[167,500,5000,500],[TRUE,0.5,0.5,0.5,0.05,0.5,0.05],tool1\WObj:=wobj1;
MoveL [[-1458.012,-753.35,253.799],[0.516,-0.484,0.485,0.515],[0,1,-3,0],[9E+009,9E+009,9E+009,9E+009,9E+009,9E+009]],[167,500,5000,500],[TRUE,0.5,0.5,0.5,0.05,0.5,0.05],tool1\WObj:=wobj1;
MoveL [[-1458.513,-753.283,251.862],[0.516,-0.484,0.485,0.515],[0,1,-3,0],[9E+009,9E+009,9E+009,9E+009,9E+009,9E+009]],[167,500,5000,500],[TRUE,0.5,0.5,0.5,0.05,0.5,0.05],tool1\WObj:=wobj1;
MoveL [[-1459.014,-753.217,249.925],[0.516,-0.484,0.485,0.515],[0,1,-3,0],[9E+009,9E+009,9E+009,9E+009,9E+009,9E+009]],[167,500,5000,500],[TRUE,0.5,0.5,0.5,0.05,0.5,0.05],tool1\WObj:=wobj1;
MoveL [[-1459.515,-753.15,247.987],[0.516,-0.484,0.484,0.515],[0,1,-3,0],[9E+009,9E+009,9E+009,9E+009,9E+009,9E+009]],[167,500,5000,500],[TRUE,0.5,0.5,0.5,0.05,0.5,0.05],tool1\WObj:=wobj1;
MoveL [[-1460.016,-753.083,246.05],[0.516,-0.484,0.484,0.515],[0,1,-3,0],[9E+009,9E+009,9E+009,9E+009,9E+009,9E+009]],[167,500,5000,500],[TRUE,0.5,0.5,0.5,0.05,0.5,0.05],tool1\WObj:=wobj1;
MoveL [[-1460.517,-753.016,244.113],[0.516,-0.484,0.484,0.515],[0,1,-3,0],[9E+009,9E+009,9E+009,9E+009,9E+009,9E+009]],[167,500,5000,500],[TRUE,0.5,0.5,0.5,0.05,0.5,0.05],tool1\WObj:=wobj1;
MoveL [[-1461.018,-752.949,242.176],[0.516,-0.484,0.484,0.515],[0,1,-3,0],[9E+009,9E+009,9E+009,9E+009,9E+009,9E+009]],[167,500,5000,500],[TRUE,0.5,0.5,0.5,0.05,0.5,0.05],tool1\WObj:=wobj1;
MoveL [[-1461.519,-752.882,240.239],[0.516,-0.484,0.484,0.515],[0,1,-3,0],[9E+009,9E+009,9E+009,9E+009,9E+009,9E+009]],[167,500,5000,500],[TRUE,0.5,0.5,0.5,0.05,0.5,0.05],tool1\WObj:=wobj1;
MoveL [[-1462.02,-752.815,238.302],[0.516,-0.484,0.484,0.515],[0,1,-3,0],[9E+009,9E+009,9E+009,9E+009,9E+009,9E+009]],[167,500,5000,500],[TRUE,0.5,0.5,0.5,0.05,0.5,0.05],tool1\WObj:=wobj1;
MoveL [[-1462.521,-752.748,236.364],[0.516,-0.483,0.484,0.515],[0,1,-3,0],[9E+009,9E+009,9E+009,9E+009,9E+009,9E+009]],[167,500,5000,500],[TRUE,0.5,0.5,0.5,0.05,0.5,0.05],tool1\WObj:=wobj1;
MoveL [[-1463.022,-752.681,234.427],[0.516,-0.483,0.484,0.515],[0,1,-3,0],[9E+009,9E+009,9E+009,9E+009,9E+009,9E+009]],[167,500,5000,500],[TRUE,0.5,0.5,0.5,0.05,0.5,0.05],tool1\WObj:=wobj1;
MoveL [[-1463.523,-752.615,232.49],[0.516,-0.483,0.484,0.515],[0,1,-3,0],[9E+009,9E+009,9E+009,9E+009,9E+009,9E+009]],[167,500,5000,500],[TRUE,0.5,0.5,0.5,0.05,0.5,0.05],tool1\WObj:=wobj1;
MoveL [[-1464.024,-752.548,230.553],[0.516,-0.483,0.484,0.515],[0,1,-3,0],[9E+009,9E+009,9E+009,9E+009,9E+009,9E+009]],[167,500,5000,500],[TRUE,0.5,0.5,0.5,0.05,0.5,0.05],tool1\WObj:=wobj1;
MoveL [[-1464.525,-752.481,228.616],[0.516,-0.483,0.484,0.515],[0,1,-3,0],[9E+009,9E+009,9E+009,9E+009,9E+009,9E+009]],[167,500,5000,500],[TRUE,0.5,0.5,0.5,0.05,0.5,0.05],tool1\WObj:=wobj1;
MoveL [[-1463.348,30.253,278.719],[0.516,-0.483,0.484,0.515],[0,0,-1,0],[9E+009,9E+009,9E+009,9E+009,9E+009,9E+009]],[167,500,5000,500],[TRUE,0.5,0.5,0.5,0.05,0.5,0.05],tool1\WObj:=wobj1;
MoveL [[-1463.345,32.249,278.847],[0.516,-0.483,0.484,0.515],[0,0,-1,0],[9E+009,9E+009,9E+009,9E+009,9E+009,9E+009]],[167,500,5000,500],[TRUE,0.5,0.5,0.5,0.05,0.5,0.05],tool1\WObj:=wobj1;
MoveL [[-1463.294,65.581,280.981],[0.516,-0.483,0.484,0.515],[0,0,-1,0],[9E+009,9E+009,9E+009,9E+009,9E+009,9E+009]],[3,500,5000,500],[TRUE,0.5,0.5,0.5,0.05,0.5,0.05],tool1\WObj:=wobj1;
MoveL [[-1463.348,30.253,278.719],[0.516,-0.483,0.484,0.515],[0,0,-1,0],[9E+009,9E+009,9E+009,9E+009,9E+009,9E+009]],[167,500,5000,500],[TRUE,0.5,0.5,0.5,0.05,0.5,0.05],tool1\WObj:=wobj1;
MoveL [[-1464.525,-752.481,228.616],[0.516,-0.483,0.484,0.515],[0,1,-3,0],[9E+009,9E+009,9E+009,9E+009,9E+009,9E+009]],[167,500,5000,500],[TRUE,0.5,0.5,0.5,0.05,0.5,0.05],tool1\WObj:=wobj1;
MoveL [[-1462.556,-752.512,228.98],[0.516,-0.483,0.484,0.515],[0,1,-3,0],[9E+009,9E+009,9E+009,9E+009,9E+009,9E+009]],[167,500,5000,500],[TRUE,0.5,0.5,0.5,0.05,0.5,0.05],tool1\WObj:=wobj1;
MoveL [[-1421.19,-753.174,236.624],[0.516,-0.483,0.484,0.515],[0,1,-3,0],[9E+009,9E+009,9E+009,9E+009,9E+009,9E+009]],[167,500,5000,500],[TRUE,0.5,0.5,0.5,0.05,0.5,0.05],tool1\WObj:=wobj1;
MoveL [[-1419.221,-753.205,236.988],[0.516,-0.483,0.484,0.515],[0,1,-3,0],[9E+009,9E+009,9E+009,9E+009,9E+009,9E+009]],[167,500,5000,500],[TRUE,0.5,0.5,0.5,0.05,0.5,0.05],tool1\WObj:=wobj1;
MoveL [[-1377.855,-753.866,244.631],[0.516,-0.483,0.484,0.515],[0,1,-3,0],[9E+009,9E+009,9E+009,9E+009,9E+009,9E+009]],[167,500,5000,500],[TRUE,0.5,0.5,0.5,0.05,0.5,0.05],tool1\WObj:=wobj1;
MoveL [[-1375.885,-753.898,244.995],[0.516,-0.483,0.484,0.515],[0,1,-3,0],[9E+009,9E+009,9E+009,9E+009,9E+009,9E+009]],[167,500,5000,500],[TRUE,0.5,0.5,0.5,0.05,0.5,0.05],tool1\WObj:=wobj1;
MoveL [[-1373.916,-753.929,245.359],[0.516,-0.483,0.484,0.515],[0,1,-3,0],[9E+009,9E+009,9E+009,9E+009,9E+009,9E+009]],[167,500,5000,500],[TRUE,0.5,0.5,0.5,0.05,0.5,0.05],tool1\WObj:=wobj1;
MoveL [[-1332.55,-754.591,253.003],[0.516,-0.483,0.484,0.515],[0,1,-3,0],[9E+009,9E+009,9E+009,9E+009,9E+009,9E+009]],[167,500,5000,500],[TRUE,0.5,0.5,0.5,0.05,0.5,0.05],tool1\WObj:=wobj1;
MoveL [[-1330.58,-754.622,253.367],[0.516,-0.483,0.484,0.515],[0,1,-3,0],[9E+009,9E+009,9E+009,9E+009,9E+009,9E+009]],[167,500,5000,500],[TRUE,0.5,0.5,0.5,0.05,0.5,0.05],tool1\WObj:=wobj1;
MoveL [[-1328.611,-754.654,253.731],[0.516,-0.483,0.484,0.515],[0,1,-3,0],[9E+009,9E+009,9E+009,9E+009,9E+009,9E+009]],[167,500,5000,500],[TRUE,0.5,0.5,0.5,0.05,0.5,0.05],tool1\WObj:=wobj1;
MoveL [[-1287.245,-755.315,261.375],[0.516,-0.483,0.484,0.515],[0,1,-3,0],[9E+009,9E+009,9E+009,9E+009,9E+009,9E+009]],[167,500,5000,500],[TRUE,0.5,0.5,0.5,0.05,0.5,0.05],tool1\WObj:=wobj1;
MoveL [[-1285.275,-755.346,261.739],[0.516,-0.483,0.484,0.515],[0,1,-3,0],[9E+009,9E+009,9E+009,9E+009,9E+009,9E+009]],[167,500,5000,500],[TRUE,0.5,0.5,0.5,0.05,0.5,0.05],tool1\WObj:=wobj1;
MoveL [[-1283.306,-755.378,262.103],[0.516,-0.483,0.484,0.515],[0,1,-3,0],[9E+009,9E+009,9E+009,9E+009,9E+009,9E+009]],[167,500,5000,500],[TRUE,0.5,0.5,0.5,0.05,0.5,0.05],tool1\WObj:=wobj1;
MoveL [[-1241.94,-756.039,269.747],[0.516,-0.483,0.484,0.515],[0,1,-3,0],[9E+009,9E+009,9E+009,9E+009,9E+009,9E+009]],[167,500,5000,500],[TRUE,0.5,0.5,0.5,0.05,0.5,0.05],tool1\WObj:=wobj1;
MoveL [[-1239.97,-756.071,270.111],[0.516,-0.483,0.484,0.515],[0,1,-3,0],[9E+009,9E+009,9E+009,9E+009,9E+009,9E+009]],[167,500,5000,500],[TRUE,0.5,0.5,0.5,0.05,0.5,0.05],tool1\WObj:=wobj1;
MoveL [[-1238.001,-756.102,270.475],[0.516,-0.483,0.484,0.515],[0,1,-3,0],[9E+009,9E+009,9E+009,9E+009,9E+009,9E+009]],[167,500,5000,500],[TRUE,0.5,0.5,0.5,0.05,0.5,0.05],tool1\WObj:=wobj1;
MoveL [[-1234.061,-756.165,271.203],[0.516,-0.483,0.484,0.515],[0,1,-3,0],[9E+009,9E+009,9E+009,9E+009,9E+009,9E+009]],[167,500,5000,500],[TRUE,0.5,0.5,0.5,0.05,0.5,0.05],tool1\WObj:=wobj1;
MoveL [[-1232.091,-756.196,271.566],[0.516,-0.483,0.484,0.515],[0,1,-3,0],[9E+009,9E+009,9E+009,9E+009,9E+009,9E+009]],[167,500,5000,500],[TRUE,0.5,0.5,0.5,0.05,0.5,0.05],tool1\WObj:=wobj1;
MoveL [[-1230.122,-756.228,271.93],[0.516,-0.483,0.484,0.515],[0,1,-3,0],[9E+009,9E+009,9E+009,9E+009,9E+009,9E+009]],[167,500,5000,500],[TRUE,0.5,0.5,0.5,0.05,0.5,0.05],tool1\WObj:=wobj1;
MoveL [[-1188.756,-756.889,279.574],[0.516,-0.484,0.484,0.515],[0,1,-3,0],[9E+009,9E+009,9E+009,9E+009,9E+009,9E+009]],[167,500,5000,500],[TRUE,0.5,0.5,0.5,0.05,0.5,0.05],tool1\WObj:=wobj1;
MoveL [[-1186.786,-756.921,279.938],[0.516,-0.484,0.484,0.515],[0,1,-3,0],[9E+009,9E+009,9E+009,9E+009,9E+009,9E+009]],[167,500,5000,500],[TRUE,0.5,0.5,0.5,0.05,0.5,0.05],tool1\WObj:=wobj1;
MoveL [[-1184.817,-756.952,280.302],[0.516,-0.484,0.484,0.515],[0,1,-3,0],[9E+009,9E+009,9E+009,9E+009,9E+009,9E+009]],[167,500,5000,500],[TRUE,0.5,0.5,0.5,0.05,0.5,0.05],tool1\WObj:=wobj1;
MoveL [[-1143.451,-757.613,287.946],[0.516,-0.484,0.484,0.515],[0,1,-3,0],[9E+009,9E+009,9E+009,9E+009,9E+009,9E+009]],[167,500,5000,500],[TRUE,0.5,0.5,0.5,0.05,0.5,0.05],tool1\WObj:=wobj1;
MoveL [[-1141.481,-757.645,288.31],[0.516,-0.484,0.484,0.515],[0,1,-3,0],[9E+009,9E+009,9E+009,9E+009,9E+009,9E+009]],[167,500,5000,500],[TRUE,0.5,0.5,0.5,0.05,0.5,0.05],tool1\WObj:=wobj1;
MoveL [[-1139.512,-757.676,288.674],[0.516,-0.484,0.484,0.515],[0,1,-3,0],[9E+009,9E+009,9E+009,9E+009,9E+009,9E+009]],[167,500,5000,500],[TRUE,0.5,0.5,0.5,0.05,0.5,0.05],tool1\WObj:=wobj1;
MoveL [[-1098.146,-758.338,296.318],[0.516,-0.484,0.484,0.515],[0,1,-3,0],[9E+009,9E+009,9E+009,9E+009,9E+009,9E+009]],[167,500,5000,500],[TRUE,0.5,0.5,0.5,0.05,0.5,0.05],tool1\WObj:=wobj1;
MoveL [[-1096.176,-758.369,296.682],[0.516,-0.484,0.484,0.515],[0,1,-3,0],[9E+009,9E+009,9E+009,9E+009,9E+009,9E+009]],[167,500,5000,500],[TRUE,0.5,0.5,0.5,0.05,0.5,0.05],tool1\WObj:=wobj1;
MoveL [[-1094.207,-758.401,297.046],[0.516,-0.484,0.484,0.515],[0,1,-3,0],[9E+009,9E+009,9E+009,9E+009,9E+009,9E+009]],[167,500,5000,500],[TRUE,0.5,0.5,0.5,0.05,0.5,0.05],tool1\WObj:=wobj1;
MoveL [[-1058.751,-758.968,303.598],[0.516,-0.484,0.484,0.515],[0,1,-3,0],[9E+009,9E+009,9E+009,9E+009,9E+009,9E+009]],[167,500,5000,500],[TRUE,0.5,0.5,0.5,0.05,0.5,0.05],tool1\WObj:=wobj1;
MoveL [[-1056.781,-758.999,303.961],[0.516,-0.484,0.484,0.515],[0,1,-3,0],[9E+009,9E+009,9E+009,9E+009,9E+009,9E+009]],[167,500,5000,500],[TRUE,0.5,0.5,0.5,0.05,0.5,0.05],tool1\WObj:=wobj1;
MoveL [[-1054.811,-759.031,304.326],[0.516,-0.484,0.484,0.515],[0,1,-3,0],[9E+009,9E+009,9E+009,9E+009,9E+009,9E+009]],[167,500,5000,500],[TRUE,0.5,0.5,0.5,0.05,0.5,0.05],tool1\WObj:=wobj1;
MoveL [[-1052.841,-759.062,304.689],[0.516,-0.484,0.484,0.515],[0,1,-3,0],[9E+009,9E+009,9E+009,9E+009,9E+009,9E+009]],[167,500,5000,500],[TRUE,0.5,0.5,0.5,0.05,0.5,0.05],tool1\WObj:=wobj1;
MoveL [[-1050.871,-759.094,305.053],[0.516,-0.484,0.484,0.515],[0,1,-3,0],[9E+009,9E+009,9E+009,9E+009,9E+009,9E+009]],[167,500,5000,500],[TRUE,0.5,0.5,0.5,0.05,0.5,0.05],tool1\WObj:=wobj1;
MoveL [[-1048.902,-759.125,305.417],[0.516,-0.484,0.484,0.515],[0,1,-3,0],[9E+009,9E+009,9E+009,9E+009,9E+009,9E+009]],[167,500,5000,500],[TRUE,0.5,0.5,0.5,0.05,0.5,0.05],tool1\WObj:=wobj1;
MoveL [[-1007.536,-759.786,313.061],[0.516,-0.484,0.485,0.515],[0,1,-3,0],[9E+009,9E+009,9E+009,9E+009,9E+009,9E+009]],[167,500,5000,500],[TRUE,0.5,0.5,0.5,0.05,0.5,0.05],tool1\WObj:=wobj1;
MoveL [[-1005.566,-759.818,313.425],[0.516,-0.484,0.485,0.515],[0,1,-3,0],[9E+009,9E+009,9E+009,9E+009,9E+009,9E+009]],[167,500,5000,500],[TRUE,0.5,0.5,0.5,0.05,0.5,0.05],tool1\WObj:=wobj1;
MoveL [[-1003.597,-759.849,313.789],[0.516,-0.484,0.485,0.515],[0,1,-3,0],[9E+009,9E+009,9E+009,9E+009,9E+009,9E+009]],[167,500,5000,500],[TRUE,0.5,0.5,0.5,0.05,0.5,0.05],tool1\WObj:=wobj1;
MoveL [[-962.231,-760.511,321.433],[0.516,-0.484,0.485,0.515],[0,1,-3,0],[9E+009,9E+009,9E+009,9E+009,9E+009,9E+009]],[167,500,5000,500],[TRUE,0.5,0.5,0.5,0.05,0.5,0.05],tool1\WObj:=wobj1;
MoveL [[-960.261,-760.542,321.797],[0.516,-0.484,0.485,0.515],[0,1,-3,0],[9E+009,9E+009,9E+009,9E+009,9E+009,9E+009]],[167,500,5000,500],[TRUE,0.5,0.5,0.5,0.05,0.5,0.05],tool1\WObj:=wobj1;
MoveL [[-958.292,-760.574,322.161],[0.516,-0.484,0.485,0.515],[0,1,-3,0],[9E+009,9E+009,9E+009,9E+009,9E+009,9E+009]],[167,500,5000,500],[TRUE,0.5,0.5,0.5,0.05,0.5,0.05],tool1\WObj:=wobj1;
MoveL [[-916.926,-761.235,329.805],[0.516,-0.484,0.485,0.515],[0,1,-3,0],[9E+009,9E+009,9E+009,9E+009,9E+009,9E+009]],[167,500,5000,500],[TRUE,0.5,0.5,0.5,0.05,0.5,0.05],tool1\WObj:=wobj1;
MoveL [[-914.957,-761.266,330.169],[0.516,-0.484,0.485,0.515],[0,1,-3,0],[9E+009,9E+009,9E+009,9E+009,9E+009,9E+009]],[167,500,5000,500],[TRUE,0.5,0.5,0.5,0.05,0.5,0.05],tool1\WObj:=wobj1;
MoveL [[-873.591,-761.928,337.812],[0.516,-0.484,0.485,0.515],[0,1,-3,0],[9E+009,9E+009,9E+009,9E+009,9E+009,9E+009]],[167,500,5000,500],[TRUE,0.5,0.5,0.5,0.05,0.5,0.05],tool1\WObj:=wobj1;
MoveL [[-871.621,-761.959,338.176],[0.516,-0.484,0.485,0.515],[0,1,-3,0],[9E+009,9E+009,9E+009,9E+009,9E+009,9E+009]],[167,500,5000,500],[TRUE,0.5,0.5,0.5,0.05,0.5,0.05],tool1\WObj:=wobj1;
MoveL [[-869.652,-761.991,338.54],[0.516,-0.484,0.485,0.515],[0,1,-3,0],[9E+009,9E+009,9E+009,9E+009,9E+009,9E+009]],[167,500,5000,500],[TRUE,0.5,0.5,0.5,0.05,0.5,0.05],tool1\WObj:=wobj1;
MoveL [[-828.286,-762.652,346.184],[0.516,-0.484,0.485,0.515],[0,1,-3,0],[9E+009,9E+009,9E+009,9E+009,9E+009,9E+009]],[167,500,5000,500],[TRUE,0.5,0.5,0.5,0.05,0.5,0.05],tool1\WObj:=wobj1;
MoveL [[-826.316,-762.683,346.548],[0.516,-0.484,0.485,0.515],[0,1,-3,0],[9E+009,9E+009,9E+009,9E+009,9E+009,9E+009]],[167,500,5000,500],[TRUE,0.5,0.5,0.5,0.05,0.5,0.05],tool1\WObj:=wobj1;
MoveL [[-824.347,-762.715,346.912],[0.516,-0.484,0.485,0.515],[0,1,-3,0],[9E+009,9E+009,9E+009,9E+009,9E+009,9E+009]],[167,500,5000,500],[TRUE,0.5,0.5,0.5,0.05,0.5,0.05],tool1\WObj:=wobj1;
MoveL [[-782.981,-763.376,354.556],[0.516,-0.484,0.485,0.515],[0,1,-3,0],[9E+009,9E+009,9E+009,9E+009,9E+009,9E+009]],[167,500,5000,500],[TRUE,0.5,0.5,0.5,0.05,0.5,0.05],tool1\WObj:=wobj1;
MoveL [[-781.012,-763.408,354.92],[0.516,-0.484,0.485,0.515],[0,1,-3,0],[9E+009,9E+009,9E+009,9E+009,9E+009,9E+009]],[167,500,5000,500],[TRUE,0.5,0.5,0.5,0.05,0.5,0.05],tool1\WObj:=wobj1;
MoveL [[-739.646,-764.069,362.564],[0.516,-0.484,0.485,0.515],[0,1,-3,0],[9E+009,9E+009,9E+009,9E+009,9E+009,9E+009]],[167,500,5000,500],[TRUE,0.5,0.5,0.5,0.05,0.5,0.05],tool1\WObj:=wobj1;
MoveL [[-704.19,-764.636,369.116],[0.516,-0.484,0.485,0.515],[0,1,-3,0],[9E+009,9E+009,9E+009,9E+009,9E+009,9E+009]],[167,500,5000,500],[TRUE,0.5,0.5,0.5,0.05,0.5,0.05],tool1\WObj:=wobj1;
MoveL [[-702.22,-764.667,369.479],[0.516,-0.484,0.485,0.515],[0,1,-3,0],[9E+009,9E+009,9E+009,9E+009,9E+009,9E+009]],[167,500,5000,500],[TRUE,0.5,0.5,0.5,0.05,0.5,0.05],tool1\WObj:=wobj1;
MoveL [[-700.25,-764.699,369.843],[0.516,-0.484,0.485,0.515],[0,1,-3,0],[9E+009,9E+009,9E+009,9E+009,9E+009,9E+009]],[167,500,5000,500],[TRUE,0.5,0.5,0.5,0.05,0.5,0.05],tool1\WObj:=wobj1;
MoveL [[-698.281,-764.73,370.207],[0.516,-0.484,0.485,0.515],[0,1,-3,0],[9E+009,9E+009,9E+009,9E+009,9E+009,9E+009]],[167,500,5000,500],[TRUE,0.5,0.5,0.5,0.05,0.5,0.05],tool1\WObj:=wobj1;
MoveL [[-656.915,-765.391,377.851],[0.516,-0.484,0.485,0.515],[0,0,-3,0],[9E+009,9E+009,9E+009,9E+009,9E+009,9E+009]],[167,500,5000,500],[TRUE,0.5,0.5,0.5,0.05,0.5,0.05],tool1\WObj:=wobj1;
MoveL [[-651.006,-765.486,378.943],[0.516,-0.484,0.485,0.515],[0,0,-3,0],[9E+009,9E+009,9E+009,9E+009,9E+009,9E+009]],[167,500,5000,500],[TRUE,0.5,0.5,0.5,0.05,0.5,0.05],tool1\WObj:=wobj1;
MoveL [[-649.141,-765.517,379.307],[0.516,-0.484,0.485,0.515],[0,0,-2,0],[9E+009,9E+009,9E+009,9E+009,9E+009,9E+009]],[167,500,5000,500],[TRUE,0.5,0.5,0.5,0.05,0.5,0.05],tool1\WObj:=wobj1;
MoveL [[-647.065,-765.549,379.671],[0.516,-0.484,0.485,0.515],[0,0,-2,0],[9E+009,9E+009,9E+009,9E+009,9E+009,9E+009]],[167,500,5000,500],[TRUE,0.5,0.5,0.5,0.05,0.5,0.05],tool1\WObj:=wobj1;
MoveL [[-645.097,-765.58,380.035],[0.516,-0.484,0.485,0.515],[0,0,-2,0],[9E+009,9E+009,9E+009,9E+009,9E+009,9E+009]],[167,500,5000,500],[TRUE,0.5,0.5,0.5,0.05,0.5,0.05],tool1\WObj:=wobj1;
MoveL [[-603.731,-766.242,387.679],[0.516,-0.484,0.485,0.515],[0,0,-2,0],[9E+009,9E+009,9E+009,9E+009,9E+009,9E+009]],[167,500,5000,500],[TRUE,0.5,0.5,0.5,0.05,0.5,0.05],tool1\WObj:=wobj1;
MoveL [[-601.761,-766.273,388.043],[0.516,-0.484,0.485,0.515],[0,0,-2,0],[9E+009,9E+009,9E+009,9E+009,9E+009,9E+009]],[167,500,5000,500],[TRUE,0.5,0.5,0.5,0.05,0.5,0.05],tool1\WObj:=wobj1;
MoveL [[-599.792,-766.305,388.407],[0.516,-0.484,0.485,0.515],[0,0,-2,0],[9E+009,9E+009,9E+009,9E+009,9E+009,9E+009]],[167,500,5000,500],[TRUE,0.5,0.5,0.5,0.05,0.5,0.05],tool1\WObj:=wobj1;
MoveL [[-558.426,-766.966,396.051],[0.516,-0.484,0.485,0.515],[0,0,-2,0],[9E+009,9E+009,9E+009,9E+009,9E+009,9E+009]],[167,500,5000,500],[TRUE,0.5,0.5,0.5,0.05,0.5,0.05],tool1\WObj:=wobj1;
MoveL [[-556.456,-766.997,396.415],[0.516,-0.484,0.485,0.515],[0,0,-2,0],[9E+009,9E+009,9E+009,9E+009,9E+009,9E+009]],[167,500,5000,500],[TRUE,0.5,0.5,0.5,0.05,0.5,0.05],tool1\WObj:=wobj1;
MoveL [[-554.487,-767.029,396.779],[0.516,-0.484,0.485,0.515],[0,0,-2,0],[9E+009,9E+009,9E+009,9E+009,9E+009,9E+009]],[167,500,5000,500],[TRUE,0.5,0.5,0.5,0.05,0.5,0.05],tool1\WObj:=wobj1;
MoveL [[-530.849,-767.407,401.147],[0.516,-0.484,0.485,0.515],[0,0,-2,0],[9E+009,9E+009,9E+009,9E+009,9E+009,9E+009]],[167,500,5000,500],[TRUE,0.5,0.5,0.5,0.05,0.5,0.05],tool1\WObj:=wobj1;
MoveL [[-528.879,-767.438,401.51],[0.516,-0.484,0.485,0.515],[0,0,-2,0],[9E+009,9E+009,9E+009,9E+009,9E+009,9E+009]],[167,500,5000,500],[TRUE,0.5,0.5,0.5,0.05,0.5,0.05],tool1\WObj:=wobj1;
MoveL [[-526.91,-767.47,401.875],[0.516,-0.484,0.485,0.515],[0,0,-2,0],[9E+009,9E+009,9E+009,9E+009,9E+009,9E+009]],[167,500,5000,500],[TRUE,0.5,0.5,0.5,0.05,0.5,0.05],tool1\WObj:=wobj1;
MoveL [[-524.94,-767.501,402.238],[0.516,-0.484,0.485,0.515],[0,0,-2,0],[9E+009,9E+009,9E+009,9E+009,9E+009,9E+009]],[167,500,5000,500],[TRUE,0.5,0.5,0.5,0.05,0.5,0.05],tool1\WObj:=wobj1;
MoveL [[-483.574,-768.163,409.882],[0.516,-0.484,0.485,0.515],[0,0,-2,0],[9E+009,9E+009,9E+009,9E+009,9E+009,9E+009]],[167,500,5000,500],[TRUE,0.5,0.5,0.5,0.05,0.5,0.05],tool1\WObj:=wobj1;
MoveL [[-481.605,-768.194,410.246],[0.516,-0.484,0.485,0.515],[0,0,-2,0],[9E+009,9E+009,9E+009,9E+009,9E+009,9E+009]],[167,500,5000,500],[TRUE,0.5,0.5,0.5,0.05,0.5,0.05],tool1\WObj:=wobj1;
MoveL [[-475.695,-768.289,411.338],[0.516,-0.484,0.485,0.515],[0,0,-2,0],[9E+009,9E+009,9E+009,9E+009,9E+009,9E+009]],[167,500,5000,500],[TRUE,0.5,0.5,0.5,0.05,0.5,0.05],tool1\WObj:=wobj1;
MoveL [[-473.778,16.937,459.834],[0.516,-0.484,0.485,0.515],[0,0,-2,0],[9E+009,9E+009,9E+009,9E+009,9E+009,9E+009]],[167,500,5000,500],[TRUE,0.5,0.5,0.5,0.05,0.5,0.05],tool1\WObj:=wobj1;
MoveL [[-473.774,18.933,459.958],[0.516,-0.484,0.485,0.515],[0,0,-2,0],[9E+009,9E+009,9E+009,9E+009,9E+009,9E+009]],[167,500,5000,500],[TRUE,0.5,0.5,0.5,0.05,0.5,0.05],tool1\WObj:=wobj1;
MoveL [[-473.692,52.269,462.017],[0.516,-0.484,0.485,0.515],[0,0,-2,0],[9E+009,9E+009,9E+009,9E+009,9E+009,9E+009]],[3,500,5000,500],[TRUE,0.5,0.5,0.5,0.05,0.5,0.05],tool1\WObj:=wobj1;
MoveL [[-473.778,16.937,459.834],[0.516,-0.484,0.485,0.515],[0,0,-2,0],[9E+009,9E+009,9E+009,9E+009,9E+009,9E+009]],[167,500,5000,500],[TRUE,0.5,0.5,0.5,0.05,0.5,0.05],tool1\WObj:=wobj1;
MoveL [[-475.695,-768.289,411.338],[0.516,-0.484,0.485,0.515],[0,0,-2,0],[9E+009,9E+009,9E+009,9E+009,9E+009,9E+009]],[167,500,5000,500],[TRUE,0.5,0.5,0.5,0.05,0.5,0.05],tool1\WObj:=wobj1;
MoveL [[-475.784,-768.716,413.29],[0.516,-0.484,0.485,0.515],[0,0,-2,0],[9E+009,9E+009,9E+009,9E+009,9E+009,9E+009]],[167,500,5000,500],[TRUE,0.5,0.5,0.5,0.05,0.5,0.05],tool1\WObj:=wobj1;
MoveL [[-475.872,-769.144,415.243],[0.516,-0.484,0.485,0.514],[0,0,-2,0],[9E+009,9E+009,9E+009,9E+009,9E+009,9E+009]],[167,500,5000,500],[TRUE,0.5,0.5,0.5,0.05,0.5,0.05],tool1\WObj:=wobj1;
MoveL [[-475.96,-769.572,417.195],[0.516,-0.484,0.485,0.514],[0,0,-2,0],[9E+009,9E+009,9E+009,9E+009,9E+009,9E+009]],[167,500,5000,500],[TRUE,0.5,0.5,0.5,0.05,0.5,0.05],tool1\WObj:=wobj1;
MoveL [[-476.048,-770,419.147],[0.516,-0.484,0.485,0.514],[0,0,-2,0],[9E+009,9E+009,9E+009,9E+009,9E+009,9E+009]],[167,500,5000,500],[TRUE,0.5,0.5,0.5,0.05,0.5,0.05],tool1\WObj:=wobj1;
MoveL [[-476.137,-770.428,421.099],[0.516,-0.484,0.485,0.514],[0,0,-2,0],[9E+009,9E+009,9E+009,9E+009,9E+009,9E+009]],[167,500,5000,500],[TRUE,0.5,0.5,0.5,0.05,0.5,0.05],tool1\WObj:=wobj1;
MoveL [[-476.225,-770.856,423.051],[0.516,-0.484,0.485,0.514],[0,0,-2,0],[9E+009,9E+009,9E+009,9E+009,9E+009,9E+009]],[167,500,5000,500],[TRUE,0.5,0.5,0.5,0.05,0.5,0.05],tool1\WObj:=wobj1;
MoveL [[-476.313,-771.284,425.004],[0.516,-0.484,0.485,0.514],[0,0,-2,0],[9E+009,9E+009,9E+009,9E+009,9E+009,9E+009]],[167,500,5000,500],[TRUE,0.5,0.5,0.5,0.05,0.5,0.05],tool1\WObj:=wobj1;
MoveL [[-476.402,-771.712,426.956],[0.516,-0.484,0.485,0.514],[0,0,-2,0],[9E+009,9E+009,9E+009,9E+009,9E+009,9E+009]],[167,500,5000,500],[TRUE,0.5,0.5,0.5,0.05,0.5,0.05],tool1\WObj:=wobj1;
MoveL [[-476.49,-772.14,428.908],[0.516,-0.484,0.485,0.514],[0,0,-2,0],[9E+009,9E+009,9E+009,9E+009,9E+009,9E+009]],[167,500,5000,500],[TRUE,0.5,0.5,0.5,0.05,0.5,0.05],tool1\WObj:=wobj1;
MoveL [[-476.578,-772.568,430.86],[0.516,-0.484,0.485,0.514],[0,0,-2,0],[9E+009,9E+009,9E+009,9E+009,9E+009,9E+009]],[167,500,5000,500],[TRUE,0.5,0.5,0.5,0.05,0.5,0.05],tool1\WObj:=wobj1;
