MoveL [[-2959.732,-94.939,459.836],[0.507,-0.493,0.496,0.503],[1,-1,-1,0],[9E+009,9E+009,9E+009,9E+009,9E+009,9E+009]],[167,500,5000,500],[TRUE,0.5,0.5,0.5,0.05,0.5,0.05],tool1\WObj:=wobj1;
MoveL [[-2958.779,27.291,462.475],[0.507,-0.493,0.496,0.503],[1,-1,-1,0],[9E+009,9E+009,9E+009,9E+009,9E+009,9E+009]],[167,500,5000,500],[TRUE,0.5,0.5,0.5,0.05,0.5,0.05],tool1\WObj:=wobj1;
MoveL [[-2958.764,29.29,462.518],[0.507,-0.493,0.496,0.503],[1,-1,-1,0],[9E+009,9E+009,9E+009,9E+009,9E+009,9E+009]],[167,500,5000,500],[TRUE,0.5,0.5,0.5,0.05,0.5,0.05],tool1\WObj:=wobj1;
MoveL [[-2958.701,37.298,462.691],[0.507,-0.493,0.496,0.503],[1,-1,-1,0],[9E+009,9E+009,9E+009,9E+009,9E+009,9E+009]],[3,500,5000,500],[TRUE,0.5,0.5,0.5,0.05,0.5,0.05],tool1\WObj:=wobj1;
MoveL [[-2958.779,27.291,462.475],[0.507,-0.493,0.496,0.503],[1,-1,-1,0],[9E+009,9E+009,9E+009,9E+009,9E+009,9E+009]],[167,500,5000,500],[TRUE,0.5,0.5,0.5,0.05,0.5,0.05],tool1\WObj:=wobj1;
MoveL [[-2959.732,-94.939,459.836],[0.507,-0.493,0.496,0.503],[1,-1,-1,0],[9E+009,9E+009,9E+009,9E+009,9E+009,9E+009]],[167,500,5000,500],[TRUE,0.5,0.5,0.5,0.05,0.5,0.05],tool1\WObj:=wobj1;
MoveL [[-2991.529,-96.661,459.858],[0.507,-0.493,0.497,0.503],[1,-1,-1,0],[9E+009,9E+009,9E+009,9E+009,9E+009,9E+009]],[167,500,5000,500],[TRUE,0.5,0.5,0.5,0.05,0.5,0.05],tool1\WObj:=wobj1;
MoveL [[-2990.535,27.543,462.404],[0.507,-0.493,0.497,0.503],[1,-1,-1,0],[9E+009,9E+009,9E+009,9E+009,9E+009,9E+009]],[167,500,5000,500],[TRUE,0.5,0.5,0.5,0.05,0.5,0.05],tool1\WObj:=wobj1;
MoveL [[-2990.519,29.543,462.445],[0.507,-0.493,0.497,0.503],[1,-1,-1,0],[9E+009,9E+009,9E+009,9E+009,9E+009,9E+009]],[167,500,5000,500],[TRUE,0.5,0.5,0.5,0.05,0.5,0.05],tool1\WObj:=wobj1;
MoveL [[-2990.455,37.551,462.609],[0.507,-0.493,0.497,0.503],[1,-1,-1,0],[9E+009,9E+009,9E+009,9E+009,9E+009,9E+009]],[3,500,5000,500],[TRUE,0.5,0.5,0.5,0.05,0.5,0.05],tool1\WObj:=wobj1;
MoveL [[-2990.535,27.543,462.404],[0.507,-0.493,0.497,0.503],[1,-1,-1,0],[9E+009,9E+009,9E+009,9E+009,9E+009,9E+009]],[167,500,5000,500],[TRUE,0.5,0.5,0.5,0.05,0.5,0.05],tool1\WObj:=wobj1;
MoveL [[-2991.529,-96.661,459.858],[0.507,-0.493,0.497,0.503],[1,-1,-1,0],[9E+009,9E+009,9E+009,9E+009,9E+009,9E+009]],[167,500,5000,500],[TRUE,0.5,0.5,0.5,0.05,0.5,0.05],tool1\WObj:=wobj1;
MoveL [[-3030.194,-98.755,459.897],[0.507,-0.493,0.497,0.503],[1,-1,-1,0],[9E+009,9E+009,9E+009,9E+009,9E+009,9E+009]],[167,500,5000,500],[TRUE,0.5,0.5,0.5,0.05,0.5,0.05],tool1\WObj:=wobj1;
MoveL [[-3029.149,27.858,462.318],[0.507,-0.493,0.497,0.503],[1,-1,-1,0],[9E+009,9E+009,9E+009,9E+009,9E+009,9E+009]],[167,500,5000,500],[TRUE,0.5,0.5,0.5,0.05,0.5,0.05],tool1\WObj:=wobj1;
MoveL [[-3029.133,29.858,462.357],[0.507,-0.493,0.497,0.503],[1,-1,-1,0],[9E+009,9E+009,9E+009,9E+009,9E+009,9E+009]],[167,500,5000,500],[TRUE,0.5,0.5,0.5,0.05,0.5,0.05],tool1\WObj:=wobj1;
MoveL [[-3029.067,37.866,462.51],[0.507,-0.493,0.497,0.503],[1,-1,-1,0],[9E+009,9E+009,9E+009,9E+009,9E+009,9E+009]],[3,500,5000,500],[TRUE,0.5,0.5,0.5,0.05,0.5,0.05],tool1\WObj:=wobj1;
MoveL [[-3029.149,27.858,462.318],[0.507,-0.493,0.497,0.503],[1,-1,-1,0],[9E+009,9E+009,9E+009,9E+009,9E+009,9E+009]],[167,500,5000,500],[TRUE,0.5,0.5,0.5,0.05,0.5,0.05],tool1\WObj:=wobj1;
MoveL [[-3030.194,-98.755,459.897],[0.507,-0.493,0.497,0.503],[1,-1,-1,0],[9E+009,9E+009,9E+009,9E+009,9E+009,9E+009]],[167,500,5000,500],[TRUE,0.5,0.5,0.5,0.05,0.5,0.05],tool1\WObj:=wobj1;
MoveL [[-2889.28,-91.124,459.815],[0.508,-0.492,0.496,0.504],[1,-1,-1,0],[9E+009,9E+009,9E+009,9E+009,9E+009,9E+009]],[167,500,5000,500],[TRUE,0.5,0.5,0.5,0.05,0.5,0.05],tool1\WObj:=wobj1;
MoveL [[-2888.41,26.754,462.635],[0.508,-0.492,0.496,0.504],[1,-1,-1,0],[9E+009,9E+009,9E+009,9E+009,9E+009,9E+009]],[167,500,5000,500],[TRUE,0.5,0.5,0.5,0.05,0.5,0.05],tool1\WObj:=wobj1;
MoveL [[-2888.395,28.753,462.683],[0.508,-0.492,0.496,0.504],[1,-1,-1,0],[9E+009,9E+009,9E+009,9E+009,9E+009,9E+009]],[167,500,5000,500],[TRUE,0.5,0.5,0.5,0.05,0.5,0.05],tool1\WObj:=wobj1;
MoveL [[-2888.336,36.761,462.875],[0.508,-0.492,0.496,0.504],[1,-1,-1,0],[9E+009,9E+009,9E+009,9E+009,9E+009,9E+009]],[3,500,5000,500],[TRUE,0.5,0.5,0.5,0.05,0.5,0.05],tool1\WObj:=wobj1;
MoveL [[-2888.41,26.754,462.635],[0.508,-0.492,0.496,0.504],[1,-1,-1,0],[9E+009,9E+009,9E+009,9E+009,9E+009,9E+009]],[167,500,5000,500],[TRUE,0.5,0.5,0.5,0.05,0.5,0.05],tool1\WObj:=wobj1;
MoveL [[-2889.28,-91.124,459.815],[0.508,-0.492,0.496,0.504],[1,-1,-1,0],[9E+009,9E+009,9E+009,9E+009,9E+009,9E+009]],[167,500,5000,500],[TRUE,0.5,0.5,0.5,0.05,0.5,0.05],tool1\WObj:=wobj1;
MoveL [[-2857.492,-89.402,459.818],[0.508,-0.492,0.496,0.504],[1,-1,-1,0],[9E+009,9E+009,9E+009,9E+009,9E+009,9E+009]],[167,500,5000,500],[TRUE,0.5,0.5,0.5,0.05,0.5,0.05],tool1\WObj:=wobj1;
MoveL [[-2856.656,26.52,462.708],[0.508,-0.492,0.496,0.504],[1,-1,-1,0],[9E+009,9E+009,9E+009,9E+009,9E+009,9E+009]],[167,500,5000,500],[TRUE,0.5,0.5,0.5,0.05,0.5,0.05],tool1\WObj:=wobj1;
MoveL [[-2856.641,28.519,462.758],[0.508,-0.492,0.496,0.504],[1,-1,-1,0],[9E+009,9E+009,9E+009,9E+009,9E+009,9E+009]],[167,500,5000,500],[TRUE,0.5,0.5,0.5,0.05,0.5,0.05],tool1\WObj:=wobj1;
MoveL [[-2856.583,36.527,462.958],[0.508,-0.492,0.496,0.504],[1,-1,-1,0],[9E+009,9E+009,9E+009,9E+009,9E+009,9E+009]],[3,500,5000,500],[TRUE,0.5,0.5,0.5,0.05,0.5,0.05],tool1\WObj:=wobj1;
MoveL [[-2856.656,26.52,462.708],[0.508,-0.492,0.496,0.504],[1,-1,-1,0],[9E+009,9E+009,9E+009,9E+009,9E+009,9E+009]],[167,500,5000,500],[TRUE,0.5,0.5,0.5,0.05,0.5,0.05],tool1\WObj:=wobj1;
MoveL [[-2857.492,-89.402,459.818],[0.508,-0.492,0.496,0.504],[1,-1,-1,0],[9E+009,9E+009,9E+009,9E+009,9E+009,9E+009]],[167,500,5000,500],[TRUE,0.5,0.5,0.5,0.05,0.5,0.05],tool1\WObj:=wobj1;
MoveL [[-2825.703,-87.681,459.826],[0.508,-0.492,0.495,0.505],[1,-1,-1,0],[9E+009,9E+009,9E+009,9E+009,9E+009,9E+009]],[167,500,5000,500],[TRUE,0.5,0.5,0.5,0.05,0.5,0.05],tool1\WObj:=wobj1;
MoveL [[-2824.901,26.292,462.782],[0.508,-0.492,0.495,0.505],[1,-1,-1,0],[9E+009,9E+009,9E+009,9E+009,9E+009,9E+009]],[167,500,5000,500],[TRUE,0.5,0.5,0.5,0.05,0.5,0.05],tool1\WObj:=wobj1;
MoveL [[-2824.887,28.292,462.834],[0.508,-0.492,0.495,0.505],[1,-1,-1,0],[9E+009,9E+009,9E+009,9E+009,9E+009,9E+009]],[167,500,5000,500],[TRUE,0.5,0.5,0.5,0.05,0.5,0.05],tool1\WObj:=wobj1;
MoveL [[-2824.831,36.299,463.042],[0.508,-0.492,0.495,0.505],[1,-1,-1,0],[9E+009,9E+009,9E+009,9E+009,9E+009,9E+009]],[3,500,5000,500],[TRUE,0.5,0.5,0.5,0.05,0.5,0.05],tool1\WObj:=wobj1;
MoveL [[-2824.901,26.292,462.782],[0.508,-0.492,0.495,0.505],[1,-1,-1,0],[9E+009,9E+009,9E+009,9E+009,9E+009,9E+009]],[167,500,5000,500],[TRUE,0.5,0.5,0.5,0.05,0.5,0.05],tool1\WObj:=wobj1;
MoveL [[-2825.703,-87.681,459.826],[0.508,-0.492,0.495,0.505],[1,-1,-1,0],[9E+009,9E+009,9E+009,9E+009,9E+009,9E+009]],[167,500,5000,500],[TRUE,0.5,0.5,0.5,0.05,0.5,0.05],tool1\WObj:=wobj1;
MoveL [[-2807.438,-86.692,271.896],[0.512,-0.488,0.489,0.511],[1,-1,-1,0],[9E+009,9E+009,9E+009,9E+009,9E+009,9E+009]],[167,500,5000,500],[TRUE,0.5,0.5,0.5,0.05,0.5,0.05],tool1\WObj:=wobj1;
MoveL [[-2807.176,32.866,277.302],[0.512,-0.488,0.489,0.511],[1,-1,-1,0],[9E+009,9E+009,9E+009,9E+009,9E+009,9E+009]],[167,500,5000,500],[TRUE,0.5,0.5,0.5,0.05,0.5,0.05],tool1\WObj:=wobj1;
MoveL [[-2807.172,34.864,277.392],[0.512,-0.488,0.489,0.511],[1,-1,-1,0],[9E+009,9E+009,9E+009,9E+009,9E+009,9E+009]],[167,500,5000,500],[TRUE,0.5,0.5,0.5,0.05,0.5,0.05],tool1\WObj:=wobj1;
MoveL [[-2807.155,42.866,277.754],[0.512,-0.488,0.489,0.511],[1,-1,-1,0],[9E+009,9E+009,9E+009,9E+009,9E+009,9E+009]],[3,500,5000,500],[TRUE,0.5,0.5,0.5,0.05,0.5,0.05],tool1\WObj:=wobj1;
MoveL [[-2807.176,32.866,277.302],[0.512,-0.488,0.489,0.511],[1,-1,-1,0],[9E+009,9E+009,9E+009,9E+009,9E+009,9E+009]],[167,500,5000,500],[TRUE,0.5,0.5,0.5,0.05,0.5,0.05],tool1\WObj:=wobj1;
MoveL [[-2807.438,-86.692,271.896],[0.512,-0.488,0.489,0.511],[1,-1,-1,0],[9E+009,9E+009,9E+009,9E+009,9E+009,9E+009]],[167,500,5000,500],[TRUE,0.5,0.5,0.5,0.05,0.5,0.05],tool1\WObj:=wobj1;
MoveL [[-2837.648,-88.328,269.682],[0.512,-0.488,0.489,0.511],[1,-1,-1,0],[9E+009,9E+009,9E+009,9E+009,9E+009,9E+009]],[167,500,5000,500],[TRUE,0.5,0.5,0.5,0.05,0.5,0.05],tool1\WObj:=wobj1;
MoveL [[-2837.383,33.03,275.123],[0.512,-0.488,0.489,0.511],[1,-1,-1,0],[9E+009,9E+009,9E+009,9E+009,9E+009,9E+009]],[167,500,5000,500],[TRUE,0.5,0.5,0.5,0.05,0.5,0.05],tool1\WObj:=wobj1;
MoveL [[-2837.379,35.028,275.212],[0.512,-0.488,0.489,0.511],[1,-1,-1,0],[9E+009,9E+009,9E+009,9E+009,9E+009,9E+009]],[167,500,5000,500],[TRUE,0.5,0.5,0.5,0.05,0.5,0.05],tool1\WObj:=wobj1;
MoveL [[-2837.362,43.03,275.571],[0.512,-0.488,0.489,0.511],[1,-1,-1,0],[9E+009,9E+009,9E+009,9E+009,9E+009,9E+009]],[3,500,5000,500],[TRUE,0.5,0.5,0.5,0.05,0.5,0.05],tool1\WObj:=wobj1;
MoveL [[-2837.383,33.03,275.123],[0.512,-0.488,0.489,0.511],[1,-1,-1,0],[9E+009,9E+009,9E+009,9E+009,9E+009,9E+009]],[167,500,5000,500],[TRUE,0.5,0.5,0.5,0.05,0.5,0.05],tool1\WObj:=wobj1;
MoveL [[-2837.648,-88.328,269.682],[0.512,-0.488,0.489,0.511],[1,-1,-1,0],[9E+009,9E+009,9E+009,9E+009,9E+009,9E+009]],[167,500,5000,500],[TRUE,0.5,0.5,0.5,0.05,0.5,0.05],tool1\WObj:=wobj1;
MoveL [[-2863.653,-89.736,269.62],[0.511,-0.488,0.489,0.51],[1,-1,-1,0],[9E+009,9E+009,9E+009,9E+009,9E+009,9E+009]],[167,500,5000,500],[TRUE,0.5,0.5,0.5,0.05,0.5,0.05],tool1\WObj:=wobj1;
MoveL [[-2863.386,33.089,275.054],[0.511,-0.488,0.489,0.51],[1,-1,-1,0],[9E+009,9E+009,9E+009,9E+009,9E+009,9E+009]],[167,500,5000,500],[TRUE,0.5,0.5,0.5,0.05,0.5,0.05],tool1\WObj:=wobj1;
MoveL [[-2863.381,35.087,275.142],[0.511,-0.488,0.489,0.51],[1,-1,-1,0],[9E+009,9E+009,9E+009,9E+009,9E+009,9E+009]],[167,500,5000,500],[TRUE,0.5,0.5,0.5,0.05,0.5,0.05],tool1\WObj:=wobj1;
MoveL [[-2863.364,43.09,275.496],[0.511,-0.488,0.489,0.51],[1,-1,-1,0],[9E+009,9E+009,9E+009,9E+009,9E+009,9E+009]],[3,500,5000,500],[TRUE,0.5,0.5,0.5,0.05,0.5,0.05],tool1\WObj:=wobj1;
MoveL [[-2863.386,33.089,275.054],[0.511,-0.488,0.489,0.51],[1,-1,-1,0],[9E+009,9E+009,9E+009,9E+009,9E+009,9E+009]],[167,500,5000,500],[TRUE,0.5,0.5,0.5,0.05,0.5,0.05],tool1\WObj:=wobj1;
MoveL [[-2863.653,-89.736,269.62],[0.511,-0.488,0.489,0.51],[1,-1,-1,0],[9E+009,9E+009,9E+009,9E+009,9E+009,9E+009]],[167,500,5000,500],[TRUE,0.5,0.5,0.5,0.05,0.5,0.05],tool1\WObj:=wobj1;
MoveL [[-2889.666,-91.144,269.56],[0.511,-0.488,0.49,0.51],[1,-1,-1,0],[9E+009,9E+009,9E+009,9E+009,9E+009,9E+009]],[167,500,5000,500],[TRUE,0.5,0.5,0.5,0.05,0.5,0.05],tool1\WObj:=wobj1;
MoveL [[-2889.389,33.15,274.985],[0.511,-0.488,0.49,0.51],[1,-1,-1,0],[9E+009,9E+009,9E+009,9E+009,9E+009,9E+009]],[167,500,5000,500],[TRUE,0.5,0.5,0.5,0.05,0.5,0.05],tool1\WObj:=wobj1;
MoveL [[-2889.384,35.148,275.072],[0.511,-0.488,0.49,0.51],[1,-1,-1,0],[9E+009,9E+009,9E+009,9E+009,9E+009,9E+009]],[167,500,5000,500],[TRUE,0.5,0.5,0.5,0.05,0.5,0.05],tool1\WObj:=wobj1;
MoveL [[-2889.367,43.15,275.422],[0.511,-0.488,0.49,0.51],[1,-1,-1,0],[9E+009,9E+009,9E+009,9E+009,9E+009,9E+009]],[3,500,5000,500],[TRUE,0.5,0.5,0.5,0.05,0.5,0.05],tool1\WObj:=wobj1;
MoveL [[-2889.389,33.15,274.985],[0.511,-0.488,0.49,0.51],[1,-1,-1,0],[9E+009,9E+009,9E+009,9E+009,9E+009,9E+009]],[167,500,5000,500],[TRUE,0.5,0.5,0.5,0.05,0.5,0.05],tool1\WObj:=wobj1;
MoveL [[-2889.666,-91.144,269.56],[0.511,-0.488,0.49,0.51],[1,-1,-1,0],[9E+009,9E+009,9E+009,9E+009,9E+009,9E+009]],[167,500,5000,500],[TRUE,0.5,0.5,0.5,0.05,0.5,0.05],tool1\WObj:=wobj1;
MoveL [[-2915.673,-92.553,269.501],[0.511,-0.489,0.49,0.51],[1,-1,-1,0],[9E+009,9E+009,9E+009,9E+009,9E+009,9E+009]],[167,500,5000,500],[TRUE,0.5,0.5,0.5,0.05,0.5,0.05],tool1\WObj:=wobj1;
MoveL [[-2915.389,33.211,274.916],[0.511,-0.489,0.49,0.51],[1,-1,-1,0],[9E+009,9E+009,9E+009,9E+009,9E+009,9E+009]],[167,500,5000,500],[TRUE,0.5,0.5,0.5,0.05,0.5,0.05],tool1\WObj:=wobj1;
MoveL [[-2915.385,35.209,275.002],[0.511,-0.489,0.49,0.51],[1,-1,-1,0],[9E+009,9E+009,9E+009,9E+009,9E+009,9E+009]],[167,500,5000,500],[TRUE,0.5,0.5,0.5,0.05,0.5,0.05],tool1\WObj:=wobj1;
MoveL [[-2915.367,43.212,275.346],[0.511,-0.489,0.49,0.51],[1,-1,-1,0],[9E+009,9E+009,9E+009,9E+009,9E+009,9E+009]],[3,500,5000,500],[TRUE,0.5,0.5,0.5,0.05,0.5,0.05],tool1\WObj:=wobj1;
MoveL [[-2915.389,33.211,274.916],[0.511,-0.489,0.49,0.51],[1,-1,-1,0],[9E+009,9E+009,9E+009,9E+009,9E+009,9E+009]],[167,500,5000,500],[TRUE,0.5,0.5,0.5,0.05,0.5,0.05],tool1\WObj:=wobj1;
MoveL [[-2915.673,-92.553,269.501],[0.511,-0.489,0.49,0.51],[1,-1,-1,0],[9E+009,9E+009,9E+009,9E+009,9E+009,9E+009]],[167,500,5000,500],[TRUE,0.5,0.5,0.5,0.05,0.5,0.05],tool1\WObj:=wobj1;
MoveL [[-2941.679,-93.961,269.45],[0.511,-0.489,0.49,0.51],[1,-1,-1,0],[9E+009,9E+009,9E+009,9E+009,9E+009,9E+009]],[167,500,5000,500],[TRUE,0.5,0.5,0.5,0.05,0.5,0.05],tool1\WObj:=wobj1;
MoveL [[-2941.391,33.273,274.848],[0.511,-0.489,0.49,0.51],[1,-1,-1,0],[9E+009,9E+009,9E+009,9E+009,9E+009,9E+009]],[167,500,5000,500],[TRUE,0.5,0.5,0.5,0.05,0.5,0.05],tool1\WObj:=wobj1;
MoveL [[-2941.387,35.271,274.933],[0.511,-0.489,0.49,0.51],[1,-1,-1,0],[9E+009,9E+009,9E+009,9E+009,9E+009,9E+009]],[167,500,5000,500],[TRUE,0.5,0.5,0.5,0.05,0.5,0.05],tool1\WObj:=wobj1;
MoveL [[-2941.369,43.274,275.273],[0.511,-0.489,0.49,0.51],[1,-1,-1,0],[9E+009,9E+009,9E+009,9E+009,9E+009,9E+009]],[3,500,5000,500],[TRUE,0.5,0.5,0.5,0.05,0.5,0.05],tool1\WObj:=wobj1;
MoveL [[-2941.391,33.273,274.848],[0.511,-0.489,0.49,0.51],[1,-1,-1,0],[9E+009,9E+009,9E+009,9E+009,9E+009,9E+009]],[167,500,5000,500],[TRUE,0.5,0.5,0.5,0.05,0.5,0.05],tool1\WObj:=wobj1;
MoveL [[-2941.679,-93.961,269.45],[0.511,-0.489,0.49,0.51],[1,-1,-1,0],[9E+009,9E+009,9E+009,9E+009,9E+009,9E+009]],[167,500,5000,500],[TRUE,0.5,0.5,0.5,0.05,0.5,0.05],tool1\WObj:=wobj1;
MoveL [[-2967.691,-95.37,269.401],[0.511,-0.489,0.49,0.51],[1,-1,-1,0],[9E+009,9E+009,9E+009,9E+009,9E+009,9E+009]],[167,500,5000,500],[TRUE,0.5,0.5,0.5,0.05,0.5,0.05],tool1\WObj:=wobj1;
MoveL [[-2967.394,33.335,274.78],[0.511,-0.489,0.49,0.51],[1,-1,-1,0],[9E+009,9E+009,9E+009,9E+009,9E+009,9E+009]],[167,500,5000,500],[TRUE,0.5,0.5,0.5,0.05,0.5,0.05],tool1\WObj:=wobj1;
MoveL [[-2967.39,35.333,274.863],[0.511,-0.489,0.49,0.51],[1,-1,-1,0],[9E+009,9E+009,9E+009,9E+009,9E+009,9E+009]],[167,500,5000,500],[TRUE,0.5,0.5,0.5,0.05,0.5,0.05],tool1\WObj:=wobj1;
MoveL [[-2967.371,43.336,275.198],[0.511,-0.489,0.49,0.51],[1,-1,-1,0],[9E+009,9E+009,9E+009,9E+009,9E+009,9E+009]],[3,500,5000,500],[TRUE,0.5,0.5,0.5,0.05,0.5,0.05],tool1\WObj:=wobj1;
MoveL [[-2967.394,33.335,274.78],[0.511,-0.489,0.49,0.51],[1,-1,-1,0],[9E+009,9E+009,9E+009,9E+009,9E+009,9E+009]],[167,500,5000,500],[TRUE,0.5,0.5,0.5,0.05,0.5,0.05],tool1\WObj:=wobj1;
MoveL [[-2967.691,-95.37,269.401],[0.511,-0.489,0.49,0.51],[1,-1,-1,0],[9E+009,9E+009,9E+009,9E+009,9E+009,9E+009]],[167,500,5000,500],[TRUE,0.5,0.5,0.5,0.05,0.5,0.05],tool1\WObj:=wobj1;
MoveL [[-2807.319,-86.685,252.973],[0.512,-0.488,0.488,0.511],[1,-1,-1,0],[9E+009,9E+009,9E+009,9E+009,9E+009,9E+009]],[167,500,5000,500],[TRUE,0.5,0.5,0.5,0.05,0.5,0.05],tool1\WObj:=wobj1;
MoveL [[-2807.106,33.728,258.696],[0.512,-0.488,0.488,0.511],[1,-1,-1,0],[9E+009,9E+009,9E+009,9E+009,9E+009,9E+009]],[167,500,5000,500],[TRUE,0.5,0.5,0.5,0.05,0.5,0.05],tool1\WObj:=wobj1;
MoveL [[-2807.102,35.725,258.791],[0.512,-0.488,0.488,0.511],[1,-1,-1,0],[9E+009,9E+009,9E+009,9E+009,9E+009,9E+009]],[167,500,5000,500],[TRUE,0.5,0.5,0.5,0.05,0.5,0.05],tool1\WObj:=wobj1;
MoveL [[-2807.088,43.726,259.171],[0.512,-0.488,0.488,0.511],[1,-1,-1,0],[9E+009,9E+009,9E+009,9E+009,9E+009,9E+009]],[3,500,5000,500],[TRUE,0.5,0.5,0.5,0.05,0.5,0.05],tool1\WObj:=wobj1;
MoveL [[-2807.106,33.728,258.696],[0.512,-0.488,0.488,0.511],[1,-1,-1,0],[9E+009,9E+009,9E+009,9E+009,9E+009,9E+009]],[167,500,5000,500],[TRUE,0.5,0.5,0.5,0.05,0.5,0.05],tool1\WObj:=wobj1;
MoveL [[-2807.319,-86.685,252.973],[0.512,-0.488,0.488,0.511],[1,-1,-1,0],[9E+009,9E+009,9E+009,9E+009,9E+009,9E+009]],[167,500,5000,500],[TRUE,0.5,0.5,0.5,0.05,0.5,0.05],tool1\WObj:=wobj1;
MoveL [[-2785.939,-85.527,253.029],[0.512,-0.487,0.488,0.511],[1,-1,-1,0],[9E+009,9E+009,9E+009,9E+009,9E+009,9E+009]],[167,500,5000,500],[TRUE,0.5,0.5,0.5,0.05,0.5,0.05],tool1\WObj:=wobj1;
MoveL [[-2785.726,33.687,258.751],[0.512,-0.487,0.488,0.511],[1,-1,-1,0],[9E+009,9E+009,9E+009,9E+009,9E+009,9E+009]],[167,500,5000,500],[TRUE,0.5,0.5,0.5,0.05,0.5,0.05],tool1\WObj:=wobj1;
MoveL [[-2785.723,35.685,258.847],[0.512,-0.487,0.488,0.511],[1,-1,-1,0],[9E+009,9E+009,9E+009,9E+009,9E+009,9E+009]],[167,500,5000,500],[TRUE,0.5,0.5,0.5,0.05,0.5,0.05],tool1\WObj:=wobj1;
MoveL [[-2785.709,43.685,259.231],[0.512,-0.487,0.488,0.511],[1,-1,-1,0],[9E+009,9E+009,9E+009,9E+009,9E+009,9E+009]],[3,500,5000,500],[TRUE,0.5,0.5,0.5,0.05,0.5,0.05],tool1\WObj:=wobj1;
MoveL [[-2785.726,33.687,258.751],[0.512,-0.487,0.488,0.511],[1,-1,-1,0],[9E+009,9E+009,9E+009,9E+009,9E+009,9E+009]],[167,500,5000,500],[TRUE,0.5,0.5,0.5,0.05,0.5,0.05],tool1\WObj:=wobj1;
MoveL [[-2785.939,-85.527,253.029],[0.512,-0.487,0.488,0.511],[1,-1,-1,0],[9E+009,9E+009,9E+009,9E+009,9E+009,9E+009]],[167,500,5000,500],[TRUE,0.5,0.5,0.5,0.05,0.5,0.05],tool1\WObj:=wobj1;
MoveL [[-2746.535,-83.393,272.065],[0.512,-0.488,0.489,0.511],[1,-1,-1,0],[9E+009,9E+009,9E+009,9E+009,9E+009,9E+009]],[167,500,5000,500],[TRUE,0.5,0.5,0.5,0.05,0.5,0.05],tool1\WObj:=wobj1;
MoveL [[-2746.286,32.727,277.462],[0.512,-0.488,0.489,0.511],[1,-1,-1,0],[9E+009,9E+009,9E+009,9E+009,9E+009,9E+009]],[167,500,5000,500],[TRUE,0.5,0.5,0.5,0.05,0.5,0.05],tool1\WObj:=wobj1;
MoveL [[-2746.282,34.724,277.555],[0.512,-0.488,0.489,0.511],[1,-1,-1,0],[9E+009,9E+009,9E+009,9E+009,9E+009,9E+009]],[167,500,5000,500],[TRUE,0.5,0.5,0.5,0.05,0.5,0.05],tool1\WObj:=wobj1;
MoveL [[-2746.264,42.726,277.927],[0.512,-0.488,0.489,0.511],[1,-1,-1,0],[9E+009,9E+009,9E+009,9E+009,9E+009,9E+009]],[3,500,5000,500],[TRUE,0.5,0.5,0.5,0.05,0.5,0.05],tool1\WObj:=wobj1;
MoveL [[-2746.286,32.727,277.462],[0.512,-0.488,0.489,0.511],[1,-1,-1,0],[9E+009,9E+009,9E+009,9E+009,9E+009,9E+009]],[167,500,5000,500],[TRUE,0.5,0.5,0.5,0.05,0.5,0.05],tool1\WObj:=wobj1;
MoveL [[-2746.535,-83.393,272.065],[0.512,-0.488,0.489,0.511],[1,-1,-1,0],[9E+009,9E+009,9E+009,9E+009,9E+009,9E+009]],[167,500,5000,500],[TRUE,0.5,0.5,0.5,0.05,0.5,0.05],tool1\WObj:=wobj1;
MoveL [[-2726.575,-82.312,272.123],[0.512,-0.488,0.489,0.511],[1,-1,-1,0],[9E+009,9E+009,9E+009,9E+009,9E+009,9E+009]],[167,500,5000,500],[TRUE,0.5,0.5,0.5,0.05,0.5,0.05],tool1\WObj:=wobj1;
MoveL [[-2726.332,32.682,277.514],[0.512,-0.488,0.489,0.511],[1,-1,-1,0],[9E+009,9E+009,9E+009,9E+009,9E+009,9E+009]],[167,500,5000,500],[TRUE,0.5,0.5,0.5,0.05,0.5,0.05],tool1\WObj:=wobj1;
MoveL [[-2726.328,34.68,277.608],[0.512,-0.488,0.489,0.511],[1,-1,-1,0],[9E+009,9E+009,9E+009,9E+009,9E+009,9E+009]],[167,500,5000,500],[TRUE,0.5,0.5,0.5,0.05,0.5,0.05],tool1\WObj:=wobj1;
MoveL [[-2726.311,42.681,277.983],[0.512,-0.488,0.489,0.511],[1,-1,-1,0],[9E+009,9E+009,9E+009,9E+009,9E+009,9E+009]],[3,500,5000,500],[TRUE,0.5,0.5,0.5,0.05,0.5,0.05],tool1\WObj:=wobj1;
MoveL [[-2726.332,32.682,277.514],[0.512,-0.488,0.489,0.511],[1,-1,-1,0],[9E+009,9E+009,9E+009,9E+009,9E+009,9E+009]],[167,500,5000,500],[TRUE,0.5,0.5,0.5,0.05,0.5,0.05],tool1\WObj:=wobj1;
MoveL [[-2726.575,-82.312,272.123],[0.512,-0.488,0.489,0.511],[1,-1,-1,0],[9E+009,9E+009,9E+009,9E+009,9E+009,9E+009]],[167,500,5000,500],[TRUE,0.5,0.5,0.5,0.05,0.5,0.05],tool1\WObj:=wobj1;
MoveL [[-2706.615,-81.231,272.184],[0.512,-0.488,0.489,0.511],[1,-1,-1,0],[9E+009,9E+009,9E+009,9E+009,9E+009,9E+009]],[167,500,5000,500],[TRUE,0.5,0.5,0.5,0.05,0.5,0.05],tool1\WObj:=wobj1;
MoveL [[-2706.378,32.638,277.567],[0.512,-0.488,0.489,0.511],[1,-1,-1,0],[9E+009,9E+009,9E+009,9E+009,9E+009,9E+009]],[167,500,5000,500],[TRUE,0.5,0.5,0.5,0.05,0.5,0.05],tool1\WObj:=wobj1;
MoveL [[-2706.374,34.636,277.661],[0.512,-0.488,0.489,0.511],[1,-1,-1,0],[9E+009,9E+009,9E+009,9E+009,9E+009,9E+009]],[167,500,5000,500],[TRUE,0.5,0.5,0.5,0.05,0.5,0.05],tool1\WObj:=wobj1;
MoveL [[-2706.357,42.637,278.04],[0.512,-0.488,0.489,0.511],[1,-1,-1,0],[9E+009,9E+009,9E+009,9E+009,9E+009,9E+009]],[3,500,5000,500],[TRUE,0.5,0.5,0.5,0.05,0.5,0.05],tool1\WObj:=wobj1;
MoveL [[-2706.378,32.638,277.567],[0.512,-0.488,0.489,0.511],[1,-1,-1,0],[9E+009,9E+009,9E+009,9E+009,9E+009,9E+009]],[167,500,5000,500],[TRUE,0.5,0.5,0.5,0.05,0.5,0.05],tool1\WObj:=wobj1;
MoveL [[-2706.615,-81.231,272.184],[0.512,-0.488,0.489,0.511],[1,-1,-1,0],[9E+009,9E+009,9E+009,9E+009,9E+009,9E+009]],[167,500,5000,500],[TRUE,0.5,0.5,0.5,0.05,0.5,0.05],tool1\WObj:=wobj1;
MoveL [[-2666.704,-79.07,272.308],[0.512,-0.487,0.488,0.511],[1,-1,-1,0],[9E+009,9E+009,9E+009,9E+009,9E+009,9E+009]],[167,500,5000,500],[TRUE,0.5,0.5,0.5,0.05,0.5,0.05],tool1\WObj:=wobj1;
MoveL [[-2666.471,32.549,277.673],[0.512,-0.487,0.488,0.511],[1,-1,-1,0],[9E+009,9E+009,9E+009,9E+009,9E+009,9E+009]],[167,500,5000,500],[TRUE,0.5,0.5,0.5,0.05,0.5,0.05],tool1\WObj:=wobj1;
MoveL [[-2666.467,34.547,277.769],[0.512,-0.487,0.488,0.511],[1,-1,-1,0],[9E+009,9E+009,9E+009,9E+009,9E+009,9E+009]],[167,500,5000,500],[TRUE,0.5,0.5,0.5,0.05,0.5,0.05],tool1\WObj:=wobj1;
MoveL [[-2666.45,42.548,278.154],[0.512,-0.487,0.488,0.511],[1,-1,-1,0],[9E+009,9E+009,9E+009,9E+009,9E+009,9E+009]],[3,500,5000,500],[TRUE,0.5,0.5,0.5,0.05,0.5,0.05],tool1\WObj:=wobj1;
MoveL [[-2666.471,32.549,277.673],[0.512,-0.487,0.488,0.511],[1,-1,-1,0],[9E+009,9E+009,9E+009,9E+009,9E+009,9E+009]],[167,500,5000,500],[TRUE,0.5,0.5,0.5,0.05,0.5,0.05],tool1\WObj:=wobj1;
MoveL [[-2666.704,-79.07,272.308],[0.512,-0.487,0.488,0.511],[1,-1,-1,0],[9E+009,9E+009,9E+009,9E+009,9E+009,9E+009]],[167,500,5000,500],[TRUE,0.5,0.5,0.5,0.05,0.5,0.05],tool1\WObj:=wobj1;
MoveL [[-2666.593,-79.064,253.412],[0.513,-0.487,0.488,0.512],[1,-1,-1,0],[9E+009,9E+009,9E+009,9E+009,9E+009,9E+009]],[167,500,5000,500],[TRUE,0.5,0.5,0.5,0.05,0.5,0.05],tool1\WObj:=wobj1;
MoveL [[-2666.401,33.463,259.07],[0.513,-0.487,0.488,0.512],[1,-1,-1,0],[9E+009,9E+009,9E+009,9E+009,9E+009,9E+009]],[167,500,5000,500],[TRUE,0.5,0.5,0.5,0.05,0.5,0.05],tool1\WObj:=wobj1;
MoveL [[-2666.397,35.461,259.17],[0.513,-0.487,0.488,0.512],[1,-1,-1,0],[9E+009,9E+009,9E+009,9E+009,9E+009,9E+009]],[167,500,5000,500],[TRUE,0.5,0.5,0.5,0.05,0.5,0.05],tool1\WObj:=wobj1;
MoveL [[-2666.383,43.461,259.573],[0.513,-0.487,0.488,0.512],[1,-1,-1,0],[9E+009,9E+009,9E+009,9E+009,9E+009,9E+009]],[3,500,5000,500],[TRUE,0.5,0.5,0.5,0.05,0.5,0.05],tool1\WObj:=wobj1;
MoveL [[-2666.401,33.463,259.07],[0.513,-0.487,0.488,0.512],[1,-1,-1,0],[9E+009,9E+009,9E+009,9E+009,9E+009,9E+009]],[167,500,5000,500],[TRUE,0.5,0.5,0.5,0.05,0.5,0.05],tool1\WObj:=wobj1;
MoveL [[-2666.593,-79.064,253.412],[0.513,-0.487,0.488,0.512],[1,-1,-1,0],[9E+009,9E+009,9E+009,9E+009,9E+009,9E+009]],[167,500,5000,500],[TRUE,0.5,0.5,0.5,0.05,0.5,0.05],tool1\WObj:=wobj1;
MoveL [[-2646.637,-77.983,253.477],[0.513,-0.487,0.488,0.512],[1,-1,-1,0],[9E+009,9E+009,9E+009,9E+009,9E+009,9E+009]],[167,500,5000,500],[TRUE,0.5,0.5,0.5,0.05,0.5,0.05],tool1\WObj:=wobj1;
MoveL [[-2646.447,33.427,259.122],[0.513,-0.487,0.488,0.512],[1,-1,-1,0],[9E+009,9E+009,9E+009,9E+009,9E+009,9E+009]],[167,500,5000,500],[TRUE,0.5,0.5,0.5,0.05,0.5,0.05],tool1\WObj:=wobj1;
MoveL [[-2646.444,35.424,259.224],[0.513,-0.487,0.488,0.512],[1,-1,-1,0],[9E+009,9E+009,9E+009,9E+009,9E+009,9E+009]],[167,500,5000,500],[TRUE,0.5,0.5,0.5,0.05,0.5,0.05],tool1\WObj:=wobj1;
MoveL [[-2646.43,43.424,259.629],[0.513,-0.487,0.488,0.512],[1,-1,-1,0],[9E+009,9E+009,9E+009,9E+009,9E+009,9E+009]],[3,500,5000,500],[TRUE,0.5,0.5,0.5,0.05,0.5,0.05],tool1\WObj:=wobj1;
MoveL [[-2646.447,33.427,259.122],[0.513,-0.487,0.488,0.512],[1,-1,-1,0],[9E+009,9E+009,9E+009,9E+009,9E+009,9E+009]],[167,500,5000,500],[TRUE,0.5,0.5,0.5,0.05,0.5,0.05],tool1\WObj:=wobj1;
MoveL [[-2646.637,-77.983,253.477],[0.513,-0.487,0.488,0.512],[1,-1,-1,0],[9E+009,9E+009,9E+009,9E+009,9E+009,9E+009]],[167,500,5000,500],[TRUE,0.5,0.5,0.5,0.05,0.5,0.05],tool1\WObj:=wobj1;
MoveL [[-2626.682,-76.903,253.548],[0.513,-0.487,0.488,0.512],[1,-1,-1,0],[9E+009,9E+009,9E+009,9E+009,9E+009,9E+009]],[167,500,5000,500],[TRUE,0.5,0.5,0.5,0.05,0.5,0.05],tool1\WObj:=wobj1;
MoveL [[-2626.494,33.39,259.176],[0.513,-0.487,0.488,0.512],[1,-1,-1,0],[9E+009,9E+009,9E+009,9E+009,9E+009,9E+009]],[167,500,5000,500],[TRUE,0.5,0.5,0.5,0.05,0.5,0.05],tool1\WObj:=wobj1;
MoveL [[-2626.49,35.388,259.278],[0.513,-0.487,0.488,0.512],[1,-1,-1,0],[9E+009,9E+009,9E+009,9E+009,9E+009,9E+009]],[167,500,5000,500],[TRUE,0.5,0.5,0.5,0.05,0.5,0.05],tool1\WObj:=wobj1;
MoveL [[-2626.477,43.387,259.687],[0.513,-0.487,0.488,0.512],[1,-1,-1,0],[9E+009,9E+009,9E+009,9E+009,9E+009,9E+009]],[3,500,5000,500],[TRUE,0.5,0.5,0.5,0.05,0.5,0.05],tool1\WObj:=wobj1;
MoveL [[-2626.494,33.39,259.176],[0.513,-0.487,0.488,0.512],[1,-1,-1,0],[9E+009,9E+009,9E+009,9E+009,9E+009,9E+009]],[167,500,5000,500],[TRUE,0.5,0.5,0.5,0.05,0.5,0.05],tool1\WObj:=wobj1;
MoveL [[-2626.682,-76.903,253.548],[0.513,-0.487,0.488,0.512],[1,-1,-1,0],[9E+009,9E+009,9E+009,9E+009,9E+009,9E+009]],[167,500,5000,500],[TRUE,0.5,0.5,0.5,0.05,0.5,0.05],tool1\WObj:=wobj1;
MoveL [[-2646.746,-77.989,272.378],[0.512,-0.487,0.488,0.511],[1,-1,-1,0],[9E+009,9E+009,9E+009,9E+009,9E+009,9E+009]],[167,500,5000,500],[TRUE,0.5,0.5,0.5,0.05,0.5,0.05],tool1\WObj:=wobj1;
MoveL [[-2646.518,32.505,277.727],[0.512,-0.487,0.488,0.511],[1,-1,-1,0],[9E+009,9E+009,9E+009,9E+009,9E+009,9E+009]],[167,500,5000,500],[TRUE,0.5,0.5,0.5,0.05,0.5,0.05],tool1\WObj:=wobj1;
MoveL [[-2646.514,34.503,277.824],[0.512,-0.487,0.488,0.511],[1,-1,-1,0],[9E+009,9E+009,9E+009,9E+009,9E+009,9E+009]],[167,500,5000,500],[TRUE,0.5,0.5,0.5,0.05,0.5,0.05],tool1\WObj:=wobj1;
MoveL [[-2646.497,42.504,278.211],[0.512,-0.487,0.488,0.511],[1,-1,-1,0],[9E+009,9E+009,9E+009,9E+009,9E+009,9E+009]],[3,500,5000,500],[TRUE,0.5,0.5,0.5,0.05,0.5,0.05],tool1\WObj:=wobj1;
MoveL [[-2646.518,32.505,277.727],[0.512,-0.487,0.488,0.511],[1,-1,-1,0],[9E+009,9E+009,9E+009,9E+009,9E+009,9E+009]],[167,500,5000,500],[TRUE,0.5,0.5,0.5,0.05,0.5,0.05],tool1\WObj:=wobj1;
MoveL [[-2646.746,-77.989,272.378],[0.512,-0.487,0.488,0.511],[1,-1,-1,0],[9E+009,9E+009,9E+009,9E+009,9E+009,9E+009]],[167,500,5000,500],[TRUE,0.5,0.5,0.5,0.05,0.5,0.05],tool1\WObj:=wobj1;
MoveL [[-2726.463,-82.306,253.216],[0.513,-0.487,0.488,0.512],[1,-1,-1,0],[9E+009,9E+009,9E+009,9E+009,9E+009,9E+009]],[167,500,5000,500],[TRUE,0.5,0.5,0.5,0.05,0.5,0.05],tool1\WObj:=wobj1;
MoveL [[-2726.261,33.575,258.91],[0.513,-0.487,0.488,0.512],[1,-1,-1,0],[9E+009,9E+009,9E+009,9E+009,9E+009,9E+009]],[167,500,5000,500],[TRUE,0.5,0.5,0.5,0.05,0.5,0.05],tool1\WObj:=wobj1;
MoveL [[-2726.258,35.572,259.008],[0.513,-0.487,0.488,0.512],[1,-1,-1,0],[9E+009,9E+009,9E+009,9E+009,9E+009,9E+009]],[167,500,5000,500],[TRUE,0.5,0.5,0.5,0.05,0.5,0.05],tool1\WObj:=wobj1;
MoveL [[-2726.244,43.573,259.401],[0.513,-0.487,0.488,0.512],[1,-1,-1,0],[9E+009,9E+009,9E+009,9E+009,9E+009,9E+009]],[3,500,5000,500],[TRUE,0.5,0.5,0.5,0.05,0.5,0.05],tool1\WObj:=wobj1;
MoveL [[-2726.261,33.575,258.91],[0.513,-0.487,0.488,0.512],[1,-1,-1,0],[9E+009,9E+009,9E+009,9E+009,9E+009,9E+009]],[167,500,5000,500],[TRUE,0.5,0.5,0.5,0.05,0.5,0.05],tool1\WObj:=wobj1;
MoveL [[-2726.463,-82.306,253.216],[0.513,-0.487,0.488,0.512],[1,-1,-1,0],[9E+009,9E+009,9E+009,9E+009,9E+009,9E+009]],[167,500,5000,500],[TRUE,0.5,0.5,0.5,0.05,0.5,0.05],tool1\WObj:=wobj1;
MoveL [[-2746.421,-83.387,253.149],[0.512,-0.487,0.488,0.512],[1,-1,-1,0],[9E+009,9E+009,9E+009,9E+009,9E+009,9E+009]],[167,500,5000,500],[TRUE,0.5,0.5,0.5,0.05,0.5,0.05],tool1\WObj:=wobj1;
MoveL [[-2746.215,33.612,258.856],[0.512,-0.487,0.488,0.512],[1,-1,-1,0],[9E+009,9E+009,9E+009,9E+009,9E+009,9E+009]],[167,500,5000,500],[TRUE,0.5,0.5,0.5,0.05,0.5,0.05],tool1\WObj:=wobj1;
MoveL [[-2746.211,35.61,258.953],[0.512,-0.487,0.488,0.512],[1,-1,-1,0],[9E+009,9E+009,9E+009,9E+009,9E+009,9E+009]],[167,500,5000,500],[TRUE,0.5,0.5,0.5,0.05,0.5,0.05],tool1\WObj:=wobj1;
MoveL [[-2746.197,43.61,259.344],[0.512,-0.487,0.488,0.512],[1,-1,-1,0],[9E+009,9E+009,9E+009,9E+009,9E+009,9E+009]],[3,500,5000,500],[TRUE,0.5,0.5,0.5,0.05,0.5,0.05],tool1\WObj:=wobj1;
MoveL [[-2746.215,33.612,258.856],[0.512,-0.487,0.488,0.512],[1,-1,-1,0],[9E+009,9E+009,9E+009,9E+009,9E+009,9E+009]],[167,500,5000,500],[TRUE,0.5,0.5,0.5,0.05,0.5,0.05],tool1\WObj:=wobj1;
MoveL [[-2746.421,-83.387,253.149],[0.512,-0.487,0.488,0.512],[1,-1,-1,0],[9E+009,9E+009,9E+009,9E+009,9E+009,9E+009]],[167,500,5000,500],[TRUE,0.5,0.5,0.5,0.05,0.5,0.05],tool1\WObj:=wobj1;
MoveL [[-2766.377,-84.468,253.088],[0.512,-0.487,0.488,0.511],[1,-1,-1,0],[9E+009,9E+009,9E+009,9E+009,9E+009,9E+009]],[167,500,5000,500],[TRUE,0.5,0.5,0.5,0.05,0.5,0.05],tool1\WObj:=wobj1;
MoveL [[-2766.168,33.65,258.803],[0.512,-0.487,0.488,0.511],[1,-1,-1,0],[9E+009,9E+009,9E+009,9E+009,9E+009,9E+009]],[167,500,5000,500],[TRUE,0.5,0.5,0.5,0.05,0.5,0.05],tool1\WObj:=wobj1;
MoveL [[-2766.165,35.648,258.9],[0.512,-0.487,0.488,0.511],[1,-1,-1,0],[9E+009,9E+009,9E+009,9E+009,9E+009,9E+009]],[167,500,5000,500],[TRUE,0.5,0.5,0.5,0.05,0.5,0.05],tool1\WObj:=wobj1;
MoveL [[-2766.151,43.648,259.287],[0.512,-0.487,0.488,0.511],[1,-1,-1,0],[9E+009,9E+009,9E+009,9E+009,9E+009,9E+009]],[3,500,5000,500],[TRUE,0.5,0.5,0.5,0.05,0.5,0.05],tool1\WObj:=wobj1;
MoveL [[-2766.168,33.65,258.803],[0.512,-0.487,0.488,0.511],[1,-1,-1,0],[9E+009,9E+009,9E+009,9E+009,9E+009,9E+009]],[167,500,5000,500],[TRUE,0.5,0.5,0.5,0.05,0.5,0.05],tool1\WObj:=wobj1;
MoveL [[-2766.377,-84.468,253.088],[0.512,-0.487,0.488,0.511],[1,-1,-1,0],[9E+009,9E+009,9E+009,9E+009,9E+009,9E+009]],[167,500,5000,500],[TRUE,0.5,0.5,0.5,0.05,0.5,0.05],tool1\WObj:=wobj1;
MoveL [[-2766.49,-84.474,272.01],[0.512,-0.488,0.489,0.511],[1,-1,-1,0],[9E+009,9E+009,9E+009,9E+009,9E+009,9E+009]],[167,500,5000,500],[TRUE,0.5,0.5,0.5,0.05,0.5,0.05],tool1\WObj:=wobj1;
MoveL [[-2766.239,32.772,277.41],[0.512,-0.488,0.489,0.511],[1,-1,-1,0],[9E+009,9E+009,9E+009,9E+009,9E+009,9E+009]],[167,500,5000,500],[TRUE,0.5,0.5,0.5,0.05,0.5,0.05],tool1\WObj:=wobj1;
MoveL [[-2766.235,34.77,277.502],[0.512,-0.488,0.489,0.511],[1,-1,-1,0],[9E+009,9E+009,9E+009,9E+009,9E+009,9E+009]],[167,500,5000,500],[TRUE,0.5,0.5,0.5,0.05,0.5,0.05],tool1\WObj:=wobj1;
MoveL [[-2766.218,42.771,277.87],[0.512,-0.488,0.489,0.511],[1,-1,-1,0],[9E+009,9E+009,9E+009,9E+009,9E+009,9E+009]],[3,500,5000,500],[TRUE,0.5,0.5,0.5,0.05,0.5,0.05],tool1\WObj:=wobj1;
MoveL [[-2766.239,32.772,277.41],[0.512,-0.488,0.489,0.511],[1,-1,-1,0],[9E+009,9E+009,9E+009,9E+009,9E+009,9E+009]],[167,500,5000,500],[TRUE,0.5,0.5,0.5,0.05,0.5,0.05],tool1\WObj:=wobj1;
MoveL [[-2766.49,-84.474,272.01],[0.512,-0.488,0.489,0.511],[1,-1,-1,0],[9E+009,9E+009,9E+009,9E+009,9E+009,9E+009]],[167,500,5000,500],[TRUE,0.5,0.5,0.5,0.05,0.5,0.05],tool1\WObj:=wobj1;
MoveL [[-2786.055,-85.533,271.955],[0.512,-0.488,0.489,0.511],[1,-1,-1,0],[9E+009,9E+009,9E+009,9E+009,9E+009,9E+009]],[167,500,5000,500],[TRUE,0.5,0.5,0.5,0.05,0.5,0.05],tool1\WObj:=wobj1;
MoveL [[-2785.798,32.817,277.358],[0.512,-0.488,0.489,0.511],[1,-1,-1,0],[9E+009,9E+009,9E+009,9E+009,9E+009,9E+009]],[167,500,5000,500],[TRUE,0.5,0.5,0.5,0.05,0.5,0.05],tool1\WObj:=wobj1;
MoveL [[-2785.794,34.815,277.449],[0.512,-0.488,0.489,0.511],[1,-1,-1,0],[9E+009,9E+009,9E+009,9E+009,9E+009,9E+009]],[167,500,5000,500],[TRUE,0.5,0.5,0.5,0.05,0.5,0.05],tool1\WObj:=wobj1;
MoveL [[-2785.776,42.816,277.814],[0.512,-0.488,0.489,0.511],[1,-1,-1,0],[9E+009,9E+009,9E+009,9E+009,9E+009,9E+009]],[3,500,5000,500],[TRUE,0.5,0.5,0.5,0.05,0.5,0.05],tool1\WObj:=wobj1;
MoveL [[-2785.798,32.817,277.358],[0.512,-0.488,0.489,0.511],[1,-1,-1,0],[9E+009,9E+009,9E+009,9E+009,9E+009,9E+009]],[167,500,5000,500],[TRUE,0.5,0.5,0.5,0.05,0.5,0.05],tool1\WObj:=wobj1;
MoveL [[-2786.055,-85.533,271.955],[0.512,-0.488,0.489,0.511],[1,-1,-1,0],[9E+009,9E+009,9E+009,9E+009,9E+009,9E+009]],[167,500,5000,500],[TRUE,0.5,0.5,0.5,0.05,0.5,0.05],tool1\WObj:=wobj1;
MoveL [[-2706.507,-81.226,253.278],[0.513,-0.487,0.488,0.512],[1,-1,-1,0],[9E+009,9E+009,9E+009,9E+009,9E+009,9E+009]],[167,500,5000,500],[TRUE,0.5,0.5,0.5,0.05,0.5,0.05],tool1\WObj:=wobj1;
MoveL [[-2706.307,33.537,258.962],[0.513,-0.487,0.488,0.512],[1,-1,-1,0],[9E+009,9E+009,9E+009,9E+009,9E+009,9E+009]],[167,500,5000,500],[TRUE,0.5,0.5,0.5,0.05,0.5,0.05],tool1\WObj:=wobj1;
MoveL [[-2706.304,35.535,259.061],[0.513,-0.487,0.488,0.512],[1,-1,-1,0],[9E+009,9E+009,9E+009,9E+009,9E+009,9E+009]],[167,500,5000,500],[TRUE,0.5,0.5,0.5,0.05,0.5,0.05],tool1\WObj:=wobj1;
MoveL [[-2706.29,43.535,259.458],[0.513,-0.487,0.488,0.512],[1,-1,-1,0],[9E+009,9E+009,9E+009,9E+009,9E+009,9E+009]],[3,500,5000,500],[TRUE,0.5,0.5,0.5,0.05,0.5,0.05],tool1\WObj:=wobj1;
MoveL [[-2706.307,33.537,258.962],[0.513,-0.487,0.488,0.512],[1,-1,-1,0],[9E+009,9E+009,9E+009,9E+009,9E+009,9E+009]],[167,500,5000,500],[TRUE,0.5,0.5,0.5,0.05,0.5,0.05],tool1\WObj:=wobj1;
MoveL [[-2706.507,-81.226,253.278],[0.513,-0.487,0.488,0.512],[1,-1,-1,0],[9E+009,9E+009,9E+009,9E+009,9E+009,9E+009]],[167,500,5000,500],[TRUE,0.5,0.5,0.5,0.05,0.5,0.05],tool1\WObj:=wobj1;
MoveL [[-2686.55,-80.145,253.342],[0.513,-0.487,0.488,0.512],[1,-1,-1,0],[9E+009,9E+009,9E+009,9E+009,9E+009,9E+009]],[167,500,5000,500],[TRUE,0.5,0.5,0.5,0.05,0.5,0.05],tool1\WObj:=wobj1;
MoveL [[-2686.354,33.5,259.016],[0.513,-0.487,0.488,0.512],[1,-1,-1,0],[9E+009,9E+009,9E+009,9E+009,9E+009,9E+009]],[167,500,5000,500],[TRUE,0.5,0.5,0.5,0.05,0.5,0.05],tool1\WObj:=wobj1;
MoveL [[-2686.351,35.498,259.116],[0.513,-0.487,0.488,0.512],[1,-1,-1,0],[9E+009,9E+009,9E+009,9E+009,9E+009,9E+009]],[167,500,5000,500],[TRUE,0.5,0.5,0.5,0.05,0.5,0.05],tool1\WObj:=wobj1;
MoveL [[-2686.337,43.498,259.515],[0.513,-0.487,0.488,0.512],[1,-1,-1,0],[9E+009,9E+009,9E+009,9E+009,9E+009,9E+009]],[3,500,5000,500],[TRUE,0.5,0.5,0.5,0.05,0.5,0.05],tool1\WObj:=wobj1;
MoveL [[-2686.354,33.5,259.016],[0.513,-0.487,0.488,0.512],[1,-1,-1,0],[9E+009,9E+009,9E+009,9E+009,9E+009,9E+009]],[167,500,5000,500],[TRUE,0.5,0.5,0.5,0.05,0.5,0.05],tool1\WObj:=wobj1;
MoveL [[-2686.55,-80.145,253.342],[0.513,-0.487,0.488,0.512],[1,-1,-1,0],[9E+009,9E+009,9E+009,9E+009,9E+009,9E+009]],[167,500,5000,500],[TRUE,0.5,0.5,0.5,0.05,0.5,0.05],tool1\WObj:=wobj1;
