MoveL [[-2958.779,27.291,462.475],[0.507,-0.493,0.496,0.503],[1,-1,-1,0],[9E+009,9E+009,9E+009,9E+009,9E+009,9E+009]],[167,500,5000,500],[TRUE,0.5,0.5,0.5,0.05,0.5,0.05],tool1\\WObj:=wobj1;]
MoveL [[-2959.732,-94.939,459.836],[0.507,-0.493,0.496,0.503],[1,-1,-1,0],[9E+009,9E+009,9E+009,9E+009,9E+009,9E+009]],[167,500,5000,500],[TRUE,0.5,0.5,0.5,0.05,0.5,0.05],tool1\\WObj:=wobj1;]
MoveL [[-2990.535,27.543,462.404],[0.507,-0.493,0.497,0.503],[1,-1,-1,0],[9E+009,9E+009,9E+009,9E+009,9E+009,9E+009]],[167,500,5000,500],[TRUE,0.5,0.5,0.5,0.05,0.5,0.05],tool1\\WObj:=wobj1;]
MoveL [[-2991.529,-96.661,459.858],[0.507,-0.493,0.497,0.503],[1,-1,-1,0],[9E+009,9E+009,9E+009,9E+009,9E+009,9E+009]],[167,500,5000,500],[TRUE,0.5,0.5,0.5,0.05,0.5,0.05],tool1\\WObj:=wobj1;]
MoveL [[-3029.149,27.858,462.318],[0.507,-0.493,0.497,0.503],[1,-1,-1,0],[9E+009,9E+009,9E+009,9E+009,9E+009,9E+009]],[167,500,5000,500],[TRUE,0.5,0.5,0.5,0.05,0.5,0.05],tool1\\WObj:=wobj1;]
MoveL [[-3030.194,-98.755,459.897],[0.507,-0.493,0.497,0.503],[1,-1,-1,0],[9E+009,9E+009,9E+009,9E+009,9E+009,9E+009]],[167,500,5000,500],[TRUE,0.5,0.5,0.5,0.05,0.5,0.05],tool1\\WObj:=wobj1;]
MoveL [[-2888.41,26.754,462.635],[0.508,-0.492,0.496,0.504],[1,-1,-1,0],[9E+009,9E+009,9E+009,9E+009,9E+009,9E+009]],[167,500,5000,500],[TRUE,0.5,0.5,0.5,0.05,0.5,0.05],tool1\\WObj:=wobj1;]
MoveL [[-2856.656,26.52,462.708],[0.508,-0.492,0.496,0.504],[1,-1,-1,0],[9E+009,9E+009,9E+009,9E+009,9E+009,9E+009]],[167,500,5000,500],[TRUE,0.5,0.5,0.5,0.05,0.5,0.05],tool1\\WObj:=wobj1;]
MoveL [[-2857.492,-89.402,459.818],[0.508,-0.492,0.496,0.504],[1,-1,-1,0],[9E+009,9E+009,9E+009,9E+009,9E+009,9E+009]],[167,500,5000,500],[TRUE,0.5,0.5,0.5,0.05,0.5,0.05],tool1\\WObj:=wobj1;]
MoveL [[-2824.901,26.292,462.782],[0.508,-0.492,0.495,0.505],[1,-1,-1,0],[9E+009,9E+009,9E+009,9E+009,9E+009,9E+009]],[167,500,5000,500],[TRUE,0.5,0.5,0.5,0.05,0.5,0.05],tool1\\WObj:=wobj1;]
MoveL [[-2825.703,-87.681,459.826],[0.508,-0.492,0.495,0.505],[1,-1,-1,0],[9E+009,9E+009,9E+009,9E+009,9E+009,9E+009]],[167,500,5000,500],[TRUE,0.5,0.5,0.5,0.05,0.5,0.05],tool1\\WObj:=wobj1;]
MoveL [[-2837.648,-88.328,269.682],[0.512,-0.488,0.489,0.511],[1,-1,-1,0],[9E+009,9E+009,9E+009,9E+009,9E+009,9E+009]],[167,500,5000,500],[TRUE,0.5,0.5,0.5,0.05,0.5,0.05],tool1\\WObj:=wobj1;]
MoveL [[-2863.653,-89.736,269.62],[0.511,-0.488,0.489,0.51],[1,-1,-1,0],[9E+009,9E+009,9E+009,9E+009,9E+009,9E+009]],[167,500,5000,500],[TRUE,0.5,0.5,0.5,0.05,0.5,0.05],tool1\\WObj:=wobj1;]
MoveL [[-2889.666,-91.144,269.56],[0.511,-0.488,0.49,0.51],[1,-1,-1,0],[9E+009,9E+009,9E+009,9E+009,9E+009,9E+009]],[167,500,5000,500],[TRUE,0.5,0.5,0.5,0.05,0.5,0.05],tool1\\WObj:=wobj1;]
MoveL [[-2915.673,-92.553,269.501],[0.511,-0.489,0.49,0.51],[1,-1,-1,0],[9E+009,9E+009,9E+009,9E+009,9E+009,9E+009]],[167,500,5000,500],[TRUE,0.5,0.5,0.5,0.05,0.5,0.05],tool1\\WObj:=wobj1;]
MoveL [[-2941.679,-93.961,269.45],[0.511,-0.489,0.49,0.51],[1,-1,-1,0],[9E+009,9E+009,9E+009,9E+009,9E+009,9E+009]],[167,500,5000,500],[TRUE,0.5,0.5,0.5,0.05,0.5,0.05],tool1\\WObj:=wobj1;]
MoveL [[-2967.691,-95.37,269.401],[0.511,-0.489,0.49,0.51],[1,-1,-1,0],[9E+009,9E+009,9E+009,9E+009,9E+009,9E+009]],[167,500,5000,500],[TRUE,0.5,0.5,0.5,0.05,0.5,0.05],tool1\\WObj:=wobj1;]
MoveL [[-2807.319,-86.685,252.973],[0.512,-0.488,0.488,0.511],[1,-1,-1,0],[9E+009,9E+009,9E+009,9E+009,9E+009,9E+009]],[167,500,5000,500],[TRUE,0.5,0.5,0.5,0.05,0.5,0.05],tool1\\WObj:=wobj1;]
MoveL [[-2666.593,-79.064,253.412],[0.513,-0.487,0.488,0.512],[1,-1,-1,0],[9E+009,9E+009,9E+009,9E+009,9E+009,9E+009]],[167,500,5000,500],[TRUE,0.5,0.5,0.5,0.05,0.5,0.05],tool1\\WObj:=wobj1;]
MoveL [[-2626.682,-76.903,253.548],[0.513,-0.487,0.488,0.512],[1,-1,-1,0],[9E+009,9E+009,9E+009,9E+009,9E+009,9E+009]],[167,500,5000,500],[TRUE,0.5,0.5,0.5,0.05,0.5,0.05],tool1\\WObj:=wobj1;]
MoveL [[-2646.746,-77.989,272.378],[0.512,-0.487,0.488,0.511],[1,-1,-1,0],[9E+009,9E+009,9E+009,9E+009,9E+009,9E+009]],[167,500,5000,500],[TRUE,0.5,0.5,0.5,0.05,0.5,0.05],tool1\\WObj:=wobj1;]
MoveL [[-2726.463,-82.306,253.216],[0.513,-0.487,0.488,0.512],[1,-1,-1,0],[9E+009,9E+009,9E+009,9E+009,9E+009,9E+009]],[167,500,5000,500],[TRUE,0.5,0.5,0.5,0.05,0.5,0.05],tool1\\WObj:=wobj1;]
MoveL [[-2746.421,-83.387,253.149],[0.512,-0.487,0.488,0.512],[1,-1,-1,0],[9E+009,9E+009,9E+009,9E+009,9E+009,9E+009]],[167,500,5000,500],[TRUE,0.5,0.5,0.5,0.05,0.5,0.05],tool1\\WObj:=wobj1;]
MoveL [[-2766.49,-84.474,272.01],[0.512,-0.488,0.489,0.511],[1,-1,-1,0],[9E+009,9E+009,9E+009,9E+009,9E+009,9E+009]],[167,500,5000,500],[TRUE,0.5,0.5,0.5,0.05,0.5,0.05],tool1\\WObj:=wobj1;]
MoveL [[-2785.798,32.817,277.358],[0.512,-0.488,0.489,0.511],[1,-1,-1,0],[9E+009,9E+009,9E+009,9E+009,9E+009,9E+009]],[167,500,5000,500],[TRUE,0.5,0.5,0.5,0.05,0.5,0.05],tool1\\WObj:=wobj1;]
MoveL [[-2786.055,-85.533,271.955],[0.512,-0.488,0.489,0.511],[1,-1,-1,0],[9E+009,9E+009,9E+009,9E+009,9E+009,9E+009]],[167,500,5000,500],[TRUE,0.5,0.5,0.5,0.05,0.5,0.05],tool1\\WObj:=wobj1;]
MoveL [[-2706.507,-81.226,253.278],[0.513,-0.487,0.488,0.512],[1,-1,-1,0],[9E+009,9E+009,9E+009,9E+009,9E+009,9E+009]],[167,500,5000,500],[TRUE,0.5,0.5,0.5,0.05,0.5,0.05],tool1\\WObj:=wobj1;]
MoveL [[-2686.55,-80.145,253.342],[0.513,-0.487,0.488,0.512],[1,-1,-1,0],[9E+009,9E+009,9E+009,9E+009,9E+009,9E+009]],[167,500,5000,500],[TRUE,0.5,0.5,0.5,0.05,0.5,0.05],tool1\\WObj:=wobj1;]
